; generated by PrusaSlicer 2.6.0-alpha0 on 2023-02-28 at 19:38:28 UTC

; 
;

; 
;

; 
;

; 

; external perimeters extrusion width = 0.45mm
; perimeters extrusion width = 0.45mm
; infill extrusion width = 0.45mm
; solid infill extrusion width = 0.45mm
; top infill extrusion width = 0.40mm
; first layer extrusion width = 0.42mm

M73 P0 R43
M201 X2500 Y2500 Z400 E5000 ; sets maximum accelerations, mm/sec^2
M203 X180 Y180 Z12 E80 ; sets maximum feedrates, mm / sec
M204 P1250 R1250 T2500 ; sets acceleration (P, T) and retract acceleration (R), mm/sec^2
M205 X8.00 Y8.00 Z2.00 E10.00 ; sets the jerk limits, mm/sec
M205 S0 T0 ; sets the minimum extruding and travel feed rate, mm/sec
M107
;TYPE:Custom
M862.3 P "MINI" ; printer model check
G90 ; use absolute coordinates
M83 ; extruder relative mode
M104 S170 ; set extruder temp for bed leveling
M140 S60 ; set bed temp
M109 R170 ; wait for bed leveling temp
M190 S60 ; wait for bed temp
M204 T1250 ; set travel acceleration
G28 ; home all without mesh bed level
G29 ; mesh bed leveling 
M204 T2500 ; restore travel acceleration
M104 S215 ; set extruder temp
G92 E0
G1 Y-2 X179 F2400
G1 Z3 F720
M109 S215 ; wait for extruder temp

; intro line
G1 X170 F1000
G1 Z0.2 F720
G1 X110 E8 F900
G1 X40 E10 F700
G92 E0

M221 S95 ; set flow
G21 ; set units to millimeters
G90 ; use absolute coordinates
M83 ; use relative distances for extrusion
M900 K0.05 ; Filament gcode LA 1.5
M900 K30 ; Filament gcode LA 1.0
M107
;LAYER_CHANGE
;Z:0.25
;HEIGHT:0.25
;BEFORE_LAYER_CHANGE
G92 E0.0
;0.25


G1 E-3.2 F4200
G1 Z.2 F720
G1 Z.25
;AFTER_LAYER_CHANGE
;0.25
G1 Z.45
G1 X80.39 Y67.54 F9000
G1 Z.25 F720
G1 E3.2 F2400
M204 P800
;TYPE:Skirt/Brim
;WIDTH:0.42
G1 F1200
G1 X81.428 Y66.659 E.05962
G1 X82.375 Y66.462 E.04236
G1 X97.625 Y66.462 E.66779
G1 X98.929 Y66.853 E.05961
G1 X99.882 Y68.117 E.06932
G1 X112.327 Y107.597 E1.81266
G1 X112.478 Y108.581 E.04359
G1 X112.424 Y109.595 E.04447
G1 X112.321 Y110.079 E.02167
G1 X111.958 Y111.028 E.04449
G1 X111.697 Y111.481 E.02289
G1 X111.056 Y112.269 E.04448
G1 X110.266 Y112.907 E.04447
G1 X109.49 Y113.31 E.03829
G1 X108.139 Y113.482 E.05964
G1 X107.405 Y113.231 E.03397
G1 X70.318 Y93.256 E1.84459
G1 X69.311 Y92.6 E.05263
G1 X68.594 Y91.881 E.04446
G1 X68.042 Y91.028 E.04449
G1 X67.679 Y90.079 E.04449
G1 X67.522 Y89.075 E.0445
G1 X67.575 Y88.07 E.04407
G1 X67.838 Y87.088 E.04452
G1 X68.302 Y86.177 E.04477
G1 X80.357 Y67.59 E.97011
M204 P1000
; printing object 0 id:0 copy 0
G1 E-2.24 F4200
;WIPE_START
G1 F7200
G1 X81.428 Y66.659 E-.78641
G1 X81.735 Y66.595 E-.17359
;WIPE_END
G1 Z.45 F720
G1 X71.23 Y89.531 F9000
G1 Z.25 F720
G1 E3.2 F2400
M204 P800
;TYPE:Perimeter
G1 F1200
G1 X71.141 Y89.377 E.00779
G1 X71.053 Y89.109 E.01235
G1 X71.024 Y88.828 E.01237
G1 X71.053 Y88.547 E.01237
G1 X71.141 Y88.279 E.01235
G1 X71.327 Y87.956 E.01632
G1 X82.996 Y69.971 E.93879
G1 X96.787 Y69.971 E.6039
G1 X97.935 Y73.611 E.16713
G1 X97.324 Y73.168 E.03305
G1 X96.628 Y72.858 E.03336
G1 X95.881 Y72.699 E.03344
G1 X84.119 Y72.699 E.51505
G1 X83.372 Y72.858 E.03344
M73 P1 R43
G1 X82.676 Y73.168 E.03336
G1 X82.058 Y73.616 E.03342
G1 X81.574 Y74.154 E.03169
G1 X71.263 Y89.482 E.80893
M204 P1000
G1 E-2.24 F4200
;WIPE_START
G1 F7200
G1 X71.141 Y89.377 E-.0892
G1 X71.053 Y89.109 E-.15632
G1 X71.024 Y88.828 E-.15655
G1 X71.053 Y88.547 E-.15655
G1 X71.141 Y88.279 E-.15632
G1 X71.327 Y87.956 E-.20655
G1 X71.365 Y87.898 E-.03851
;WIPE_END
G1 Z.45 F720
G1 X108.823 Y108.153 F9000
G1 Z.25 F720
G1 E3.2 F2400
M204 P800
G1 F1200
G1 X108.949 Y108.574 E.01924
G1 X108.841 Y108.211 E.01658
M204 P1000
G1 E-2.24 F4200
;WIPE_START
G1 F7200
G1 X108.949 Y108.574 E-.20988
G1 X108.841 Y108.211 E-.20988
;WIPE_END
G1 E-.54024 F4200
G1 Z.45 F720
G1 X71.265 Y90.135 F9000
G1 Z.25 F720
G1 E3.2 F2400
M204 P800
G1 F1200
G1 X70.984 Y89.839 E.01787
G1 X70.804 Y89.527 E.01577
G1 X70.693 Y89.186 E.0157
G1 X70.656 Y88.828 E.01576
G1 X70.693 Y88.471 E.01572
G1 X70.804 Y88.129 E.01574
G1 X71.015 Y87.764 E.01846
G1 X82.797 Y69.604 E.94791
G1 X97.056 Y69.604 E.62439
G1 X109.306 Y108.467 E1.78432
G1 X109.344 Y108.828 E.0159
G1 X109.307 Y109.186 E.01576
G1 X109.196 Y109.527 E.0157
G1 X109.016 Y109.839 E.01577
G1 X108.963 Y109.897 E.00344
G1 X98.687 Y75.577 E1.56877
G1 X98.497 Y74.994 E.02685
G1 X98.154 Y74.4 E.03004
G1 X97.695 Y73.89 E.03005
G1 X97.14 Y73.487 E.03003
G1 X96.514 Y73.208 E.03001
G1 X95.843 Y73.065 E.03004
G1 X84.157 Y73.065 E.51172
G1 X83.486 Y73.208 E.03004
G1 X82.86 Y73.487 E.03001
G1 X82.305 Y73.89 E.03003
G1 X81.864 Y74.38 E.02887
G1 X71.298 Y90.085 E.82886
M204 P1000
G1 X71.358 Y90.654 F9000
M204 P800
;TYPE:External perimeter
G1 F1200
G1 X70.978 Y90.38 E.02051
G1 X70.686 Y90.055 E.01913
G1 X70.468 Y89.677 E.01911
G1 X70.333 Y89.262 E.01911
G1 X70.287 Y88.828 E.01911
G1 X70.333 Y88.394 E.01911
G1 X70.468 Y87.979 E.01911
G1 X70.702 Y87.573 E.02052
G1 X82.598 Y69.238 E.95706
G1 X97.324 Y69.238 E.64484
G1 X109.667 Y108.392 E1.7977
G1 X109.713 Y108.828 E.0192
G1 X109.667 Y109.262 E.01911
G1 X109.532 Y109.677 E.01911
G1 X109.314 Y110.055 E.01911
G1 X109.022 Y110.38 E.01913
G1 X108.778 Y110.557 E.0132
G1 X98.337 Y75.686 E1.59395
G1 X98.161 Y75.143 E.025
G1 X97.856 Y74.616 E.02666
G1 X97.449 Y74.164 E.02663
G1 X96.956 Y73.806 E.02668
G1 X96.4 Y73.558 E.02666
G1 X95.804 Y73.432 E.02668
G1 X84.196 Y73.432 E.50831
G1 X83.6 Y73.558 E.02668
G1 X83.044 Y73.806 E.02666
G1 X82.551 Y74.164 E.02668
G1 X82.153 Y74.606 E.02605
G1 X71.391 Y90.604 E.8443
M204 P1000
G1 X71.19 Y90.29 F9000
G1 E-2.24 F4200
;WIPE_START
G1 F7200
G1 X70.978 Y90.38 E-.26037
G1 X70.686 Y90.055 E-.24212
G1 X70.468 Y89.677 E-.24181
G1 X70.348 Y89.307 E-.2157
;WIPE_END
G1 Z.45 F720
G1 X102.386 Y87.205 F9000
G1 Z.25 F720
G1 E3.2 F2400
M204 P800
;TYPE:Gap fill
;WIDTH:0.148436
G1 F1200
G1 X103.298 Y90.173 E.03518
M204 P1000
M204 P800
;WIDTH:0.192821
G1 X104.21 Y93.14 E.05163
M204 P1000
M204 P800
;WIDTH:0.237207
G1 X105.122 Y96.108 E.06812
M204 P1000
M204 P800
;WIDTH:0.281592
G1 X106.034 Y99.076 E.0846
M204 P1000
M204 P800
;WIDTH:0.325978
G1 X106.946 Y102.043 E.10104
M204 P1000
M204 P800
;WIDTH:0.370363
G1 X107.858 Y105.011 E.11754
M204 P1000
M204 P800
;WIDTH:0.414749
G1 X108.77 Y107.978 E.13397
M204 P1000
G1 E-2.24 F4200
;WIPE_START
G1 F7200
G1 X108.261 Y106.322 E-.96
;WIPE_END
G1 Z.45 F720
G1 X97.052 Y71.175 F9000
G1 Z.25 F720
G1 E3.2 F2400
M204 P800
;TYPE:Solid infill
;WIDTH:0.421908
G1 F1200
G1 X96.122 Y70.245 E.05789
G1 X95.601 Y70.245 E.02293
G1 X97.039 Y71.683 E.08952
G1 X97.279 Y72.444 E.03512
G1 X95.08 Y70.245 E.13689
G1 X94.559 Y70.245 E.02293
G1 X97.066 Y72.752 E.15606
G1 X96.713 Y72.595 E.01701
G1 X96.3 Y72.507 E.01859
G1 X94.039 Y70.245 E.14078
G1 X93.518 Y70.245 E.02293
G1 X95.697 Y72.424 E.13564
G1 X95.176 Y72.424 E.02293
G1 X92.997 Y70.245 E.13564
G1 X92.476 Y70.245 E.02293
G1 X94.655 Y72.424 E.13564
G1 X94.134 Y72.424 E.02293
G1 X91.955 Y70.245 E.13564
G1 X91.435 Y70.245 E.02289
G1 X93.613 Y72.424 E.13561
G1 X93.093 Y72.424 E.02289
G1 X90.914 Y70.245 E.13564
G1 X90.393 Y70.245 E.02293
G1 X92.572 Y72.424 E.13564
G1 X92.051 Y72.424 E.02293
G1 X89.872 Y70.245 E.13564
G1 X89.352 Y70.245 E.02289
G1 X91.53 Y72.424 E.13561
G1 X91.01 Y72.424 E.02289
G1 X88.831 Y70.245 E.13564
G1 X88.31 Y70.245 E.02293
G1 X90.489 Y72.424 E.13564
G1 X89.968 Y72.424 E.02293
G1 X87.789 Y70.245 E.13564
G1 X87.268 Y70.245 E.02293
G1 X89.447 Y72.424 E.13564
G1 X88.926 Y72.424 E.02293
G1 X86.748 Y70.245 E.13561
G1 X86.227 Y70.245 E.02293
G1 X88.406 Y72.424 E.13564
G1 X87.885 Y72.424 E.02293
G1 X85.706 Y70.245 E.13564
G1 X85.185 Y70.245 E.02293
G1 X87.364 Y72.424 E.13564
G1 X86.843 Y72.424 E.02293
G1 X84.664 Y70.245 E.13564
G1 X84.144 Y70.245 E.02289
G1 X86.322 Y72.424 E.13561
G1 X85.802 Y72.424 E.02289
G1 X83.623 Y70.245 E.13564
G1 X83.145 Y70.245 E.02104
G1 X83.128 Y70.272 E.0014
G1 X85.281 Y72.424 E.13399
G1 X84.76 Y72.424 E.02293
G1 X82.923 Y70.587 E.11435
G1 X82.718 Y70.903 E.01658
G1 X84.239 Y72.424 E.09468
G1 X84.09 Y72.424 E.00656
G1 X83.783 Y72.489 E.01381
G1 X82.513 Y71.219 E.07906
G1 X82.308 Y71.535 E.01658
G1 X83.354 Y72.581 E.06511
G1 X82.983 Y72.73 E.0176
G1 X82.103 Y71.851 E.05475
G1 X81.898 Y72.167 E.01658
M73 P2 R43
G1 X82.622 Y72.891 E.04507
G1 X82.537 Y72.929 E.0041
G1 X82.307 Y73.096 E.01251
G1 X81.694 Y72.483 E.03816
G1 X81.489 Y72.798 E.01654
G1 X82.005 Y73.315 E.03215
G1 X81.873 Y73.411 E.00718
G1 X81.735 Y73.565 E.0091
G1 X81.284 Y73.114 E.02807
G1 X81.079 Y73.43 E.01658
G1 X81.488 Y73.839 E.02546
G1 X81.357 Y73.984 E.0086
G1 X81.259 Y74.131 E.00778
G1 X80.874 Y73.746 E.02397
G1 X80.669 Y74.062 E.01658
G1 X81.049 Y74.442 E.02365
G1 X80.84 Y74.754 E.01653
G1 X80.464 Y74.378 E.02341
G1 X80.259 Y74.694 E.01658
G1 X80.63 Y75.065 E.02309
G1 X80.421 Y75.376 E.01649
G1 X80.054 Y75.01 E.02281
G1 X79.849 Y75.325 E.01654
G1 X80.211 Y75.688 E.02257
G1 X80.002 Y75.999 E.01649
G1 X79.644 Y75.641 E.02229
G1 X79.439 Y75.957 E.01658
G1 X79.793 Y76.31 E.02201
G1 X79.583 Y76.622 E.01655
G1 X79.234 Y76.273 E.02173
G1 X79.029 Y76.589 E.01658
G1 X79.374 Y76.933 E.02145
G1 X79.164 Y77.244 E.01652
G1 X78.825 Y76.905 E.0211
G1 X78.62 Y77.221 E.01658
G1 X78.955 Y77.556 E.02085
G1 X78.745 Y77.867 E.01652
G1 X78.415 Y77.536 E.02057
G1 X78.21 Y77.852 E.01658
G1 X78.536 Y78.178 E.02029
G1 X78.326 Y78.49 E.01655
G1 X78.005 Y78.168 E.02001
G1 X77.8 Y78.484 E.01658
G1 X78.117 Y78.801 E.01973
G1 X77.907 Y79.112 E.01652
G1 X77.595 Y78.8 E.01942
G1 X77.39 Y79.116 E.01658
G1 X77.698 Y79.424 E.01917
G1 X77.489 Y79.735 E.01649
G1 X77.185 Y79.432 E.01889
G1 X76.98 Y79.748 E.01658
G1 X77.279 Y80.046 E.01858
G1 X77.07 Y80.358 E.01653
G1 X76.775 Y80.063 E.01836
G1 X76.57 Y80.379 E.01658
G1 X76.86 Y80.669 E.01805
G1 X76.651 Y80.981 E.01653
G1 X76.365 Y80.695 E.0178
G1 X76.16 Y81.011 E.01658
G1 X76.441 Y81.292 E.01749
G1 X76.232 Y81.603 E.01649
G1 X75.955 Y81.327 E.01721
G1 X75.751 Y81.643 E.01656
G1 X76.022 Y81.915 E.0169
G1 X75.813 Y82.226 E.01649
G1 X75.546 Y81.959 E.01662
G1 X75.341 Y82.274 E.01654
G1 X75.604 Y82.537 E.01637
G1 X75.394 Y82.849 E.01655
G1 X75.136 Y82.59 E.01609
G1 X74.931 Y82.906 E.01658
G1 X75.185 Y83.16 E.01581
G1 X74.975 Y83.471 E.01652
G1 X74.726 Y83.222 E.0155
G1 X74.521 Y83.538 E.01658
G1 X74.766 Y83.783 E.01525
G1 X74.556 Y84.094 E.01652
G1 X74.316 Y83.854 E.01494
G1 X74.111 Y84.17 E.01658
G1 X74.347 Y84.405 E.01466
G1 X74.137 Y84.717 E.01655
G1 X73.906 Y84.485 E.01441
G1 X73.701 Y84.801 E.01658
G1 X73.928 Y85.028 E.01413
G1 X73.719 Y85.339 E.01649
G1 X73.496 Y85.117 E.01385
G1 X73.291 Y85.433 E.01658
G1 X73.509 Y85.651 E.01357
G1 X73.3 Y85.962 E.01649
G1 X73.086 Y85.749 E.01329
G1 X72.882 Y86.065 E.01656
G1 X73.09 Y86.273 E.01295
G1 X72.881 Y86.585 E.01653
G1 X72.677 Y86.381 E.0127
G1 X72.472 Y86.697 E.01658
G1 X72.671 Y86.896 E.01239
G1 X72.462 Y87.207 E.01649
G1 X72.267 Y87.012 E.01214
G1 X72.062 Y87.328 E.01658
G1 X72.252 Y87.519 E.01186
G1 X72.043 Y87.83 E.01649
G1 X71.857 Y87.644 E.01158
G1 X71.652 Y87.96 E.01658
G1 X71.833 Y88.142 E.0113
G1 X71.624 Y88.453 E.01649
G1 X71.455 Y88.284 E.01052
G1 X71.393 Y88.391 E.00544
G1 X71.324 Y88.605 E.0099
G1 X71.317 Y88.667 E.00275
G1 X71.533 Y88.883 E.01345
M204 P1000
; stop printing object 0 id:0 copy 0
M106 S84.15
;LAYER_CHANGE
;Z:0.45
;HEIGHT:0.2
;BEFORE_LAYER_CHANGE
G92 E0.0
;0.45


G1 E-2.24 F4200
;WIPE_START
G1 F7200
G1 X71.317 Y88.667 E-.16928
G1 X71.324 Y88.605 E-.03458
G1 X71.393 Y88.391 E-.1246
G1 X71.455 Y88.284 E-.06853
G1 X71.624 Y88.453 E-.13245
G1 X71.833 Y88.142 E-.20765
G1 X71.652 Y87.96 E-.14224
G1 X71.731 Y87.838 E-.08067
;WIPE_END
G1 Z.45 F720
;AFTER_LAYER_CHANGE
;0.45
M104 S213 ; set temperature
G1 Z.65
M73 P2 R42
G1 X68.559 Y85.781 F9000
G1 Z.45 F720
G1 E3.2 F2400
;TYPE:Skirt/Brim
;WIDTH:0.42
G1 X80.39 Y67.54 E.78395
G1 X81.428 Y66.659 E.04909
G1 X82.375 Y66.462 E.03488
G1 X97.625 Y66.462 E.54988
G1 X98.929 Y66.853 E.04909
G1 X99.882 Y68.117 E.05708
G1 X112.327 Y107.597 E1.4926
G1 X112.478 Y108.581 E.0359
G1 X112.424 Y109.595 E.03661
G1 X112.321 Y110.079 E.01784
G1 X111.958 Y111.028 E.03664
G1 X111.697 Y111.481 E.01885
G1 X111.056 Y112.269 E.03663
G1 X110.266 Y112.907 E.03661
G1 X109.49 Y113.31 E.03153
G1 X108.139 Y113.482 E.04911
G1 X107.405 Y113.231 E.02797
G1 X70.318 Y93.256 E1.51889
G1 X69.311 Y92.6 E.04333
G1 X68.594 Y91.881 E.03661
G1 X68.042 Y91.028 E.03664
G1 X67.679 Y90.079 E.03664
G1 X67.522 Y89.075 E.03664
G1 X67.575 Y88.07 E.03629
G1 X67.838 Y87.088 E.03666
G1 X68.302 Y86.177 E.03686
G1 X68.527 Y85.831 E.01488
; printing object 0 id:0 copy 0
G1 E-2.24 F4200
;WIPE_START
G1 F7200
G1 X69.47 Y84.378 E-.96
;WIPE_END
G1 Z.65 F720
G1 X71.229 Y89.718 F9000
G1 Z.45 F720
G1 E3.2 F2400
M204 P800
;TYPE:Perimeter
;WIDTH:0.45
G1 F3000
G1 X71.046 Y89.421 E.01358
G1 X70.951 Y89.126 E.01206
G1 X70.92 Y88.828 E.01166
G1 X70.952 Y88.525 E.01186
G1 X71.046 Y88.236 E.01183
G1 X71.239 Y87.901 E.01505
G1 X82.94 Y69.867 E.83681
G1 X96.863 Y69.867 E.54197
G1 X98.176 Y74.031 E.16996
G1 X97.872 Y73.694 E.01767
G1 X97.272 Y73.258 E.02887
G1 X96.595 Y72.957 E.02884
G1 X95.871 Y72.803 E.02881
G1 X84.129 Y72.803 E.45707
G1 X83.405 Y72.957 E.02881
G1 X82.728 Y73.258 E.02884
G1 X82.128 Y73.694 E.02887
G1 X81.656 Y74.218 E.02745
G1 X71.262 Y89.668 E.72484
M204 P1000
G1 E-2.24 F4200
;WIPE_START
G1 F7200
G1 X71.046 Y89.421 E-.18184
G1 X70.951 Y89.126 E-.17175
G1 X70.92 Y88.828 E-.16603
G1 X70.952 Y88.525 E-.16885
G1 X71.046 Y88.236 E-.16841
G1 X71.139 Y88.075 E-.10312
;WIPE_END
G1 Z.65 F720
G1 X104.491 Y94.064 F9000
G1 Z.45 F720
G1 E3.2 F2400
M204 P800
G1 F1500
G1 X109.048 Y108.521 E.59005
G1 X109.08 Y108.828 E.01202
G1 X109.027 Y109.196 E.01447
G1 X104.508 Y94.122 E.61257
M204 P1000
G1 E-2.24 F4200
;WIPE_START
G1 F7200
G1 X105.029 Y95.774 E-.96
;WIPE_END
G1 Z.65 F720
G1 X71.301 Y90.34 F9000
G1 Z.45 F720
G1 E3.2 F2400
M204 P800
G1 F3000
G1 X71.127 Y90.214 E.00836
G1 X70.867 Y89.924 E.01516
G1 X70.672 Y89.587 E.01516
G1 X70.551 Y89.21 E.01541
G1 X70.511 Y88.828 E.01495
G1 X70.551 Y88.44 E.01518
G1 X70.672 Y88.07 E.01515
G1 X70.892 Y87.689 E.01713
G1 X82.718 Y69.46 E.84583
G1 X97.162 Y69.46 E.56225
G1 X109.448 Y108.438 E1.59085
G1 X109.489 Y108.828 E.01526
G1 X109.449 Y109.216 E.01518
G1 X109.328 Y109.586 E.01515
G1 X109.133 Y109.924 E.01519
G1 X108.898 Y110.185 E.01367
G1 X98.368 Y75.059 E1.42744
G1 X98.037 Y74.485 E.02579
G1 X97.598 Y73.998 E.02552
G1 X97.068 Y73.613 E.0255
G1 X96.469 Y73.346 E.02553
G1 X95.828 Y73.21 E.02551
G1 X84.172 Y73.21 E.45372
G1 X83.531 Y73.346 E.02551
G1 X82.932 Y73.613 E.02553
G1 X82.402 Y73.998 E.0255
G1 X81.978 Y74.469 E.02467
G1 X71.335 Y90.29 E.74223
M204 P1000
G1 X71.415 Y90.899 F9000
M204 P800
;TYPE:External perimeter
G1 F2400
G1 X71.247 Y90.804 E.00751
G1 X70.854 Y90.518 E.01892
G1 X70.536 Y90.165 E.01849
G1 X70.298 Y89.753 E.01852
G1 X70.15 Y89.295 E.01874
G1 X70.101 Y88.828 E.01828
G1 X70.151 Y88.355 E.01851
G1 X70.298 Y87.903 E.0185
G1 X70.544 Y87.476 E.01918
G1 X82.497 Y69.053 E.85485
G1 X97.46 Y69.053 E.58245
G1 X109.849 Y108.354 E1.60405
G1 X109.899 Y108.828 E.01855
G1 X109.849 Y109.301 E.01851
G1 X109.702 Y109.753 E.0185
G1 X109.464 Y110.165 E.01852
G1 X109.146 Y110.518 E.01849
G1 X108.762 Y110.797 E.01848
G1 X108.669 Y110.838 E.00396
G1 X97.992 Y75.221 E1.44739
G1 X97.706 Y74.726 E.02225
G1 X97.324 Y74.302 E.02222
G1 X96.863 Y73.967 E.02218
G1 X96.342 Y73.735 E.0222
G1 X95.785 Y73.617 E.02216
G1 X84.215 Y73.617 E.45038
G1 X83.658 Y73.735 E.02216
G1 X83.137 Y73.967 E.0222
G1 X82.676 Y74.302 E.02218
G1 X82.3 Y74.72 E.02189
G1 X71.449 Y90.849 E.7567
M204 P1000
G1 X71.322 Y90.73 F9000
G1 E-2.24 F4200
;WIPE_START
G1 F7200
G1 X71.247 Y90.804 E-.11469
G1 X70.854 Y90.518 E-.26935
G1 X70.536 Y90.165 E-.26329
G1 X70.298 Y89.753 E-.26367
G1 X70.271 Y89.669 E-.049
;WIPE_END
G1 Z.65 F720
G1 X100.554 Y81.263 F9000
G1 Z.45 F720
G1 E3.2 F2400
;TYPE:Gap fill
;WIDTH:0.260094
G1 X99.585 Y78.111 E.06848
;WIDTH:0.214044
G1 X98.616 Y74.96 E.05394
;WIDTH:0.169489
G1 X98.611 Y74.946 E.00018
;WIDTH:0.218466
G1 X98.521 Y74.74 E.00377
;WIDTH:0.267442
G1 X98.43 Y74.535 E.00482
;WIDTH:0.316419
G1 X98.34 Y74.329 E.00588
;WIDTH:0.316418
G1 X98.314 Y74.322 E.0007
;WIDTH:0.278776
