; generated by PrusaSlicer 2.5.0+linux-x64-GTK3 on 2023-03-10 at 13:52:27 UTC

; 
;

; 
;

; 
;

; 

; external perimeters extrusion width = 0.45mm
; perimeters extrusion width = 0.45mm
; infill extrusion width = 0.45mm
; solid infill extrusion width = 0.45mm
; top infill extrusion width = 0.40mm
; first layer extrusion width = 0.42mm

M73 P0 R4
M201 X2500 Y2500 Z400 E5000 ; sets maximum accelerations, mm/sec^2
M203 X180 Y180 Z12 E80 ; sets maximum feedrates, mm / sec
M204 P1250 R1250 T2500 ; sets acceleration (P, T) and retract acceleration (R), mm/sec^2
M205 X8.00 Y8.00 Z2.00 E10.00 ; sets the jerk limits, mm/sec
M205 S0 T0 ; sets the minimum extruding and travel feed rate, mm/sec
M107
;TYPE:Custom
M862.3 P "MINI" ; printer model check
G90 ; use absolute coordinates
M83 ; extruder relative mode
M104 S170 ; set extruder temp for bed leveling
M140 S60 ; set bed temp
M109 R170 ; wait for bed leveling temp
M190 S60 ; wait for bed temp
M204 T1250 ; set travel acceleration
G28 ; home all without mesh bed level
G29 ; mesh bed leveling 
M204 T2500 ; restore travel acceleration
M104 S215 ; set extruder temp
G92 E0
G1 Y-2 X179 F2400
G1 Z3 F720
M109 S215 ; wait for extruder temp

; intro line
M73 P1 R4
G1 X170 F1000
G1 Z0.2 F720
M73 P2 R4
G1 X110 E8 F900
G1 X40 E10 F700
G92 E0

M221 S95 ; set flow
G21 ; set units to millimeters
G90 ; use absolute coordinates
M83 ; use relative distances for extrusion
M900 K0.05 ; Filament gcode LA 1.5
M900 K30 ; Filament gcode LA 1.0
M107
;LAYER_CHANGE
;Z:0.2
;HEIGHT:0.2
;BEFORE_LAYER_CHANGE
G92 E0.0
;0.2


M73 P3 R3
G1 E-3.2 F4200
M73 P6 R3
G1 Z.2 F720
;AFTER_LAYER_CHANGE
;0.2
G1 Z.4
G1 X84.796 Y84.709 F9000
G1 Z.2 F720
G1 E3.2 F2400
M204 P800
;TYPE:Skirt/Brim
;WIDTH:0.42
G1 F1117
G1 X85.966 Y83.775 E.04602
G1 X86.576 Y83.416 E.02176
G1 X88.02 Y82.848 E.04767
G1 X89.551 Y82.592 E.04767
G1 X91.1 Y82.661 E.04767
G1 X92.602 Y83.05 E.04767
G1 X93.424 Y83.416 E.02763
G1 X94.718 Y84.271 E.04767
G1 X95.806 Y85.377 E.04767
G1 X96.64 Y86.685 E.04767
G1 X97.184 Y88.138 E.04767
G1 X97.414 Y89.673 E.04767
G1 X97.32 Y91.221 E.04767
M73 P7 R3
G1 X96.906 Y92.717 E.04767
G1 X96.191 Y94.093 E.04767
G1 X95.204 Y95.291 E.04767
G1 X93.991 Y96.257 E.04767
G1 X93.407 Y96.592 E.02066
G1 X91.98 Y97.152 E.04712
G1 X90.449 Y97.408 E.04767
G1 X88.9 Y97.339 E.04767
G1 X87.398 Y96.95 E.04767
G1 X86.01 Y96.257 E.04767
G1 X84.796 Y95.291 E.04767
G1 X83.809 Y94.093 E.04767
G1 X83.094 Y92.717 E.04767
G1 X82.68 Y91.221 E.04767
G1 X82.586 Y89.673 E.04768
G1 X82.68 Y88.779 E.02762
G1 X83.094 Y87.283 E.04767
G1 X83.809 Y85.907 E.04767
G1 X84.758 Y84.756 E.04583
M204 P1000
G1 X85.048 Y84.996 F9000
M204 P800
G1 F1117
G1 X86.188 Y84.08 E.04494
G1 X86.73 Y83.76 E.01934
G1 X88.099 Y83.216 E.04525
G1 X89.551 Y82.969 E.04525
G1 X91.022 Y83.03 E.04525
G1 X92.449 Y83.394 E.04525
G1 X93.27 Y83.76 E.02763
G1 X94.496 Y84.576 E.04525
G1 X95.526 Y85.63 E.04525
G1 X96.313 Y86.874 E.04525
G1 X96.825 Y88.255 E.04526
G1 X97.039 Y89.712 E.04525
G1 X96.945 Y91.182 E.04525
M73 P8 R3
G1 X96.548 Y92.6 E.04525
G1 X95.864 Y93.905 E.04525
G1 X94.924 Y95.038 E.04526
G1 X93.769 Y95.952 E.04525
G1 X93.254 Y96.247 E.01824
G1 X91.901 Y96.784 E.0447
G1 X90.449 Y97.031 E.04525
G1 X88.978 Y96.97 E.04525
G1 X87.551 Y96.606 E.04525
G1 X86.231 Y95.952 E.04525
G1 X85.076 Y95.038 E.04526
G1 X84.136 Y93.905 E.04526
G1 X83.452 Y92.6 E.04525
G1 X83.055 Y91.182 E.04525
G1 X82.961 Y89.712 E.04526
G1 X83.055 Y88.818 E.02762
G1 X83.452 Y87.4 E.04525
G1 X84.136 Y86.095 E.04525
G1 X85.009 Y85.042 E.04204
M204 P1000
G1 X85.298 Y85.283 F9000
M204 P800
G1 F1117
G1 X85.356 Y85.214 E.00278
G1 X86.409 Y84.385 E.04118
G1 X86.883 Y84.105 E.01692
G1 X88.177 Y83.585 E.04284
G1 X89.551 Y83.346 E.04284
G1 X90.944 Y83.398 E.04284
G1 X92.296 Y83.739 E.04284
G1 X93.117 Y84.105 E.02762
G1 X94.274 Y84.881 E.04284
G1 X95.245 Y85.882 E.04284
G1 X95.987 Y87.062 E.04284
G1 X96.467 Y88.371 E.04284
G1 X96.664 Y89.752 E.04284
G1 X96.57 Y91.143 E.04284
G1 X96.189 Y92.484 E.04284
M73 P9 R3
G1 X95.537 Y93.716 E.04284
G1 X94.644 Y94.786 E.04284
G1 X93.547 Y95.647 E.04284
G1 X93.1 Y95.903 E.01582
G1 X91.823 Y96.415 E.04229
G1 X90.449 Y96.654 E.04284
G1 X89.056 Y96.602 E.04284
G1 X87.704 Y96.261 E.04284
G1 X86.453 Y95.647 E.04284
G1 X85.356 Y94.786 E.04284
G1 X84.463 Y93.716 E.04284
G1 X83.811 Y92.484 E.04284
G1 X83.43 Y91.143 E.04284
G1 X83.336 Y89.752 E.04284
G1 X83.43 Y88.857 E.02762
G1 X83.811 Y87.516 E.04284
G1 X84.463 Y86.284 E.04284
G1 X85.26 Y85.329 E.03821
M204 P1000
; printing object  id:0 copy 0
G1 E-2.24 F4200
;WIPE_START
G1 F7200
G1 X85.356 Y85.214 E-.08342
G1 X86.409 Y84.385 E-.74271
G1 X86.543 Y84.306 E-.08587
;WIPE_END
G1 E-.048 F4200
G1 Z.4 F720
G1 X91.607 Y87.331 F9000
G1 Z.2 F720
G1 E3.2 F2400
M204 P800
;TYPE:Perimeter
;WIDTH:0.409907
G1 F1117
G1 X91.678 Y87.366 E.00238
G1 X92.189 Y87.773 E.01953
G1 X92.604 Y88.276 E.01953
G1 X92.906 Y88.855 E.01952
G1 X93.08 Y89.485 E.01953
G1 X93.12 Y90.136 E.01952
G1 X93.024 Y90.782 E.01953
G1 X92.795 Y91.394 E.01952
G1 X92.444 Y91.944 E.01953
G1 X91.986 Y92.41 E.01953
G1 X91.442 Y92.77 E.01953
G1 X90.834 Y93.01 E.01953
G1 X90.191 Y93.117 E.01952
G1 X89.538 Y93.089 E.01952
G1 X88.906 Y92.925 E.01953
G1 X88.322 Y92.634 E.01953
G1 X87.811 Y92.227 E.01953
G1 X87.396 Y91.724 E.01953
G1 X87.094 Y91.145 E.01952
G1 X86.92 Y90.515 E.01953
;WIDTH:0.412986
G1 X86.867 Y90 E.01562
G1 X86.88 Y89.864 E.00413
;WIDTH:0.409907
G1 X86.976 Y89.218 E.01953
G1 X87.205 Y88.606 E.01952
M73 P10 R3
G1 X87.556 Y88.056 E.01953
G1 X88.014 Y87.59 E.01953
G1 X88.558 Y87.23 E.01952
G1 X89.166 Y86.99 E.01953
G1 X89.809 Y86.883 E.01952
G1 X90.462 Y86.911 E.01952
G1 X91.094 Y87.075 E.01953
G1 X91.553 Y87.304 E.01535
M204 P1000
G1 X91.754 Y86.961 F9000
M204 P800
;WIDTH:0.419999
G1 F1117
G1 X92.348 Y87.393 E.02254
G1 X92.839 Y87.938 E.02254
G1 X93.205 Y88.573 E.02254
G1 X93.432 Y89.271 E.02254
G1 X93.509 Y90 E.02254
G1 X93.432 Y90.729 E.02254
G1 X93.205 Y91.427 E.02254
G1 X92.839 Y92.062 E.02254
G1 X92.348 Y92.607 E.02254
G1 X91.754 Y93.039 E.02254
G1 X91.084 Y93.337 E.02254
G1 X90.367 Y93.489 E.02254
G1 X89.633 Y93.489 E.02254
G1 X88.916 Y93.337 E.02254
G1 X88.246 Y93.039 E.02254
G1 X87.652 Y92.607 E.02254
G1 X87.161 Y92.062 E.02254
G1 X86.795 Y91.427 E.02254
G1 X86.568 Y90.729 E.02254
G1 X86.491 Y90 E.02254
G1 X86.568 Y89.271 E.02254
G1 X86.795 Y88.573 E.02254
G1 X87.161 Y87.938 E.02254
G1 X87.652 Y87.393 E.02254
G1 X88.246 Y86.961 E.02254
G1 X88.916 Y86.663 E.02254
G1 X89.633 Y86.511 E.02254
G1 X90.367 Y86.511 E.02254
G1 X91.084 Y86.663 E.02254
G1 X91.699 Y86.937 E.02069
M204 P1000
G1 X91.944 Y86.633 F9000
M204 P800
;TYPE:External perimeter
G1 F1117
G1 X92.601 Y87.111 E.02497
G1 X93.145 Y87.715 E.02497
G1 X93.552 Y88.419 E.02497
G1 X93.803 Y89.192 E.02497
G1 X93.888 Y90 E.02497
G1 X93.803 Y90.808 E.02497
G1 X93.552 Y91.581 E.02497
G1 X93.145 Y92.285 E.02497
G1 X92.601 Y92.889 E.02497
G1 X91.944 Y93.367 E.02497
G1 X91.201 Y93.697 E.02497
G1 X90.406 Y93.866 E.02497
G1 X89.594 Y93.866 E.02497
G1 X88.799 Y93.697 E.02497
G1 X88.056 Y93.367 E.02497
G1 X87.399 Y92.889 E.02497
G1 X86.855 Y92.285 E.02497
G1 X86.448 Y91.581 E.02497
G1 X86.197 Y90.808 E.02497
G1 X86.112 Y90 E.02497
G1 X86.197 Y89.192 E.02497
G1 X86.448 Y88.419 E.02497
G1 X86.855 Y87.715 E.02497
M73 P11 R3
G1 X87.399 Y87.111 E.02497
G1 X88.056 Y86.633 E.02497
G1 X88.799 Y86.303 E.02497
G1 X89.594 Y86.134 E.02497
G1 X90.406 Y86.134 E.02497
G1 X91.201 Y86.303 E.02497
G1 X91.889 Y86.609 E.02313
M204 P1000
G1 X91.944 Y87.033 F9000
G1 E-2.24 F4200
;WIPE_START
G1 F7200
G1 X92.601 Y87.111 E-.48298
G1 X93.119 Y87.686 E-.42902
;WIPE_END
G1 E-.048 F4200
G1 Z.4 F720
G1 X87.519 Y88.827 F9000
G1 Z.2 F720
G1 E3.2 F2400
M204 P800
;TYPE:Perimeter
;WIDTH:0.409907
G1 F1117
G1 X87.713 Y88.46 E.01242
G1 X88.084 Y88.018 E.01724
G1 X88.538 Y87.663 E.01724
G1 X89.055 Y87.41 E.01724
G1 X89.615 Y87.27 E.01724
G1 X90.191 Y87.25 E.01724
G1 X90.758 Y87.349 E.01723
G1 X91.293 Y87.565 E.01724
G1 X91.771 Y87.887 E.01724
G1 X92.171 Y88.301 E.01724
G1 X92.477 Y88.79 E.01724
G1 X92.675 Y89.331 E.01724
G1 X92.755 Y89.902 E.01724
G1 X92.715 Y90.477 E.01724
G1 X92.557 Y91.031 E.01724
G1 X92.287 Y91.54 E.01724
G1 X91.916 Y91.982 E.01724
G1 X91.462 Y92.337 E.01724
G1 X90.945 Y92.59 E.01724
G1 X90.385 Y92.73 E.01724
G1 X89.809 Y92.75 E.01724
G1 X89.242 Y92.651 E.01724
G1 X88.707 Y92.435 E.01724
G1 X88.229 Y92.113 E.01724
G1 X87.829 Y91.699 E.01724
G1 X87.523 Y91.21 E.01724
G1 X87.325 Y90.669 E.01723
G1 X87.245 Y90.098 E.01724
G1 X87.285 Y89.523 E.01724
G1 X87.443 Y88.969 E.01724
G1 X87.49 Y88.88 E.00302
M204 P1000
G1 X87.824 Y89.037 F9000
M204 P800
;WIDTH:0.419999
G1 F1117
G1 X88.105 Y88.55 E.01727
G1 X88.448 Y88.188 E.01533
G1 X88.859 Y87.905 E.01533
G1 X89.319 Y87.713 E.01533
G1 X89.809 Y87.622 E.01533
G1 X90.308 Y87.634 E.01533
G1 X90.793 Y87.75 E.01533
G1 X91.244 Y87.964 E.01533
G1 X91.64 Y88.267 E.01533
G1 X91.964 Y88.646 E.01533
G1 X92.203 Y89.084 E.01533
G1 X92.345 Y89.562 E.01533
G1 X92.385 Y90.059 E.01533
G1 X92.321 Y90.554 E.01533
G1 X92.155 Y91.024 E.01533
G1 X91.895 Y91.45 E.01533
G1 X91.552 Y91.812 E.01533
G1 X91.141 Y92.095 E.01533
G1 X90.681 Y92.287 E.01533
G1 X90.191 Y92.378 E.01533
G1 X89.692 Y92.366 E.01533
G1 X89.207 Y92.25 E.01533
G1 X88.756 Y92.036 E.01533
G1 X88.36 Y91.733 E.01533
G1 X88.036 Y91.354 E.01533
G1 X87.797 Y90.916 E.01533
G1 X87.655 Y90.438 E.01533
G1 X87.615 Y90.059 E.01171
G1 X87.664 Y89.503 E.01714
M73 P12 R3
G1 X87.805 Y89.094 E.01332
M204 P1000
G1 X88.182 Y89.147 F9000
M204 P800
;TYPE:External perimeter
G1 F1117
G1 X88.385 Y88.803 E.01229
G1 X88.67 Y88.493 E.01291
G1 X89.012 Y88.249 E.01291
G1 X89.398 Y88.082 E.01291
G1 X89.809 Y87.999 E.01291
G1 X90.23 Y88.003 E.01291
G1 X90.64 Y88.094 E.01291
G1 X91.022 Y88.269 E.01291
G1 X91.36 Y88.519 E.01291
G1 X91.638 Y88.834 E.01291
G1 X91.844 Y89.2 E.01291
G1 X91.97 Y89.601 E.01291
G1 X92.01 Y90.02 E.01291
G1 X91.962 Y90.437 E.01291
G1 X91.828 Y90.836 E.01291
G1 X91.615 Y91.197 E.01291
G1 X91.33 Y91.507 E.01291
G1 X90.988 Y91.751 E.01291
G1 X90.602 Y91.918 E.01291
G1 X90.191 Y92.001 E.01291
G1 X89.77 Y91.997 E.01291
G1 X89.36 Y91.906 E.01291
G1 X88.978 Y91.731 E.01291
G1 X88.64 Y91.481 E.01291
G1 X88.362 Y91.166 E.01291
G1 X88.156 Y90.8 E.01291
G1 X88.03 Y90.399 E.01291
G1 X87.99 Y90.02 E.01171
G1 X88.038 Y89.563 E.01412
G1 X88.159 Y89.202 E.01169
M204 P1000
G1 X87.95 Y88.821 F9000
; stop printing object  id:0 copy 0
M106 S84.15
;LAYER_CHANGE
;Z:0.4
;HEIGHT:0.2
;BEFORE_LAYER_CHANGE
G92 E0.0
;0.4


G1 E-2.24 F4200
;WIPE_START
G1 F7200
G1 X88.385 Y88.803 E-.25454
G1 X88.67 Y88.493 E-.2329
G1 X89.012 Y88.249 E-.23289
G1 X89.329 Y88.112 E-.19167
;WIPE_END
G1 E-.048 F4200
G1 Z.4 F720
;AFTER_LAYER_CHANGE
;0.4
M104 S213 ; set temperature
G1 Z.6
G1 X87.361 Y83.107 F9000
G1 Z.4 F720
G1 E3.2 F2400
;TYPE:Skirt/Brim
;WIDTH:0.42
G1 F1059
G1 X88.02 Y82.848 E.02178
G1 X89.551 Y82.592 E.04767
G1 X91.1 Y82.661 E.04767
G1 X92.602 Y83.05 E.04767
G1 X93.424 Y83.416 E.02763
G1 X94.718 Y84.271 E.04767
G1 X95.806 Y85.377 E.04767
G1 X96.64 Y86.685 E.04767
G1 X97.184 Y88.138 E.04767
G1 X97.414 Y89.673 E.04767
G1 X97.32 Y91.221 E.04767
G1 X96.906 Y92.717 E.04767
G1 X96.191 Y94.093 E.04767
G1 X95.204 Y95.291 E.04767
G1 X93.991 Y96.257 E.04767
G1 X93.407 Y96.592 E.02066
G1 X91.98 Y97.152 E.04712
M73 P13 R3
G1 X90.449 Y97.408 E.04767
G1 X88.9 Y97.339 E.04767
G1 X87.398 Y96.95 E.04767
G1 X86.01 Y96.257 E.04767
G1 X84.796 Y95.291 E.04767
G1 X83.809 Y94.093 E.04767
G1 X83.094 Y92.717 E.04767
G1 X82.68 Y91.221 E.04767
G1 X82.586 Y89.673 E.04768
G1 X82.68 Y88.779 E.02762
G1 X83.094 Y87.283 E.04767
G1 X83.809 Y85.907 E.04767
G1 X84.796 Y84.709 E.04767
G1 X85.966 Y83.775 E.04602
G1 X86.576 Y83.416 E.02176
G1 X87.305 Y83.129 E.02405
G1 X87.443 Y83.477 F9000
G1 F1059
G1 X88.099 Y83.216 E.02167
G1 X89.551 Y82.969 E.04525
G1 X91.022 Y83.03 E.04525
G1 X92.449 Y83.394 E.04525
G1 X93.27 Y83.76 E.02763
G1 X94.496 Y84.576 E.04525
G1 X95.526 Y85.63 E.04525
G1 X96.313 Y86.874 E.04525
G1 X96.825 Y88.255 E.04526
G1 X97.039 Y89.712 E.04525
G1 X96.945 Y91.182 E.04525
G1 X96.548 Y92.6 E.04525
G1 X95.864 Y93.905 E.04525
G1 X94.924 Y95.038 E.04526
G1 X93.769 Y95.952 E.04525
M73 P14 R3
G1 X93.254 Y96.247 E.01824
G1 X91.901 Y96.784 E.0447
G1 X90.449 Y97.031 E.04525
G1 X88.978 Y96.97 E.04525
G1 X87.551 Y96.606 E.04525
G1 X86.231 Y95.952 E.04525
G1 X85.076 Y95.038 E.04526
G1 X84.136 Y93.905 E.04526
G1 X83.452 Y92.6 E.04525
G1 X83.055 Y91.182 E.04525
G1 X82.961 Y89.712 E.04526
G1 X83.055 Y88.818 E.02762
G1 X83.452 Y87.4 E.04525
G1 X84.136 Y86.095 E.04525
G1 X85.076 Y84.962 E.04526
G1 X86.188 Y84.08 E.0436
G1 X86.73 Y83.76 E.01934
G1 X87.387 Y83.499 E.02174
G1 X87.527 Y83.846 F9000
G1 F1059
G1 X88.177 Y83.585 E.02153
G1 X89.551 Y83.346 E.04284
G1 X90.944 Y83.398 E.04284
G1 X92.296 Y83.739 E.04284
G1 X93.117 Y84.105 E.02762
G1 X94.274 Y84.881 E.04284
G1 X95.245 Y85.882 E.04284
G1 X95.987 Y87.062 E.04284
G1 X96.467 Y88.371 E.04284
G1 X96.664 Y89.752 E.04284
G1 X96.57 Y91.143 E.04284
G1 X96.189 Y92.484 E.04284
G1 X95.537 Y93.716 E.04284
G1 X94.644 Y94.786 E.04284
G1 X93.547 Y95.647 E.04284
G1 X93.1 Y95.903 E.01582
M73 P15 R3
G1 X91.823 Y96.415 E.04229
G1 X90.449 Y96.654 E.04284
G1 X89.056 Y96.602 E.04284
G1 X87.704 Y96.261 E.04284
G1 X86.453 Y95.647 E.04284
G1 X85.356 Y94.786 E.04284
G1 X84.463 Y93.716 E.04284
G1 X83.811 Y92.484 E.04284
G1 X83.43 Y91.143 E.04284
G1 X83.336 Y89.752 E.04284
G1 X83.43 Y88.857 E.02762
G1 X83.811 Y87.516 E.04284
G1 X84.463 Y86.284 E.04284
G1 X85.356 Y85.214 E.04284
G1 X86.409 Y84.385 E.04118
G1 X86.883 Y84.105 E.01692
G1 X87.471 Y83.869 E.01946
; printing object  id:0 copy 0
G1 E-2.24 F4200
;WIPE_START
G1 F7200
G1 X88.177 Y83.585 E-.42161
G1 X89.049 Y83.434 E-.49039
;WIPE_END
G1 E-.048 F4200
G1 Z.6 F720
G1 X91.603 Y87.247 F9000
G1 Z.4 F720
G1 E3.2 F2400
M204 P800
;TYPE:Perimeter
;WIDTH:0.549905
G1 F1059
G1 X91.736 Y87.322 E.00631
G1 X92.255 Y87.741 E.02757
G1 X92.676 Y88.26 E.02757
G1 X92.979 Y88.854 E.02757
G1 X93.152 Y89.498 E.02757
G1 X93.188 Y90.165 E.02757
G1 X93.084 Y90.824 E.02757
G1 X92.845 Y91.447 E.02757
G1 X92.482 Y92.007 E.02757
G1 X92.011 Y92.479 E.02757
G1 X91.451 Y92.843 E.02757
G1 X90.828 Y93.082 E.02757
G1 X90.17 Y93.187 E.02757
;WIDTH:0.553535
G1 X89.665 Y93.186 E.02098
G1 X89.172 Y93.082 E.02098
;WIDTH:0.549905
G1 X88.857 Y92.977 E.01371
G1 X88.264 Y92.678 E.02744
G1 X87.745 Y92.259 E.02757
;WIDTH:0.553533
G1 X87.409 Y91.883 E.02098
G1 X87.155 Y91.447 E.02099
;WIDTH:0.549938
G1 X87.016 Y91.131 E.01424
;WIDTH:0.554659
G1 X86.865 Y90.639 E.02147
G1 X86.8 Y90.027 E.02568
;WIDTH:0.553535
G1 X86.812 Y89.835 E.00798
;WIDTH:0.549906
G1 X86.916 Y89.176 E.02757
G1 X87.155 Y88.553 E.02757
M73 P16 R3
G1 X87.518 Y87.993 E.02757
G1 X87.989 Y87.521 E.02757
G1 X88.549 Y87.157 E.02757
G1 X89.172 Y86.918 E.02757
G1 X89.831 Y86.813 E.02757
;WIDTH:0.553534
G1 X90.361 Y86.82 E.02208
G1 X90.967 Y86.953 E.02581
;WIDTH:0.552315
G1 X91.433 Y87.152 E.02104
;WIDTH:0.549905
G1 X91.551 Y87.218 E.00556
M204 P1000
G1 X91.835 Y86.829 F9000
M204 P800
;WIDTH:0.449999
G1 F1059
G1 X92.452 Y87.277 E.02529
G1 X92.965 Y87.846 E.02541
G1 X93.348 Y88.51 E.02541
G1 X93.584 Y89.238 E.02541
G1 X93.664 Y90 E.02541
G1 X93.584 Y90.762 E.02541
G1 X93.348 Y91.49 E.02541
G1 X92.965 Y92.154 E.02541
G1 X92.452 Y92.723 E.02541
G1 X91.832 Y93.173 E.02541
G1 X91.132 Y93.485 E.02541
G1 X90.383 Y93.644 E.02541
G1 X89.617 Y93.644 E.02541
G1 X88.871 Y93.486 E.02529
G1 X88.127 Y93.144 E.02716
G1 X87.548 Y92.723 E.02375
G1 X87.035 Y92.154 E.02541
G1 X86.652 Y91.49 E.02541
G1 X86.416 Y90.762 E.02541
G1 X86.336 Y90 E.02541
G1 X86.416 Y89.238 E.02541
G1 X86.652 Y88.51 E.02541
G1 X87.035 Y87.846 E.02541
G1 X87.548 Y87.277 E.02541
G1 X88.168 Y86.827 E.02541
G1 X88.868 Y86.515 E.02541
G1 X89.617 Y86.356 E.02541
G1 X90.383 Y86.356 E.02541
G1 X91.083 Y86.504 E.02375
G1 X91.78 Y86.805 E.02517
M204 P1000
G1 X92.034 Y86.471 F9000
M204 P800
;TYPE:External perimeter
G1 F1059
G1 X92.726 Y86.973 E.02834
G1 X93.296 Y87.606 E.02825
G1 X93.722 Y88.343 E.02825
G1 X93.985 Y89.153 E.02825
G1 X94.074 Y90 E.02825
G1 X93.985 Y90.847 E.02825
