; generated by PrusaSlicer 2.5.0+linux-x64-GTK3 on 2023-03-10 at 13:52:29 UTC

; 
;

; 
;

; 
;

; 

; external perimeters extrusion width = 0.45mm
; perimeters extrusion width = 0.45mm
; infill extrusion width = 0.45mm
; solid infill extrusion width = 0.45mm
; top infill extrusion width = 0.40mm
; support material extrusion width = 0.35mm
; first layer extrusion width = 0.42mm

M73 P0 R175
M201 X2500 Y2500 Z400 E5000 ; sets maximum accelerations, mm/sec^2
M203 X180 Y180 Z12 E80 ; sets maximum feedrates, mm / sec
M204 P1250 R1250 T2500 ; sets acceleration (P, T) and retract acceleration (R), mm/sec^2
M205 X8.00 Y8.00 Z2.00 E10.00 ; sets the jerk limits, mm/sec
M205 S0 T0 ; sets the minimum extruding and travel feed rate, mm/sec
M107
;TYPE:Custom
M862.3 P "MINI" ; printer model check
G90 ; use absolute coordinates
M83 ; extruder relative mode
M104 S170 ; set extruder temp for bed leveling
M140 S60 ; set bed temp
M109 R170 ; wait for bed leveling temp
M190 S60 ; wait for bed temp
M204 T1250 ; set travel acceleration
G28 ; home all without mesh bed level
G29 ; mesh bed leveling 
M204 T2500 ; restore travel acceleration
M104 S215 ; set extruder temp
G92 E0
G1 Y-2 X179 F2400
G1 Z3 F720
M109 S215 ; wait for extruder temp

; intro line
G1 X170 F1000
G1 Z0.2 F720
G1 X110 E8 F900
G1 X40 E10 F700
G92 E0

M221 S95 ; set flow
G21 ; set units to millimeters
G90 ; use absolute coordinates
M83 ; use relative distances for extrusion
M900 K0.05 ; Filament gcode LA 1.5
M900 K30 ; Filament gcode LA 1.0
M107
;LAYER_CHANGE
;Z:0.2
;HEIGHT:0.2
;BEFORE_LAYER_CHANGE
G92 E0.0
;0.2


G1 E-3.2 F4200
G1 Z.2 F720
;AFTER_LAYER_CHANGE
;0.2
G1 Z.4
G1 X80.484 Y47.302 F9000
G1 Z.2 F720
G1 E3.2 F2400
M204 P800
;TYPE:Skirt/Brim
;WIDTH:0.42
G1 F1200
G1 X91.201 Y29.068 E.64988
G1 X92.201 Y28.14 E.04193
G1 X93.25 Y27.895 E.03311
G1 X96.553 Y27.915 E.10148
G1 X125.545 Y31.636 E.89817
G1 X126.792 Y32.191 E.04193
G1 X127.62 Y33.994 E.06096
G1 X127.62 Y99.865 E2.02403
G1 X127.207 Y101.204 E.04306
G1 X92.6 Y151.96 E1.8876
G1 X90.01 Y154.608 E.11384
G1 X88.329 Y155.305 E.0559
G1 X68.6 Y155.305 E.60623
G1 X66.919 Y154.608 E.0559
M73 P0 R174
G1 X62.008 Y149.632 E.21484
G1 X57.245 Y142.455 E.26466
G1 X52.631 Y133.227 E.31703
G1 X52.38 Y132.164 E.03356
G1 X52.402 Y123.649 E.26162
G1 X57.395 Y86.952 E1.138
G1 X57.701 Y86.068 E.02874
G1 X80.454 Y47.354 E1.37982
M204 P1000
; printing object  id:0 copy 0
G1 E-2.24 F4200
;WIPE_START
G1 F7200
G1 X81.288 Y45.935 E-.912
;WIPE_END
G1 E-.048 F4200
G1 Z.4 F720
G1 X125.243 Y49.109 F9000
G1 Z.2 F720
G1 E3.2 F2400
M204 P800
;TYPE:Support material
G1 F1200
G1 X96.73 Y49.109 E.87611
G1 X96.73 Y33.994 E.46445
G1 X125.243 Y33.994 E.87611
G1 X125.243 Y49.052 E.46271
M204 P1000
G1 X124.775 Y48.939 F9000
M204 P800
G1 F1200
G1 X124.775 Y34.333 E.44881
G1 X124.356 Y34.333 E.01287
G1 X124.356 Y48.77 E.44359
G1 X123.937 Y48.77 E.01287
G1 X123.937 Y34.333 E.44359
G1 X123.518 Y34.333 E.01287
G1 X123.518 Y48.77 E.44359
G1 X123.099 Y48.77 E.01287
G1 X123.099 Y34.333 E.44359
G1 X122.68 Y34.333 E.01287
G1 X122.68 Y48.77 E.44359
G1 X122.261 Y48.77 E.01287
G1 X122.261 Y34.333 E.44359
G1 X121.842 Y34.333 E.01287
G1 X121.842 Y48.77 E.44359
G1 X121.423 Y48.77 E.01287
G1 X121.423 Y34.333 E.44359
G1 X121.004 Y34.333 E.01287
G1 X121.004 Y48.77 E.44359
G1 X120.585 Y48.77 E.01287
G1 X120.585 Y34.333 E.44359
G1 X120.166 Y34.333 E.01287
G1 X120.166 Y48.77 E.44359
G1 X119.747 Y48.77 E.01287
G1 X119.747 Y34.333 E.44359
G1 X119.328 Y34.333 E.01287
G1 X119.328 Y48.77 E.44359
G1 X118.909 Y48.77 E.01287
G1 X118.909 Y34.333 E.44359
G1 X118.49 Y34.333 E.01287
G1 X118.49 Y48.77 E.44359
G1 X118.071 Y48.77 E.01287
G1 X118.071 Y34.333 E.44359
G1 X117.652 Y34.333 E.01287
G1 X117.652 Y48.77 E.44359
G1 X117.234 Y48.77 E.01287
G1 X117.234 Y34.333 E.44359
G1 X116.815 Y34.333 E.01287
G1 X116.815 Y48.77 E.44359
G1 X116.396 Y48.77 E.01287
G1 X116.396 Y34.333 E.44359
G1 X115.977 Y34.333 E.01287
G1 X115.977 Y48.77 E.44359
G1 X115.558 Y48.77 E.01287
G1 X115.558 Y34.333 E.44359
G1 X115.139 Y34.333 E.01287
G1 X115.139 Y48.77 E.44359
G1 X114.72 Y48.77 E.01287
G1 X114.72 Y34.333 E.44359
G1 X114.301 Y34.333 E.01287
G1 X114.301 Y48.77 E.44359
G1 X113.882 Y48.77 E.01287
G1 X113.882 Y34.333 E.44359
G1 X113.463 Y34.333 E.01287
G1 X113.463 Y48.77 E.44359
G1 X113.044 Y48.77 E.01287
G1 X113.044 Y34.333 E.44359
G1 X112.625 Y34.333 E.01287
G1 X112.625 Y48.77 E.44359
G1 X112.206 Y48.77 E.01287
G1 X112.206 Y34.333 E.44359
G1 X111.787 Y34.333 E.01287
G1 X111.787 Y48.77 E.44359
G1 X111.368 Y48.77 E.01287
G1 X111.368 Y34.333 E.44359
G1 X110.949 Y34.333 E.01287
G1 X110.949 Y48.77 E.44359
G1 X110.53 Y48.77 E.01287
G1 X110.53 Y34.333 E.44359
G1 X110.111 Y34.333 E.01287
G1 X110.111 Y48.77 E.44359
G1 X109.692 Y48.77 E.01287
G1 X109.692 Y34.333 E.44359
G1 X109.273 Y34.333 E.01287
G1 X109.273 Y48.77 E.44359
G1 X108.854 Y48.77 E.01287
G1 X108.854 Y34.333 E.44359
G1 X108.435 Y34.333 E.01287
G1 X108.435 Y48.77 E.44359
G1 X108.016 Y48.77 E.01287
G1 X108.016 Y34.333 E.44359
G1 X107.597 Y34.333 E.01287
G1 X107.597 Y48.77 E.44359
G1 X107.178 Y48.77 E.01287
G1 X107.178 Y34.333 E.44359
G1 X106.759 Y34.333 E.01287
G1 X106.759 Y48.77 E.44359
G1 X106.34 Y48.77 E.01287
G1 X106.34 Y34.333 E.44359
G1 X105.921 Y34.333 E.01287
G1 X105.921 Y48.77 E.44359
G1 X105.502 Y48.77 E.01287
G1 X105.502 Y34.333 E.44359
G1 X105.083 Y34.333 E.01287
G1 X105.083 Y48.77 E.44359
G1 X104.664 Y48.77 E.01287
G1 X104.664 Y34.333 E.44359
G1 X104.245 Y34.333 E.01287
G1 X104.245 Y48.77 E.44359
G1 X103.826 Y48.77 E.01287
G1 X103.826 Y34.333 E.44359
G1 X103.407 Y34.333 E.01287
G1 X103.407 Y48.77 E.44359
G1 X102.988 Y48.77 E.01287
G1 X102.988 Y34.333 E.44359
G1 X102.569 Y34.333 E.01287
G1 X102.569 Y48.77 E.44359
G1 X102.15 Y48.77 E.01287
G1 X102.15 Y34.333 E.44359
G1 X101.731 Y34.333 E.01287
G1 X101.731 Y48.77 E.44359
G1 X101.312 Y48.77 E.01287
G1 X101.312 Y34.333 E.44359
G1 X100.893 Y34.333 E.01287
G1 X100.893 Y48.77 E.44359
G1 X100.474 Y48.77 E.01287
G1 X100.474 Y34.333 E.44359
G1 X100.055 Y34.333 E.01287
G1 X100.055 Y48.77 E.44359
G1 X99.636 Y48.77 E.01287
G1 X99.636 Y34.333 E.44359
G1 X99.217 Y34.333 E.01287
G1 X99.217 Y48.77 E.44359
G1 X98.799 Y48.77 E.01287
G1 X98.799 Y34.333 E.44359
G1 X98.38 Y34.333 E.01287
G1 X98.38 Y48.77 E.44359
G1 X97.961 Y48.77 E.01287
M73 P0 R173
G1 X97.961 Y34.333 E.44359
G1 X97.542 Y34.333 E.01287
G1 X97.542 Y48.77 E.44359
G1 X97.123 Y48.77 E.01287
G1 X97.123 Y34.163 E.44881
M204 P1000
G1 E-2.24 F4200
;WIPE_START
G1 F7200
G1 X97.123 Y35.809 E-.912
;WIPE_END
G1 E-.048 F4200
G1 Z.4 F720
G1 X125.243 Y99.865 F9000
G1 Z.2 F720
G1 E3.2 F2400
M204 P800
G1 F1200
G1 X96.73 Y99.865 E.87611
G1 X96.73 Y82.442 E.53534
G1 X125.243 Y82.442 E.87611
G1 X125.243 Y99.808 E.5336
M204 P1000
G1 X124.775 Y99.695 F9000
M204 P800
G1 F1200
G1 X124.775 Y82.782 E.5197
G1 X124.356 Y82.782 E.01287
G1 X124.356 Y99.525 E.51448
G1 X123.937 Y99.525 E.01287
G1 X123.937 Y82.782 E.51448
G1 X123.518 Y82.782 E.01287
G1 X123.518 Y99.525 E.51448
G1 X123.099 Y99.525 E.01287
G1 X123.099 Y82.782 E.51448
G1 X122.68 Y82.782 E.01287
G1 X122.68 Y99.525 E.51448
G1 X122.261 Y99.525 E.01287
G1 X122.261 Y82.782 E.51448
G1 X121.842 Y82.782 E.01287
G1 X121.842 Y99.525 E.51448
G1 X121.423 Y99.525 E.01287
G1 X121.423 Y82.782 E.51448
G1 X121.004 Y82.782 E.01287
G1 X121.004 Y99.525 E.51448
G1 X120.585 Y99.525 E.01287
G1 X120.585 Y82.782 E.51448
G1 X120.166 Y82.782 E.01287
G1 X120.166 Y99.525 E.51448
G1 X119.747 Y99.525 E.01287
G1 X119.747 Y82.782 E.51448
G1 X119.328 Y82.782 E.01287
M73 P1 R173
G1 X119.328 Y99.525 E.51448
G1 X118.909 Y99.525 E.01287
G1 X118.909 Y82.782 E.51448
G1 X118.49 Y82.782 E.01287
G1 X118.49 Y99.525 E.51448
G1 X118.071 Y99.525 E.01287
G1 X118.071 Y82.782 E.51448
G1 X117.652 Y82.782 E.01287
G1 X117.652 Y99.525 E.51448
G1 X117.234 Y99.525 E.01287
G1 X117.234 Y82.782 E.51448
G1 X116.815 Y82.782 E.01287
G1 X116.815 Y99.525 E.51448
G1 X116.396 Y99.525 E.01287
G1 X116.396 Y82.782 E.51448
G1 X115.977 Y82.782 E.01287
G1 X115.977 Y99.525 E.51448
G1 X115.558 Y99.525 E.01287
G1 X115.558 Y82.782 E.51448
G1 X115.139 Y82.782 E.01287
G1 X115.139 Y99.525 E.51448
G1 X114.72 Y99.525 E.01287
G1 X114.72 Y82.782 E.51448
G1 X114.301 Y82.782 E.01287
G1 X114.301 Y99.525 E.51448
G1 X113.882 Y99.525 E.01287
G1 X113.882 Y82.782 E.51448
G1 X113.463 Y82.782 E.01287
G1 X113.463 Y99.525 E.51448
G1 X113.044 Y99.525 E.01287
G1 X113.044 Y82.782 E.51448
G1 X112.625 Y82.782 E.01287
G1 X112.625 Y99.525 E.51448
G1 X112.206 Y99.525 E.01287
G1 X112.206 Y82.782 E.51448
G1 X111.787 Y82.782 E.01287
G1 X111.787 Y99.525 E.51448
G1 X111.368 Y99.525 E.01287
G1 X111.368 Y82.782 E.51448
G1 X110.949 Y82.782 E.01287
G1 X110.949 Y99.525 E.51448
G1 X110.53 Y99.525 E.01287
G1 X110.53 Y82.782 E.51448
G1 X110.111 Y82.782 E.01287
G1 X110.111 Y99.525 E.51448
G1 X109.692 Y99.525 E.01287
G1 X109.692 Y82.782 E.51448
G1 X109.273 Y82.782 E.01287
G1 X109.273 Y99.525 E.51448
G1 X108.854 Y99.525 E.01287
G1 X108.854 Y82.782 E.51448
G1 X108.435 Y82.782 E.01287
G1 X108.435 Y99.525 E.51448
G1 X108.016 Y99.525 E.01287
G1 X108.016 Y82.782 E.51448
G1 X107.597 Y82.782 E.01287
G1 X107.597 Y99.525 E.51448
G1 X107.178 Y99.525 E.01287
G1 X107.178 Y82.782 E.51448
G1 X106.759 Y82.782 E.01287
G1 X106.759 Y99.525 E.51448
G1 X106.34 Y99.525 E.01287
G1 X106.34 Y82.782 E.51448
G1 X105.921 Y82.782 E.01287
G1 X105.921 Y99.525 E.51448
G1 X105.502 Y99.525 E.01287
G1 X105.502 Y82.782 E.51448
G1 X105.083 Y82.782 E.01287
G1 X105.083 Y99.525 E.51448
G1 X104.664 Y99.525 E.01287
G1 X104.664 Y82.782 E.51448
G1 X104.245 Y82.782 E.01287
G1 X104.245 Y99.525 E.51448
G1 X103.826 Y99.525 E.01287
G1 X103.826 Y82.782 E.51448
G1 X103.407 Y82.782 E.01287
G1 X103.407 Y99.525 E.51448
G1 X102.988 Y99.525 E.01287
G1 X102.988 Y82.782 E.51448
G1 X102.569 Y82.782 E.01287
G1 X102.569 Y99.525 E.51448
G1 X102.15 Y99.525 E.01287
G1 X102.15 Y82.782 E.51448
G1 X101.731 Y82.782 E.01287
G1 X101.731 Y99.525 E.51448
G1 X101.312 Y99.525 E.01287
G1 X101.312 Y82.782 E.51448
G1 X100.893 Y82.782 E.01287
G1 X100.893 Y99.525 E.51448
G1 X100.474 Y99.525 E.01287
G1 X100.474 Y82.782 E.51448
G1 X100.055 Y82.782 E.01287
G1 X100.055 Y99.525 E.51448
G1 X99.636 Y99.525 E.01287
M73 P1 R172
G1 X99.636 Y82.782 E.51448
G1 X99.217 Y82.782 E.01287
G1 X99.217 Y99.525 E.51448
G1 X98.799 Y99.525 E.01287
G1 X98.799 Y82.782 E.51448
G1 X98.38 Y82.782 E.01287
G1 X98.38 Y99.525 E.51448
G1 X97.961 Y99.525 E.01287
G1 X97.961 Y82.782 E.51448
G1 X97.542 Y82.782 E.01287
G1 X97.542 Y99.525 E.51448
G1 X97.123 Y99.525 E.01287
G1 X97.123 Y82.612 E.5197
M204 P1000
G1 E-2.24 F4200
;WIPE_START
G1 F7200
G1 X97.123 Y84.258 E-.912
;WIPE_END
G1 E-.048 F4200
G1 Z.4 F720
G1 X79.102 Y136.39 F9000
G1 Z.2 F720
G1 E3.2 F2400
M204 P800
G1 F1200
G1 X79.784 Y136.693 E.02292
G1 X80.387 Y137.131 E.02292
G1 X80.886 Y137.686 E.02292
G1 X81.259 Y138.331 E.02292
G1 X81.489 Y139.041 E.02292
G1 X81.567 Y139.782 E.02292
G1 X81.489 Y140.524 E.02291
G1 X81.259 Y141.233 E.02292
G1 X80.886 Y141.879 E.02292
G1 X80.387 Y142.433 E.02292
G1 X79.784 Y142.872 E.02292
G1 X79.102 Y143.175 E.02292
G1 X78.373 Y143.33 E.02292
G1 X77.627 Y143.33 E.02291
G1 X76.898 Y143.175 E.02292
G1 X76.216 Y142.872 E.02292
G1 X75.613 Y142.433 E.02292
G1 X75.114 Y141.879 E.02292
G1 X74.741 Y141.233 E.02292
G1 X74.511 Y140.524 E.02292
G1 X74.433 Y139.782 E.02291
G1 X74.511 Y139.041 E.02291
G1 X74.741 Y138.331 E.02292
G1 X75.114 Y137.686 E.02292
G1 X75.613 Y137.131 E.02292
G1 X76.216 Y136.693 E.02292
G1 X76.898 Y136.39 E.02292
G1 X77.627 Y136.235 E.02292
G1 X78.373 Y136.235 E.02291
G1 X79.047 Y136.378 E.02118
M204 P1000
G1 X81.201 Y140.861 F9000
M204 P800
G1 F1200
G1 X81.201 Y139.548 E.04035
G1 X81.156 Y139.112 E.01348
G1 X80.947 Y138.47 E.02072
G1 X80.783 Y138.185 E.01012
G1 X80.783 Y141.38 E.09817
G1 X80.61 Y141.679 E.0106
G1 X80.364 Y141.952 E.01132
G1 X80.364 Y137.612 E.13335
G1 X80.159 Y137.385 E.00941
G1 X79.945 Y137.229 E.00813
G1 X79.945 Y142.335 E.1569
G1 X79.613 Y142.576 E.01259
G1 X79.526 Y142.615 E.00294
G1 X79.526 Y136.95 E.17409
G1 X79.107 Y136.763 E.01409
G1 X79.107 Y142.802 E.18556
G1 X78.997 Y142.851 E.00369
G1 X78.688 Y142.916 E.00972
G1 X78.688 Y136.648 E.1926
G1 X78.269 Y136.574 E.01308
G1 X78.269 Y142.991 E.19717
G1 X77.85 Y142.991 E.01287
G1 X77.85 Y136.574 E.19717
G1 X77.663 Y136.574 E.00574
G1 X77.431 Y136.623 E.00729
G1 X77.431 Y142.942 E.19414
G1 X77.012 Y142.852 E.01316
G1 X77.012 Y136.712 E.18867
G1 X76.593 Y136.897 E.01407
G1 X76.593 Y142.668 E.17733
G1 X76.387 Y142.576 E.00692
G1 X76.174 Y142.421 E.0081
G1 X76.174 Y137.143 E.16218
G1 X75.841 Y137.385 E.01263
G1 X75.755 Y137.481 E.00397
G1 X75.755 Y142.084 E.14143
G1 X75.39 Y141.679 E.01675
G1 X75.336 Y141.585 E.00333
G1 X75.336 Y137.98 E.11076
G1 X75.053 Y138.47 E.01739
G1 X74.917 Y138.889 E.01352
G1 X74.917 Y141.199 E.07097
M204 P1000
G1 E-2.24 F4200
;WIPE_START
G1 F7200
G1 X74.917 Y139.553 E-.912
;WIPE_END
G1 E-.048 F4200
G1 Z.4 F720
G1 X59.27 Y128.346 F9000
G1 Z.2 F720
G1 E3.2 F2400
M204 P800
G1 F1200
G1 X59.303 Y128.47 E.00392
G1 X69.537 Y145.963 E.62275
G1 X71.006 Y147.587 E.0673
G1 X72.782 Y148.871 E.06732
G1 X74.738 Y149.742 E.06578
G1 X76.88 Y150.202 E.06732
G1 X79.07 Y150.208 E.06732
G1 X81.262 Y149.742 E.06886
G1 X83.262 Y148.846 E.06732
G1 X84.994 Y147.587 E.06578
G1 X86.463 Y145.963 E.0673
G1 X96.697 Y128.47 E.62275
G1 X96.73 Y128.346 E.00392
G1 X96.73 Y123.97 E.13447
G1 X99.865 Y123.97 E.09632
G1 X99.865 Y134.471 E.32267
G1 X97.558 Y134.471 E.07089
G1 X97.558 Y139.085 E.14178
G1 X95.251 Y139.085 E.07089
G1 X95.251 Y143.699 E.14178
G1 X92.943 Y143.699 E.07089
G1 X92.943 Y146.006 E.07089
G1 X90.636 Y146.006 E.07089
G1 X90.636 Y150.62 E.14178
G1 X88.329 Y150.62 E.07089
G1 X88.329 Y152.928 E.07089
G1 X68.6 Y152.928 E.60623
G1 X68.6 Y150.62 E.07089
G1 X66.293 Y150.62 E.07089
G1 X66.293 Y148.313 E.07089
G1 X63.986 Y148.313 E.07089
G1 X63.986 Y143.699 E.14178
G1 X61.679 Y143.699 E.07089
G1 X61.679 Y141.392 E.07089
G1 X59.372 Y141.392 E.07089
G1 X59.372 Y136.778 E.14178
G1 X57.065 Y136.778 E.07089
G1 X57.065 Y132.164 E.14178
G1 X54.757 Y132.164 E.07089
G1 X54.757 Y123.97 E.25178
G1 X59.27 Y123.97 E.13866
G1 X59.27 Y128.29 E.13274
M204 P1000
G1 E-2.24 F4200
;WIPE_START
G1 F7200
G1 X59.27 Y126.644 E-.912
;WIPE_END
G1 E-.048 F4200
G1 Z.4 F720
G1 X99.217 Y134.301 F9000
G1 Z.2 F720
G1 E3.2 F2400
M204 P800
G1 F1200
G1 X99.217 Y124.309 E.30703
G1 X98.799 Y124.309 E.01287
G1 X98.799 Y134.132 E.30181
G1 X98.38 Y134.132 E.01287
G1 X98.38 Y124.309 E.30181
G1 X97.961 Y124.309 E.01287
G1 X97.961 Y134.132 E.30181
G1 X97.542 Y134.132 E.01287
G1 X97.542 Y124.309 E.30181
G1 X97.123 Y124.309 E.01287
G1 X97.123 Y138.746 E.44359
G1 X96.704 Y138.746 E.01287
G1 X96.704 Y129.13 E.29547
G1 X96.285 Y129.847 E.02551
G1 X96.285 Y138.746 E.27344
G1 X95.866 Y138.746 E.01287
G1 X95.866 Y130.563 E.25142
G1 X95.447 Y131.28 E.02551
G1 X95.447 Y138.746 E.2294
G1 X95.028 Y138.746 E.01287
G1 X95.028 Y131.997 E.20738
G1 X94.609 Y132.713 E.02551
G1 X94.609 Y143.36 E.32714
G1 X94.19 Y143.36 E.01287
G1 X94.19 Y133.43 E.30512
G1 X93.771 Y134.146 E.02551
G1 X93.771 Y143.36 E.2831
G1 X93.352 Y143.36 E.01287
G1 X93.352 Y134.863 E.26108
G1 X92.933 Y135.58 E.02551
G1 X92.933 Y143.36 E.23906
G1 X92.604 Y143.36 E.0101
G1 X92.604 Y145.667 E.07089
G1 X92.514 Y145.667 E.00277
G1 X92.514 Y136.296 E.28793
G1 X92.095 Y137.013 E.02551
G1 X92.095 Y145.667 E.26591
G1 X91.676 Y145.667 E.01287
G1 X91.676 Y137.73 E.24389
G1 X91.257 Y138.446 E.02551
G1 X91.257 Y145.667 E.22187
G1 X90.838 Y145.667 E.01287
G1 X90.838 Y139.163 E.19985
G1 X90.419 Y139.88 E.02551
G1 X90.419 Y145.667 E.17783
G1 X90.297 Y145.667 E.00375
G1 X90.297 Y150.281 E.14178
G1 X90 Y150.281 E.00913
G1 X90 Y140.596 E.29759
G1 X89.581 Y141.313 E.02551
G1 X89.581 Y150.281 E.27557
G1 X89.162 Y150.281 E.01287
G1 X89.162 Y142.029 E.25355
G1 X88.743 Y142.746 E.02551
G1 X88.743 Y150.281 E.23153
G1 X88.324 Y150.281 E.01287
G1 X88.324 Y143.463 E.20951
G1 X87.905 Y144.179 E.02551
G1 X87.905 Y152.588 E.25838
G1 X87.486 Y152.588 E.01287
G1 X87.486 Y144.896 E.23636
G1 X87.067 Y145.613 E.02551
G1 X87.067 Y152.588 E.21434
G1 X86.648 Y152.588 E.01287
