; generated by PrusaSlicer 2.6.0-alpha0 on 2023-02-28 at 19:38:48 UTC

; 
;

; 
;

; 
;

; 

; external perimeters extrusion width = 0.45mm
; perimeters extrusion width = 0.45mm
; infill extrusion width = 0.45mm
; solid infill extrusion width = 0.45mm
; top infill extrusion width = 0.40mm
; first layer extrusion width = 0.42mm

M73 P0 R40
M201 X2500 Y2500 Z400 E5000 ; sets maximum accelerations, mm/sec^2
M203 X180 Y180 Z12 E80 ; sets maximum feedrates, mm / sec
M204 P1250 R1250 T2500 ; sets acceleration (P, T) and retract acceleration (R), mm/sec^2
M205 X8.00 Y8.00 Z2.00 E10.00 ; sets the jerk limits, mm/sec
M205 S0 T0 ; sets the minimum extruding and travel feed rate, mm/sec
M107
;TYPE:Custom
M862.3 P "MINI" ; printer model check
G90 ; use absolute coordinates
M83 ; extruder relative mode
M104 S170 ; set extruder temp for bed leveling
M140 S60 ; set bed temp
M109 R170 ; wait for bed leveling temp
M190 S60 ; wait for bed temp
M204 T1250 ; set travel acceleration
G28 ; home all without mesh bed level
G29 ; mesh bed leveling 
M204 T2500 ; restore travel acceleration
M104 S215 ; set extruder temp
G92 E0
G1 Y-2 X179 F2400
G1 Z3 F720
M109 S215 ; wait for extruder temp

; intro line
G1 X170 F1000
G1 Z0.2 F720
G1 X110 E8 F900
G1 X40 E10 F700
G92 E0

M221 S95 ; set flow
G21 ; set units to millimeters
G90 ; use absolute coordinates
M83 ; use relative distances for extrusion
M900 K0.05 ; Filament gcode LA 1.5
M900 K30 ; Filament gcode LA 1.0
M107
;LAYER_CHANGE
;Z:0.25
;HEIGHT:0.25
;BEFORE_LAYER_CHANGE
G92 E0.0
;0.25


G1 E-3.2 F4200
G1 Z.2 F720
G1 Z.25
;AFTER_LAYER_CHANGE
;0.25
G1 Z.45
G1 X57.525 Y58.196 F9000
G1 Z.25 F720
G1 E3.2 F2400
M204 P800
;TYPE:Skirt/Brim
;WIDTH:0.42
G1 F1200
G1 X58.57 Y57.324 E.0596
G1 X59.5 Y57.134 E.04157
G1 X120.5 Y57.134 E2.67114
G1 X121.804 Y57.525 E.05961
M73 P0 R39
G1 X122.676 Y58.57 E.0596
G1 X122.866 Y59.5 E.04157
G1 X122.866 Y120.5 E2.67114
G1 X122.475 Y121.804 E.05961
G1 X121.43 Y122.676 E.0596
G1 X120.5 Y122.866 E.04157
G1 X59.5 Y122.866 E2.67114
G1 X58.196 Y122.475 E.05961
M73 P1 R39
G1 X57.324 Y121.43 E.0596
G1 X57.134 Y120.5 E.04157
G1 X57.134 Y59.5 E2.67114
G1 X57.508 Y58.254 E.05697
M204 P1000
; printing object 0 id:0 copy 0
G1 E-2.24 F4200
;WIPE_START
G1 F7200
G1 X58.57 Y57.324 E-.78229
G1 X58.884 Y57.26 E-.17771
;WIPE_END
G1 Z.45 F720
G1 X107.501 Y109.022 F9000
G1 Z.25 F720
G1 E3.2 F2400
M204 P800
;TYPE:Perimeter
G1 F1200
G1 X106.609 Y109.434 E.04303
G1 X105.71 Y109.625 E.04025
G1 X104.79 Y109.625 E.04029
G1 X103.891 Y109.434 E.04025
G1 X103.051 Y109.06 E.04026
G1 X102.306 Y108.519 E.04032
G1 X101.691 Y107.836 E.04025
G1 X101.228 Y107.034 E.04055
G1 X100.941 Y106.109 E.04241
G1 X100.851 Y105.25 E.03782
G1 X100.947 Y104.335 E.04029
G1 X101.231 Y103.461 E.04024
G1 X101.691 Y102.664 E.0403
G1 X102.306 Y101.981 E.04025
G1 X103.051 Y101.44 E.04032
G1 X103.891 Y101.066 E.04026
G1 X104.79 Y100.875 E.04025
G1 X105.71 Y100.875 E.04029
G1 X106.609 Y101.066 E.04025
G1 X107.449 Y101.44 E.04026
G1 X108.194 Y101.981 E.04032
G1 X108.809 Y102.664 E.04025
G1 X109.269 Y103.461 E.0403
G1 X109.553 Y104.335 E.04024
G1 X109.649 Y105.25 E.04029
G1 X109.553 Y106.165 E.04029
G1 X109.269 Y107.039 E.04024
G1 X108.809 Y107.836 E.0403
G1 X108.194 Y108.519 E.04025
G1 X107.55 Y108.987 E.03486
M204 P1000
G1 X107.237 Y108.753 F9000
M204 P800
G1 F1200
G1 X106.496 Y109.083 E.03552
G1 X105.671 Y109.259 E.03694
G1 X104.829 Y109.259 E.03687
G1 X104.004 Y109.083 E.03694
G1 X103.235 Y108.741 E.03685
G1 X102.553 Y108.245 E.03693
G1 X101.989 Y107.619 E.0369
G1 X101.566 Y106.886 E.03706
G1 X101.302 Y106.035 E.03902
G1 X101.219 Y105.25 E.03457
G1 X101.307 Y104.412 E.0369
G1 X101.568 Y103.611 E.03689
G1 X101.989 Y102.881 E.0369
G1 X102.553 Y102.255 E.0369
G1 X103.235 Y101.759 E.03693
G1 X104.004 Y101.417 E.03685
G1 X104.829 Y101.241 E.03694
G1 X105.671 Y101.241 E.03687
G1 X106.496 Y101.417 E.03694
G1 X107.265 Y101.759 E.03685
G1 X107.947 Y102.255 E.03693
G1 X108.511 Y102.881 E.0369
G1 X108.932 Y103.611 E.0369
G1 X109.193 Y104.412 E.03689
G1 X109.281 Y105.25 E.0369
G1 X109.193 Y106.088 E.0369
G1 X108.932 Y106.889 E.03689
G1 X108.511 Y107.619 E.0369
G1 X107.947 Y108.245 E.0369
G1 X107.289 Y108.724 E.03564
M204 P1000
G1 X107.069 Y108.427 F9000
M204 P800
;TYPE:External perimeter
G1 F1200
G1 X106.382 Y108.733 E.03293
G1 X105.633 Y108.892 E.03353
G1 X104.867 Y108.892 E.03354
G1 X104.118 Y108.733 E.03353
G1 X103.419 Y108.422 E.0335
G1 X102.799 Y107.972 E.03355
G1 X102.287 Y107.403 E.03352
G1 X101.904 Y106.738 E.0336
G1 X101.662 Y105.961 E.03564
G1 X101.588 Y105.25 E.0313
G1 X101.668 Y104.489 E.03351
G1 X101.904 Y103.76 E.03355
G1 X102.287 Y103.097 E.03353
G1 X102.799 Y102.528 E.03352
G1 X103.419 Y102.078 E.03355
G1 X104.118 Y101.767 E.0335
G1 X104.867 Y101.608 E.03353
G1 X105.633 Y101.608 E.03354
G1 X106.382 Y101.767 E.03353
G1 X107.081 Y102.078 E.0335
G1 X107.701 Y102.528 E.03355
G1 X108.213 Y103.097 E.03352
G1 X108.596 Y103.76 E.03353
G1 X108.832 Y104.489 E.03355
G1 X108.912 Y105.25 E.03351
G1 X108.832 Y106.011 E.03351
G1 X108.596 Y106.74 E.03355
G1 X108.213 Y107.403 E.03353
G1 X107.701 Y107.972 E.03352
G1 X107.119 Y108.394 E.03148
M204 P1000
G1 X107.068 Y108.827 F9000
G1 E-2.24 F4200
;WIPE_START
G1 F7200
G1 X106.382 Y108.733 E-.44956
G1 X105.633 Y108.892 E-.42432
G1 X105.478 Y108.892 E-.08612
;WIPE_END
G1 Z.45 F720
G1 X107.391 Y70.914 F9000
G1 Z.25 F720
G1 E3.2 F2400
M204 P800
;TYPE:Perimeter
G1 F1200
G1 X108.194 Y71.481 E.04305
G1 X108.809 Y72.164 E.04025
G1 X109.269 Y72.961 E.0403
G1 X109.553 Y73.835 E.04024
G1 X109.649 Y74.75 E.04029
G1 X109.553 Y75.665 E.04029
G1 X109.269 Y76.539 E.04024
G1 X108.809 Y77.336 E.0403
G1 X108.194 Y78.019 E.04025
G1 X107.449 Y78.56 E.04032
G1 X106.609 Y78.934 E.04026
G1 X105.71 Y79.125 E.04025
G1 X104.79 Y79.125 E.04029
G1 X103.891 Y78.934 E.04025
G1 X103.051 Y78.56 E.04026
G1 X102.306 Y78.019 E.04032
G1 X101.691 Y77.336 E.04025
G1 X101.228 Y76.534 E.04055
G1 X100.941 Y75.609 E.04241
G1 X100.851 Y74.75 E.03782
G1 X100.947 Y73.835 E.04029
G1 X101.231 Y72.961 E.04024
G1 X101.691 Y72.164 E.0403
G1 X102.306 Y71.481 E.04025
G1 X103.051 Y70.94 E.04032
G1 X103.891 Y70.566 E.04026
G1 X104.79 Y70.375 E.04025
G1 X105.71 Y70.375 E.04029
G1 X106.609 Y70.566 E.04025
G1 X107.337 Y70.89 E.03489
M204 P1000
G1 X107.237 Y71.247 F9000
M204 P800
G1 F1200
G1 X107.947 Y71.755 E.03823
G1 X108.511 Y72.381 E.0369
G1 X108.932 Y73.111 E.0369
G1 X109.193 Y73.912 E.03689
G1 X109.281 Y74.75 E.0369
G1 X109.193 Y75.588 E.0369
G1 X108.932 Y76.389 E.03689
G1 X108.511 Y77.119 E.0369
G1 X107.947 Y77.745 E.0369
G1 X107.265 Y78.241 E.03693
G1 X106.496 Y78.583 E.03685
G1 X105.671 Y78.759 E.03694
G1 X104.829 Y78.759 E.03687
G1 X104.004 Y78.583 E.03694
G1 X103.235 Y78.241 E.03685
G1 X102.553 Y77.745 E.03693
G1 X101.989 Y77.119 E.0369
G1 X101.566 Y76.386 E.03706
G1 X101.302 Y75.535 E.03902
G1 X101.219 Y74.75 E.03457
G1 X101.307 Y73.912 E.0369
G1 X101.568 Y73.111 E.03689
G1 X101.989 Y72.381 E.0369
G1 X102.553 Y71.755 E.0369
G1 X103.235 Y71.259 E.03693
G1 X104.004 Y70.917 E.03685
G1 X104.829 Y70.741 E.03694
G1 X105.671 Y70.741 E.03687
G1 X106.496 Y70.917 E.03694
G1 X107.182 Y71.222 E.03287
M204 P1000
G1 X107.069 Y71.573 F9000
M204 P800
;TYPE:External perimeter
G1 F1200
G1 X107.701 Y72.028 E.0341
G1 X108.213 Y72.597 E.03352
G1 X108.596 Y73.26 E.03353
G1 X108.832 Y73.989 E.03355
G1 X108.912 Y74.75 E.03351
G1 X108.832 Y75.511 E.03351
G1 X108.596 Y76.24 E.03355
G1 X108.213 Y76.903 E.03353
G1 X107.701 Y77.472 E.03352
G1 X107.081 Y77.922 E.03355
G1 X106.382 Y78.233 E.0335
G1 X105.633 Y78.392 E.03353
G1 X104.867 Y78.392 E.03354
G1 X104.118 Y78.233 E.03353
G1 X103.419 Y77.922 E.0335
G1 X102.799 Y77.472 E.03355
G1 X102.287 Y76.903 E.03352
G1 X101.904 Y76.238 E.0336
G1 X101.662 Y75.461 E.03564
G1 X101.588 Y74.75 E.0313
G1 X101.668 Y73.989 E.03351
G1 X101.904 Y73.26 E.03355
G1 X102.287 Y72.597 E.03353
G1 X102.799 Y72.028 E.03352
G1 X103.419 Y71.578 E.03355
G1 X104.118 Y71.267 E.0335
G1 X104.867 Y71.108 E.03353
G1 X105.633 Y71.108 E.03354
G1 X106.382 Y71.267 E.03353
G1 X107.014 Y71.549 E.0303
M204 P1000
G1 X107.415 Y71.372 F9000
G1 E-2.24 F4200
;WIPE_START
G1 F7200
G1 X107.701 Y72.028 E-.46412
G1 X108.213 Y72.597 E-.42418
G1 X108.278 Y72.709 E-.0717
;WIPE_END
G1 Z.45 F720
G1 X76.891 Y78.586 F9000
G1 Z.25 F720
G1 E3.2 F2400
M204 P800
;TYPE:Perimeter
G1 F1200
G1 X76.109 Y78.934 E.03748
G1 X75.21 Y79.125 E.04025
G1 X74.29 Y79.125 E.04029
G1 X73.391 Y78.934 E.04025
G1 X72.551 Y78.56 E.04026
G1 X71.806 Y78.019 E.04032
G1 X71.191 Y77.336 E.04025
G1 X70.728 Y76.534 E.04055
G1 X70.441 Y75.609 E.04241
G1 X70.351 Y74.75 E.03782
G1 X70.447 Y73.835 E.04029
G1 X70.731 Y72.961 E.04024
G1 X71.191 Y72.164 E.0403
G1 X71.806 Y71.481 E.04025
G1 X72.551 Y70.94 E.04032
G1 X73.391 Y70.566 E.04026
G1 X74.29 Y70.375 E.04025
G1 X75.21 Y70.375 E.04029
G1 X76.109 Y70.566 E.04025
G1 X76.949 Y70.94 E.04026
G1 X77.694 Y71.481 E.04032
G1 X78.309 Y72.164 E.04025
G1 X78.769 Y72.961 E.0403
G1 X79.053 Y73.835 E.04024
G1 X79.149 Y74.75 E.04029
G1 X79.053 Y75.665 E.04029
G1 X78.769 Y76.539 E.04024
G1 X78.309 Y77.336 E.0403
G1 X77.694 Y78.019 E.04025
G1 X76.946 Y78.561 E.04045
M204 P1000
G1 X76.737 Y78.253 F9000
M204 P800
G1 F1200
G1 X75.996 Y78.583 E.03552
G1 X75.171 Y78.759 E.03694
G1 X74.329 Y78.759 E.03687
G1 X73.504 Y78.583 E.03694
G1 X72.735 Y78.241 E.03685
G1 X72.053 Y77.745 E.03693
G1 X71.489 Y77.119 E.0369
G1 X71.066 Y76.386 E.03706
G1 X70.802 Y75.535 E.03902
G1 X70.719 Y74.75 E.03457
G1 X70.807 Y73.912 E.0369
G1 X71.068 Y73.111 E.03689
G1 X71.489 Y72.381 E.0369
G1 X72.053 Y71.755 E.0369
G1 X72.735 Y71.259 E.03693
G1 X73.504 Y70.917 E.03685
G1 X74.329 Y70.741 E.03694
G1 X75.171 Y70.741 E.03687
G1 X75.996 Y70.917 E.03694
G1 X76.765 Y71.259 E.03685
G1 X77.447 Y71.755 E.03693
G1 X78.011 Y72.381 E.0369
G1 X78.432 Y73.111 E.0369
G1 X78.693 Y73.912 E.03689
G1 X78.781 Y74.75 E.0369
G1 X78.693 Y75.588 E.0369
G1 X78.432 Y76.389 E.03689
G1 X78.011 Y77.119 E.0369
G1 X77.447 Y77.745 E.0369
G1 X76.789 Y78.224 E.03564
M204 P1000
G1 X76.569 Y77.927 F9000
M204 P800
;TYPE:External perimeter
G1 F1200
G1 X75.882 Y78.233 E.03293
G1 X75.133 Y78.392 E.03353
G1 X74.367 Y78.392 E.03354
G1 X73.618 Y78.233 E.03353
G1 X72.919 Y77.922 E.0335
G1 X72.299 Y77.472 E.03355
G1 X71.787 Y76.903 E.03352
G1 X71.404 Y76.238 E.0336
G1 X71.162 Y75.461 E.03564
G1 X71.088 Y74.75 E.0313
G1 X71.168 Y73.989 E.03351
G1 X71.404 Y73.26 E.03355
G1 X71.787 Y72.597 E.03353
G1 X72.299 Y72.028 E.03352
G1 X72.919 Y71.578 E.03355
G1 X73.618 Y71.267 E.0335
G1 X74.367 Y71.108 E.03353
G1 X75.133 Y71.108 E.03354
G1 X75.882 Y71.267 E.03353
G1 X76.581 Y71.578 E.0335
G1 X77.201 Y72.028 E.03355
G1 X77.713 Y72.597 E.03352
G1 X78.096 Y73.26 E.03353
G1 X78.332 Y73.989 E.03355
G1 X78.412 Y74.75 E.03351
G1 X78.332 Y75.511 E.03351
G1 X78.096 Y76.24 E.03355
G1 X77.713 Y76.903 E.03353
G1 X77.201 Y77.472 E.03352
G1 X76.619 Y77.894 E.03148
M204 P1000
G1 X76.568 Y78.327 F9000
G1 E-2.24 F4200
;WIPE_START
G1 F7200
G1 X75.882 Y78.233 E-.44956
G1 X75.133 Y78.392 E-.42432
G1 X74.978 Y78.392 E-.08612
;WIPE_END
G1 Z.45 F720
G1 X72.609 Y109.086 F9000
G1 Z.25 F720
G1 E3.2 F2400
M204 P800
;TYPE:Perimeter
G1 F1200
G1 X71.806 Y108.519 E.04305
G1 X71.191 Y107.836 E.04025
G1 X70.728 Y107.034 E.04055
G1 X70.441 Y106.109 E.04241
G1 X70.351 Y105.25 E.03782
G1 X70.447 Y104.335 E.04029
G1 X70.731 Y103.461 E.04024
G1 X71.191 Y102.664 E.0403
G1 X71.806 Y101.981 E.04025
G1 X72.551 Y101.44 E.04032
G1 X73.391 Y101.066 E.04026
G1 X74.29 Y100.875 E.04025
G1 X75.21 Y100.875 E.04029
G1 X76.109 Y101.066 E.04025
G1 X76.949 Y101.44 E.04026
G1 X77.694 Y101.981 E.04032
G1 X78.309 Y102.664 E.04025
G1 X78.769 Y103.461 E.0403
G1 X79.053 Y104.335 E.04024
G1 X79.149 Y105.25 E.04029
G1 X79.053 Y106.165 E.04029
G1 X78.769 Y107.039 E.04024
G1 X78.309 Y107.836 E.0403
G1 X77.694 Y108.519 E.04025
G1 X76.949 Y109.06 E.04032
G1 X76.109 Y109.434 E.04026
G1 X75.21 Y109.625 E.04025
G1 X74.29 Y109.625 E.04029
G1 X73.391 Y109.434 E.04025
G1 X72.664 Y109.11 E.03485
M204 P1000
G1 X72.763 Y108.753 F9000
M204 P800
G1 F1200
G1 X72.053 Y108.245 E.03823
G1 X71.489 Y107.619 E.0369
G1 X71.066 Y106.886 E.03706
G1 X70.802 Y106.035 E.03902
G1 X70.719 Y105.25 E.03457
G1 X70.807 Y104.412 E.0369
G1 X71.068 Y103.611 E.03689
G1 X71.489 Y102.881 E.0369
G1 X72.053 Y102.255 E.0369
G1 X72.735 Y101.759 E.03693
G1 X73.504 Y101.417 E.03685
G1 X74.329 Y101.241 E.03694
G1 X75.171 Y101.241 E.03687
G1 X75.996 Y101.417 E.03694
G1 X76.765 Y101.759 E.03685
G1 X77.447 Y102.255 E.03693
G1 X78.011 Y102.881 E.0369
G1 X78.432 Y103.611 E.0369
G1 X78.693 Y104.412 E.03689
G1 X78.781 Y105.25 E.0369
G1 X78.693 Y106.088 E.0369
G1 X78.432 Y106.889 E.03689
G1 X78.011 Y107.619 E.0369
G1 X77.447 Y108.245 E.0369
G1 X76.765 Y108.741 E.03693
G1 X75.996 Y109.083 E.03685
G1 X75.171 Y109.259 E.03694
G1 X74.329 Y109.259 E.03687
G1 X73.504 Y109.083 E.03694
G1 X72.818 Y108.778 E.03287
M204 P1000
G1 X72.908 Y108.414 F9000
M204 P800
;TYPE:External perimeter
G1 F1200
G1 X72.299 Y107.972 E.03295
G1 X71.787 Y107.403 E.03352
G1 X71.404 Y106.738 E.0336
G1 X71.162 Y105.961 E.03564
G1 X71.088 Y105.25 E.0313
G1 X71.168 Y104.489 E.03351
G1 X71.404 Y103.76 E.03355
G1 X71.787 Y103.097 E.03353
G1 X72.299 Y102.528 E.03352
G1 X72.919 Y102.078 E.03355
G1 X73.618 Y101.767 E.0335
G1 X74.367 Y101.608 E.03353
G1 X75.133 Y101.608 E.03354
G1 X75.882 Y101.767 E.03353
G1 X76.581 Y102.078 E.0335
G1 X77.201 Y102.528 E.03355
G1 X77.713 Y103.097 E.03352
G1 X78.096 Y103.76 E.03353
G1 X78.332 Y104.489 E.03355
G1 X78.412 Y105.25 E.03351
G1 X78.332 Y106.011 E.03351
G1 X78.096 Y106.74 E.03355
G1 X77.713 Y107.403 E.03353
G1 X77.201 Y107.972 E.03352
G1 X76.581 Y108.422 E.03355
G1 X75.882 Y108.733 E.0335
G1 X75.133 Y108.892 E.03353
G1 X74.367 Y108.892 E.03354
G1 X73.618 Y108.733 E.03353
G1 X72.961 Y108.441 E.03148
M204 P1000
G1 X72.561 Y108.613 F9000
G1 E-2.24 F4200
;WIPE_START
G1 F7200
G1 X72.299 Y107.972 E-.44959
G1 X71.787 Y107.403 E-.42418
G1 X71.709 Y107.268 E-.08623
;WIPE_END
G1 Z.45 F720
G1 X119.357 Y119.357 F9000
G1 Z.25 F720
G1 E3.2 F2400
M204 P800
;TYPE:Perimeter
G1 F1200
G1 X60.643 Y119.357 E2.57104
G1 X60.643 Y60.643 E2.57104
M73 P2 R39
G1 X119.357 Y60.643 E2.57104
G1 X119.357 Y119.297 E2.56841
M204 P1000
G1 X119.724 Y119.724 F9000
M204 P800
G1 F1200
G1 X60.276 Y119.724 E2.60318
G1 X60.276 Y60.276 E2.60318
G1 X119.724 Y60.276 E2.60318
G1 X119.724 Y119.664 E2.60056
M204 P1000
G1 X120.09 Y120.09 F9000
M204 P800
;TYPE:External perimeter
G1 F1200
G1 X59.91 Y120.09 E2.63524
G1 X59.91 Y59.91 E2.63524
M73 P3 R39
G1 X120.09 Y59.91 E2.63524
M73 P3 R38
G1 X120.09 Y120.03 E2.63261
M204 P1000
G1 X119.704 Y119.986 F9000
G1 E-2.24 F4200
;WIPE_START
G1 F7200
G1 X118.358 Y120.032 E-.96
;WIPE_END
G1 Z.45 F720
G1 X118.504 Y60.753 F9000
G1 Z.25 F720
G1 E3.2 F2400
M204 P800
;TYPE:Solid infill
;WIDTH:0.421543
G1 F1200
G1 X119.083 Y61.332 E.03601
G1 X119.083 Y61.852 E.02287
G1 X118.148 Y60.917 E.05815
G1 X117.628 Y60.917 E.02287
G1 X119.083 Y62.372 E.09048
G1 X119.083 Y62.892 E.02287
G1 X117.108 Y60.917 E.12282
G1 X116.587 Y60.917 E.02291
G1 X119.083 Y63.413 E.15522
G1 X119.083 Y63.933 E.02287
G1 X116.067 Y60.917 E.18756
G1 X115.547 Y60.917 E.02287
G1 X119.083 Y64.453 E.2199
G1 X119.083 Y64.974 E.02291
G1 X115.026 Y60.917 E.2523
G1 X114.506 Y60.917 E.02287
G1 X119.083 Y65.494 E.28464
G1 X119.083 Y66.014 E.02287
G1 X113.986 Y60.917 E.31697
G1 X113.466 Y60.917 E.02287
G1 X119.083 Y66.534 E.34931
G1 X119.083 Y67.055 E.02291
G1 X112.945 Y60.917 E.38171
G1 X112.425 Y60.917 E.02287
G1 X119.083 Y67.575 E.41405
G1 X119.083 Y68.095 E.02287
G1 X111.905 Y60.917 E.44639
G1 X111.385 Y60.917 E.02287
G1 X119.083 Y68.615 E.47873
G1 X119.083 Y69.136 E.02291
G1 X110.864 Y60.917 E.51113
G1 X110.344 Y60.917 E.02287
G1 X119.083 Y69.656 E.54346
G1 X119.083 Y70.176 E.02287
G1 X109.824 Y60.917 E.5758
G1 X109.303 Y60.917 E.02291
G1 X119.083 Y70.697 E.6082
G1 X119.083 Y71.217 E.02287
G1 X108.783 Y60.917 E.64054
G1 X108.263 Y60.917 E.02287
G1 X119.083 Y71.737 E.67288
G1 X119.083 Y72.257 E.02287
G1 X107.743 Y60.917 E.70521
G1 X107.222 Y60.917 E.02291
G1 X119.083 Y72.778 E.73761
G1 X119.083 Y73.298 E.02287
