; generated by PrusaSlicer 2.5.0+linux-x64-GTK3 on 2023-03-09 at 12:27:18 UTC

; 
;

; 
;

; 
;

; 

; external perimeters extrusion width = 0.45mm
; perimeters extrusion width = 0.45mm
; infill extrusion width = 0.45mm
; solid infill extrusion width = 0.45mm
; top infill extrusion width = 0.40mm
; first layer extrusion width = 0.42mm

M73 P0 R14
M201 X2500 Y2500 Z400 E5000 ; sets maximum accelerations, mm/sec^2
M203 X180 Y180 Z12 E80 ; sets maximum feedrates, mm / sec
M204 P1250 R1250 T2500 ; sets acceleration (P, T) and retract acceleration (R), mm/sec^2
M205 X8.00 Y8.00 Z2.00 E10.00 ; sets the jerk limits, mm/sec
M205 S0 T0 ; sets the minimum extruding and travel feed rate, mm/sec
M107
;TYPE:Custom
M862.3 P "MINI" ; printer model check
G90 ; use absolute coordinates
M83 ; extruder relative mode
M104 S170 ; set extruder temp for bed leveling
M140 S60 ; set bed temp
M109 R170 ; wait for bed leveling temp
M190 S60 ; wait for bed temp
M204 T1250 ; set travel acceleration
G28 ; home all without mesh bed level
G29 ; mesh bed leveling 
M204 T2500 ; restore travel acceleration
M104 S215 ; set extruder temp
G92 E0
G1 Y-2 X179 F2400
G1 Z3 F720
M109 S215 ; wait for extruder temp

; intro line
G1 X170 F1000
G1 Z0.2 F720
G1 X110 E8 F900
G1 X40 E10 F700
G92 E0

M221 S95 ; set flow
G21 ; set units to millimeters
G90 ; use absolute coordinates
M83 ; use relative distances for extrusion
M900 K0.05 ; Filament gcode LA 1.5
M900 K30 ; Filament gcode LA 1.0
M107
;LAYER_CHANGE
;Z:0.2
;HEIGHT:0.2
;BEFORE_LAYER_CHANGE
G92 E0.0
;0.2


M73 P1 R14
G1 E-3.2 F4200
G1 Z.2 F720
;AFTER_LAYER_CHANGE
;0.2
G1 Z.4
G1 X64.965 Y74.595 F9000
G1 Z.2 F720
G1 E3.2 F2400
M204 P800
;TYPE:Skirt/Brim
;WIDTH:0.42
G1 F1200
G1 X66.664 Y73.424 E.06338
G1 X68.569 Y72.633 E.06338
G1 X70.596 Y72.255 E.06338
G1 X72.352 Y72.263 E.05396
G1 X112.457 Y75.445 E1.23618
G1 X113.643 Y75.677 E.03711
M73 P2 R14
G1 X114.936 Y76.196 E.04284
G1 X116.094 Y76.973 E.04284
G1 X117.065 Y77.973 E.04284
G1 X117.357 Y78.375 E.01527
G1 X118.008 Y79.608 E.04283
G1 X118.39 Y80.949 E.04284
G1 X118.484 Y82.34 E.04284
G1 X118.286 Y83.72 E.04284
G1 X117.806 Y85.029 E.04283
G1 X117.065 Y86.209 E.04284
G1 X116.094 Y87.21 E.04284
G1 X114.98 Y87.967 E.04137
G1 X73.676 Y107.352 E1.402
G1 X72.324 Y107.693 E.04284
G1 X71.83 Y107.745 E.01527
G1 X70.931 Y107.745 E.02762
G1 X69.557 Y107.506 E.04284
G1 X68.264 Y106.987 E.04284
G1 X67.833 Y106.738 E.01527
G1 X66.737 Y105.877 E.04284
G1 X65.843 Y104.807 E.04284
G1 X65.394 Y104.029 E.02762
G1 X64.914 Y102.72 E.04284
G1 X61.701 Y84.051 E.58208
G1 X61.516 Y81.843 E.06808
G1 X61.784 Y79.797 E.06338
G1 X62.47 Y77.852 E.06338
G1 X63.546 Y76.092 E.06338
G1 X64.924 Y74.638 E.06154
M204 P1000
; printing object  id:0 copy 0
G1 E-2.24 F4200
;WIPE_START
G1 F7200
G1 X66.273 Y73.697 E-.912
;WIPE_END
G1 E-.048 F4200
G1 Z.4 F720
G1 X112.611 Y84.723 F9000
G1 Z.2 F720
G1 E3.2 F2400
M204 P800
;TYPE:Perimeter
;WIDTH:0.420458
G1 F1200
G1 X112.206 Y84.826 E.01285
G1 X112.01 Y84.847 E.00606
;WIDTH:0.419999
G1 X103.44 Y84.847 E.26333
G1 X102.871 Y84.747 E.01774
G1 X102.336 Y84.531 E.01774
G1 X101.857 Y84.208 E.01774
G1 X101.455 Y83.793 E.01774
G1 X101.149 Y83.304 E.01774
G1 X100.951 Y82.761 E.01775
G1 X100.87 Y82.19 E.01773
G1 X100.91 Y81.614 E.01775
G1 X101.069 Y81.059 E.01773
G1 X101.34 Y80.548 E.01775
G1 X101.71 Y80.106 E.01774
G1 X102.165 Y79.75 E.01774
G1 X102.684 Y79.497 E.01774
G1 X103.244 Y79.356 E.01774
G1 X103.44 Y79.336 E.00605
G1 X107.004 Y79.336 E.10953
;WIDTH:0.46513
G1 X107.104 Y79.313 E.00352
;WIDTH:0.510261
G1 X107.204 Y79.291 E.0039
;WIDTH:0.555392
G1 X107.304 Y79.268 E.00428
;WIDTH:0.600522
G1 X107.404 Y79.246 E.00465
G1 X108.556 Y79.268 E.05233
;WIDTH:0.554907
G1 X109.707 Y79.291 E.04805
;WIDTH:0.509292
G1 X110.859 Y79.314 E.04377
;WIDTH:0.463677
G1 X112.01 Y79.337 E.03949
;WIDTH:0.418061
G1 X112.578 Y79.441 E.01764
;WIDTH:0.409909
G1 X113.112 Y79.656 E.01724
G1 X113.59 Y79.978 E.01724
G1 X113.991 Y80.393 E.01724
G1 X114.297 Y80.881 E.01723
G1 X114.494 Y81.423 E.01724
G1 X114.575 Y81.993 E.01723
G1 X114.535 Y82.568 E.01724
G1 X114.376 Y83.122 E.01723
G1 X114.106 Y83.632 E.01725
G1 X113.736 Y84.073 E.01723
G1 X113.282 Y84.428 E.01724
;WIDTH:0.416286
G1 X112.765 Y84.684 E.01754
;WIDTH:0.420458
G1 X112.669 Y84.709 E.00306
M204 P1000
G1 X112.558 Y84.354 F9000
M204 P800
;WIDTH:0.419999
G1 F1200
G1 X112.01 Y84.47 E.0172
G1 X103.44 Y84.47 E.26333
G1 X102.837 Y84.341 E.01894
M73 P3 R14
G1 X102.387 Y84.127 E.01533
G1 X101.99 Y83.824 E.01533
G1 X101.666 Y83.445 E.01532
G1 X101.427 Y83.007 E.01533
G1 X101.285 Y82.529 E.01532
G1 X101.245 Y82.032 E.01533
G1 X101.31 Y81.538 E.01532
G1 X101.476 Y81.067 E.01533
G1 X101.736 Y80.641 E.01532
G1 X102.078 Y80.279 E.01533
G1 X102.489 Y79.996 E.01533
G1 X102.95 Y79.805 E.01533
G1 X103.44 Y79.713 E.01533
G1 X112.01 Y79.713 E.26333
G1 X112.558 Y79.82 E.01714
G1 X113.063 Y80.055 E.01714
G1 X113.46 Y80.358 E.01533
G1 X113.784 Y80.737 E.01532
G1 X114.023 Y81.175 E.01533
G1 X114.165 Y81.653 E.01532
G1 X114.205 Y82.15 E.01533
G1 X114.14 Y82.645 E.01532
G1 X113.974 Y83.115 E.01533
G1 X113.714 Y83.541 E.01532
G1 X113.372 Y83.903 E.01533
G1 X112.961 Y84.186 E.01533
G1 X112.613 Y84.331 E.01157
M204 P1000
G1 X112.403 Y84.013 F9000
M204 P800
;TYPE:External perimeter
G1 F1200
G1 X112.01 Y84.092 E.01233
G1 X103.44 Y84.092 E.26333
G1 X102.991 Y83.997 E.01412
G1 X102.608 Y83.822 E.01291
G1 X102.271 Y83.572 E.01291
G1 X101.993 Y83.257 E.01291
G1 X101.786 Y82.891 E.01292
G1 X101.66 Y82.49 E.01291
G1 X101.62 Y82.072 E.01291
G1 X101.668 Y81.654 E.01291
G1 X101.802 Y81.256 E.01291
G1 X102.016 Y80.894 E.01291
G1 X102.3 Y80.584 E.01291
G1 X102.642 Y80.341 E.01291
G1 X103.028 Y80.173 E.01291
G1 X103.44 Y80.09 E.01291
G1 X112.01 Y80.09 E.26333
G1 X112.459 Y80.186 E.01412
G1 X112.842 Y80.36 E.01291
G1 X113.179 Y80.611 E.01291
G1 X113.457 Y80.926 E.01291
G1 X113.664 Y81.292 E.01292
G1 X113.79 Y81.693 E.01291
G1 X113.83 Y82.111 E.01291
G1 X113.782 Y82.528 E.01291
G1 X113.648 Y82.927 E.01291
G1 X113.434 Y83.289 E.01291
G1 X113.15 Y83.598 E.01291
G1 X112.808 Y83.842 E.01291
G1 X112.46 Y83.993 E.01165
M204 P1000
G1 X112.316 Y84.403 F9000
G1 E-2.24 F4200
;WIPE_START
G1 F7200
G1 X112.01 Y84.092 E-.25523
G1 X110.825 Y84.092 E-.65677
;WIPE_END
G1 E-.048 F4200
G1 Z.4 F720
G1 X114.935 Y82.147 F9000
G1 Z.2 F720
G1 E3.2 F2400
M204 P800
;TYPE:Perimeter
;WIDTH:0.40993
G1 F1200
G1 X114.94 Y82.228 E.00241
G1 X114.843 Y82.873 E.01952
G1 X114.614 Y83.485 E.01954
G1 X114.264 Y84.036 E.01952
G1 X113.806 Y84.501 E.01953
;WIDTH:0.412402
G1 X113.266 Y84.863 E.01957
;WIDTH:0.431188
G1 X112.132 Y85.392 E.03961
;WIDTH:0.419999
G1 X73.046 Y103.756 E1.32695
G1 X72.348 Y104.067 E.0235
G1 X71.708 Y104.203 E.0201
G1 X71.053 Y104.203 E.0201
G1 X70.413 Y104.067 E.0201
G1 X69.816 Y103.801 E.0201
G1 X69.286 Y103.417 E.0201
G1 X68.849 Y102.931 E.0201
G1 X68.522 Y102.364 E.0201
G1 X68.308 Y101.706 E.02126
G1 X65.198 Y83.492 E.56777
G1 X65.051 Y82.091 E.04327
G1 X65.189 Y80.775 E.04066
G1 X65.598 Y79.517 E.04066
G1 X66.26 Y78.371 E.04066
G1 X67.145 Y77.388 E.04066
G1 X68.216 Y76.61 E.04066
G1 X69.425 Y76.072 E.04066
G1 X70.719 Y75.797 E.04066
G1 X72.118 Y75.797 E.043
G1 X107.035 Y78.567 E1.07626
;WIDTH:0.46513
G1 X107.133 Y78.598 E.00352
;WIDTH:0.510261
M73 P4 R14
G1 X107.231 Y78.628 E.0039
;WIDTH:0.555392
G1 X107.328 Y78.658 E.00428
;WIDTH:0.600522
G1 X107.426 Y78.689 E.00465
G1 X108.576 Y78.757 E.05233
;WIDTH:0.554907
G1 X109.726 Y78.826 E.04805
;WIDTH:0.509292
G1 X110.875 Y78.894 E.04377
;WIDTH:0.463677
G1 X112.025 Y78.962 E.03949
;WIDTH:0.418061
G1 X112.281 Y79.002 E.00793
;WIDTH:0.40993
G1 X112.913 Y79.166 E.01953
G1 X113.498 Y79.457 E.01953
G1 X114.009 Y79.864 E.01953
G1 X114.424 Y80.367 E.01952
G1 X114.725 Y80.947 E.01954
G1 X114.9 Y81.576 E.01952
G1 X114.931 Y82.087 E.01532
M204 P1000
G1 X115.328 Y82.091 F9000
M204 P800
;WIDTH:0.419999
G1 F1200
G1 X115.251 Y82.821 E.02254
G1 X115.025 Y83.518 E.02254
G1 X114.658 Y84.154 E.02254
G1 X114.167 Y84.699 E.02254
G1 X113.567 Y85.135 E.02279
G1 X73.203 Y104.099 E1.37036
G1 X72.465 Y104.428 E.02483
G1 X71.747 Y104.581 E.02254
G1 X71.014 Y104.581 E.02254
G1 X70.296 Y104.428 E.02254
G1 X69.626 Y104.13 E.02254
G1 X69.033 Y103.699 E.02254
G1 X68.542 Y103.154 E.02254
G1 X68.175 Y102.518 E.02254
G1 X67.941 Y101.796 E.02332
G1 X64.824 Y83.543 E.56899
G1 X64.672 Y82.091 E.04486
G1 X64.818 Y80.696 E.04309
G1 X65.252 Y79.363 E.04309
G1 X65.953 Y78.148 E.04309
G1 X66.892 Y77.106 E.04309
G1 X68.026 Y76.281 E.04309
G1 X69.307 Y75.711 E.04309
G1 X70.679 Y75.419 E.04309
G1 X72.133 Y75.419 E.04468
G1 X112.156 Y78.595 E1.23364
G1 X112.904 Y78.754 E.0235
G1 X113.574 Y79.053 E.02254
G1 X114.167 Y79.484 E.02254
G1 X114.658 Y80.029 E.02254
G1 X115.025 Y80.664 E.02254
G1 X115.251 Y81.362 E.02254
G1 X115.322 Y82.032 E.02069
M204 P1000
G1 X115.707 Y82.091 F9000
M204 P800
;TYPE:External perimeter
G1 F1200
G1 X115.622 Y82.9 E.02497
G1 X115.371 Y83.673 E.02498
G1 X114.965 Y84.376 E.02497
G1 X114.421 Y84.98 E.02497
G1 X113.76 Y85.461 E.0251
G1 X73.36 Y104.442 E1.37157
G1 X72.582 Y104.789 E.02617
M73 P5 R13
G1 X71.787 Y104.958 E.02497
G1 X70.974 Y104.958 E.02497
G1 X70.179 Y104.789 E.02497
G1 X69.437 Y104.458 E.02497
G1 X68.779 Y103.98 E.02497
G1 X68.235 Y103.376 E.02497
G1 X67.829 Y102.673 E.02497
G1 X67.574 Y101.887 E.02538
G1 X64.451 Y83.595 E.5702
G1 X64.293 Y82.091 E.04645
G1 X64.448 Y80.618 E.04553
G1 X64.905 Y79.208 E.04553
G1 X65.646 Y77.925 E.04553
G1 X66.638 Y76.824 E.04553
G1 X67.837 Y75.953 E.04553
G1 X69.19 Y75.35 E.04553
G1 X70.64 Y75.042 E.04553
G1 X72.148 Y75.042 E.04635
G1 X112.21 Y78.221 E1.23485
G1 X113.021 Y78.394 E.02548
G1 X113.763 Y78.724 E.02497
G1 X114.421 Y79.202 E.02498
G1 X114.965 Y79.806 E.02497
G1 X115.371 Y80.51 E.02497
G1 X115.622 Y81.283 E.02498
G1 X115.701 Y82.032 E.02313
M204 P1000
G1 X115.361 Y82.291 F9000
G1 E-2.24 F4200
;WIPE_START
G1 F7200
G1 X115.622 Y82.9 E-.48297
G1 X115.383 Y83.636 E-.42903
;WIPE_END
G1 E-.048 F4200
G1 Z.4 F720
G1 X68.895 Y80.916 F9000
G1 Z.2 F720
G1 E3.2 F2400
M204 P800
;TYPE:Perimeter
G1 F1200
G1 X69.089 Y80.549 E.01277
G1 X69.46 Y80.106 E.01774
G1 X69.915 Y79.75 E.01774
G1 X70.434 Y79.497 E.01774
G1 X70.994 Y79.356 E.01774
G1 X71.571 Y79.336 E.01774
G1 X72.14 Y79.436 E.01774
G1 X72.675 Y79.652 E.01774
G1 X73.154 Y79.974 E.01774
G1 X73.556 Y80.389 E.01774
G1 X73.862 Y80.879 E.01774
G1 X74.06 Y81.421 E.01774
G1 X74.141 Y81.993 E.01774
G1 X74.101 Y82.569 E.01774
G1 X73.942 Y83.124 E.01774
G1 X73.671 Y83.634 E.01774
G1 X73.301 Y84.077 E.01774
G1 X72.846 Y84.432 E.01774
G1 X72.327 Y84.686 E.01774
G1 X71.767 Y84.826 E.01774
G1 X71.19 Y84.847 E.01774
G1 X70.621 Y84.747 E.01774
G1 X70.086 Y84.531 E.01774
G1 X69.607 Y84.208 E.01774
G1 X69.205 Y83.793 E.01774
G1 X68.899 Y83.304 E.01774
G1 X68.701 Y82.762 E.01774
G1 X68.62 Y82.19 E.01774
G1 X68.66 Y81.614 E.01774
G1 X68.819 Y81.059 E.01774
G1 X68.867 Y80.969 E.00313
M204 P1000
G1 X69.204 Y81.128 F9000
M204 P800
G1 F1200
G1 X69.486 Y80.641 E.01727
G1 X69.828 Y80.279 E.01533
G1 X70.239 Y79.996 E.01533
G1 X70.7 Y79.805 E.01533
G1 X71.19 Y79.713 E.01533
G1 X71.689 Y79.725 E.01533
G1 X72.174 Y79.841 E.01533
G1 X72.624 Y80.055 E.01533
G1 X73.02 Y80.358 E.01533
G1 X73.345 Y80.737 E.01533
G1 X73.583 Y81.175 E.01533
G1 X73.726 Y81.653 E.01533
G1 X73.766 Y82.15 E.01533
G1 X73.701 Y82.645 E.01533
G1 X73.535 Y83.115 E.01533
G1 X73.275 Y83.541 E.01533
G1 X72.933 Y83.903 E.01533
G1 X72.522 Y84.186 E.01533
G1 X72.061 Y84.378 E.01533
G1 X71.487 Y84.47 E.01786
G1 X71.072 Y84.457 E.01276
G1 X70.52 Y84.312 E.01754
G1 X70.137 Y84.127 E.01308
G1 X69.74 Y83.824 E.01533
G1 X69.416 Y83.445 E.01533
G1 X69.177 Y83.007 E.01533
G1 X69.035 Y82.529 E.01533
G1 X68.995 Y82.15 E.01171
G1 X69.044 Y81.595 E.01714
G1 X69.185 Y81.185 E.01331
M204 P1000
G1 X69.562 Y81.24 F9000
M204 P800
;TYPE:External perimeter
G1 F1200
G1 X69.766 Y80.894 E.01234
G1 X70.05 Y80.584 E.01291
G1 X70.392 Y80.341 E.01291
G1 X70.778 Y80.173 E.01291
G1 X71.19 Y80.09 E.01291
G1 X71.61 Y80.094 E.01291
G1 X72.02 Y80.186 E.01291
G1 X72.403 Y80.36 E.01291
G1 X72.74 Y80.611 E.01291
G1 X73.018 Y80.926 E.01291
G1 X73.225 Y81.292 E.01291
G1 X73.351 Y81.693 E.01291
G1 X73.391 Y82.111 E.01291
G1 X73.343 Y82.528 E.01291
G1 X73.209 Y82.927 E.01291
G1 X72.895 Y83.4 E.01743
G1 X72.711 Y83.598 E.00833
G1 X72.368 Y83.842 E.01291
G1 X71.983 Y84.009 E.01291
G1 X71.487 Y84.092 E.01544
G1 X71.151 Y84.088 E.01034
G1 X70.674 Y83.967 E.01512
G1 X70.358 Y83.822 E.01067
G1 X70.021 Y83.572 E.01291
G1 X69.743 Y83.257 E.01291
G1 X69.536 Y82.891 E.01291
G1 X69.41 Y82.49 E.01291
G1 X69.37 Y82.111 E.01171
G1 X69.418 Y81.654 E.01412
G1 X69.539 Y81.295 E.01164
M204 P1000
G1 X69.329 Y80.914 F9000
G1 E-2.24 F4200
;WIPE_START
G1 F7200
G1 X69.766 Y80.894 E-.25541
G1 X70.05 Y80.584 E-.2329
G1 X70.392 Y80.341 E-.2329
G1 X70.708 Y80.204 E-.1908
;WIPE_END
G1 E-.048 F4200
G1 Z.4 F720
G1 X73.33 Y92.162 F9000
G1 Z.2 F720
G1 E3.2 F2400
M204 P800
;TYPE:Perimeter
G1 F1200
G1 X73.325 Y92.29 E.00392
G1 X73.208 Y92.805 E.01625
G1 X73.07 Y93.069 E.00916
M73 P6 R13
G1 X72.778 Y93.454 E.01483
G1 X73.17 Y94.006 E.02081
G1 X73.324 Y94.617 E.01936
G1 X73.343 Y94.881 E.00814
G1 X73.235 Y95.43 E.01719
G1 X73.07 Y95.794 E.0123
G1 X72.778 Y96.179 E.01483
G1 X73.17 Y96.731 E.02082
G1 X73.324 Y97.343 E.01939
G1 X73.324 Y97.739 E.01217
G1 X73.196 Y98.288 E.01732
G1 X73.07 Y98.52 E.00809
G1 X72.767 Y98.905 E.01507
G1 X73.027 Y99.203 E.01215
G1 X73.24 Y99.667 E.01568
G1 X73.323 Y100.053 E.01213
G1 X73.324 Y100.477 E.01305
G1 X73.242 Y100.862 E.01208
G1 X73.069 Y101.251 E.01307
G1 X72.839 Y101.568 E.01205
G1 X72.293 Y102.005 E.02149
G1 X71.779 Y102.18 E.01668
G1 X71.487 Y102.226 E.00906
G1 X70.966 Y102.176 E.0161
G1 X70.65 Y102.086 E.01008
G1 X70.115 Y101.769 E.01912
G1 X69.918 Y101.559 E.00886
G1 X69.635 Y101.163 E.01494
G1 X69.524 Y100.878 E.0094
G1 X69.429 Y100.425 E.01423
G1 X69.436 Y100.068 E.01097
G1 X69.526 Y99.652 E.01306
G1 X69.691 Y99.288 E.01229
G1 X69.983 Y98.904 E.01483
G1 X69.63 Y98.427 E.01824
G1 X69.526 Y98.155 E.00895
G1 X69.429 Y97.7 E.01429
G1 X69.436 Y97.343 E.01097
G1 X69.604 Y96.704 E.02031
G1 X69.983 Y96.179 E.0199
G1 X69.638 Y95.716 E.01774
G1 X69.526 Y95.43 E.00944
G1 X69.429 Y94.975 E.0143
G1 X69.436 Y94.618 E.01097
G1 X69.586 Y94.019 E.01899
G1 X69.983 Y93.454 E.02122
G1 X69.623 Y92.965 E.01865
G1 X69.526 Y92.705 E.00852
G1 X69.436 Y92.29 E.01306
G1 X69.436 Y91.896 E.01211
G1 X69.524 Y91.48 E.01307
G1 X69.684 Y91.121 E.01205
G1 X70.074 Y90.623 E.01945
G1 X70.593 Y90.302 E.01875
G1 X70.901 Y90.19 E.01006
G1 X71.409 Y90.135 E.01572
G1 X71.892 Y90.197 E.01497
G1 X72.168 Y90.302 E.00906
G1 X72.605 Y90.559 E.01557
G1 X72.827 Y90.777 E.00959
G1 X73.123 Y91.191 E.01563
G1 X73.237 Y91.48 E.00954
G1 X73.339 Y91.978 E.01564
G1 X73.333 Y92.102 E.00381
M204 P1000
G1 X72.95 Y92.176 F9000
M204 P800
G1 F1200
G1 X72.867 Y92.625 E.01403
G1 X72.767 Y92.844 E.00742
G1 X72.45 Y93.257 E.01597
G1 X72.135 Y93.454 E.01144
G1 X72.45 Y93.651 E.01144
G1 X72.767 Y94.063 E.01597
G1 X72.867 Y94.282 E.00738
G1 X72.967 Y94.781 E.01563
G1 X72.867 Y95.351 E.01779
G1 X72.767 Y95.569 E.00738
G1 X72.45 Y95.982 E.01597
G1 X72.135 Y96.179 E.01144
G1 X72.45 Y96.376 E.01144
G1 X72.767 Y96.788 E.01597
G1 X72.867 Y97.007 E.00738
G1 X72.968 Y97.574 E.0177
G1 X72.867 Y98.076 E.01573
G1 X72.767 Y98.294 E.00738
G1 X72.512 Y98.637 E.01314
G1 X72.15 Y98.895 E.01364
G1 X72.576 Y99.239 E.01681
G1 X72.722 Y99.434 E.00749
G1 X72.921 Y99.888 E.01525
G1 X72.946 Y100.478 E.01813
G1 X72.898 Y100.709 E.00725
G1 X72.725 Y101.097 E.01307
G1 X72.586 Y101.288 E.00723
G1 X72.132 Y101.664 E.01811
G1 X71.65 Y101.825 E.01562
G1 X71.303 Y101.833 E.01069
G1 X70.816 Y101.747 E.01518
G1 X70.348 Y101.472 E.0167
G1 X69.989 Y101.015 E.01785
G1 X69.893 Y100.8 E.00723
G1 X69.8 Y100.361 E.01376
G1 X69.805 Y100.147 E.00658
G1 X69.957 Y99.569 E.01838
G1 X70.31 Y99.101 E.01802
G1 X70.626 Y98.904 E.01144
G1 X70.31 Y98.707 E.01144
G1 X69.994 Y98.294 E.01597
G1 X69.894 Y98.076 E.00738
G1 X69.801 Y97.636 E.0138
G1 X69.805 Y97.422 E.00658
G1 X69.942 Y96.873 E.01741
G1 X70.247 Y96.448 E.01607
G1 X70.424 Y96.292 E.00725
