; generated by PrusaSlicer 2.5.0+linux-x64-GTK3 on 2023-03-16 at 11:08:53 UTC

; 
;

; 
;

; 
;

; 

; external perimeters extrusion width = 0.45mm
; perimeters extrusion width = 0.45mm
; infill extrusion width = 0.45mm
; solid infill extrusion width = 0.45mm
; top infill extrusion width = 0.40mm
; first layer extrusion width = 0.42mm

M73 P0 R5
M201 X2500 Y2500 Z400 E5000 ; sets maximum accelerations, mm/sec^2
M203 X180 Y180 Z12 E80 ; sets maximum feedrates, mm / sec
M204 P1250 R1250 T2500 ; sets acceleration (P, T) and retract acceleration (R), mm/sec^2
M205 X8.00 Y8.00 Z2.00 E10.00 ; sets the jerk limits, mm/sec
M205 S0 T0 ; sets the minimum extruding and travel feed rate, mm/sec
M107
;TYPE:Custom
M862.3 P "MINI" ; printer model check
G90 ; use absolute coordinates
M83 ; extruder relative mode
M104 S170 ; set extruder temp for bed leveling
M140 S60 ; set bed temp
M109 R170 ; wait for bed leveling temp
M190 S60 ; wait for bed temp
M204 T1250 ; set travel acceleration
G28 ; home all without mesh bed level
G29 ; mesh bed leveling 
M204 T2500 ; restore travel acceleration
M104 S215 ; set extruder temp
G92 E0
G1 Y-2 X179 F2400
G1 Z3 F720
M109 S215 ; wait for extruder temp

; intro line
M73 P1 R5
G1 X170 F1000
G1 Z0.2 F720
G1 X110 E8 F900
G1 X40 E10 F700
G92 E0

M221 S95 ; set flow
G21 ; set units to millimeters
G90 ; use absolute coordinates
M83 ; use relative distances for extrusion
M900 K0.05 ; Filament gcode LA 1.5
M900 K30 ; Filament gcode LA 1.0
M107
;LAYER_CHANGE
;Z:0.2
;HEIGHT:0.2
;BEFORE_LAYER_CHANGE
G92 E0.0
;0.2


M73 P3 R5
G1 E-3.2 F4200
M73 P4 R4
G1 Z.2 F720
;AFTER_LAYER_CHANGE
;0.2
G1 Z.4
G1 X73.762 Y83.86 F9000
G1 Z.2 F720
M73 P5 R4
G1 E3.2 F2400
M204 P800
;TYPE:Skirt/Brim
;WIDTH:0.42
G1 F1200
G1 X75.026 Y82.798 E.05072
G1 X76.632 Y81.921 E.05623
G1 X77.976 Y81.484 E.04341
G1 X79.782 Y81.25 E.05597
G1 X100.401 Y81.256 E.63357
G1 X101.615 Y81.397 E.03753
G1 X103.19 Y81.849 E.05035
G1 X104.459 Y82.468 E.04341
G1 X105.785 Y83.431 E.05036
G1 X106.767 Y84.448 E.04342
G1 X107.683 Y85.806 E.05034
G1 X108.258 Y87.097 E.04342
G1 X108.581 Y88.274 E.03752
G1 X108.752 Y89.904 E.05035
G1 X108.654 Y91.313 E.0434
G1 X108.258 Y92.903 E.05035
G1 X107.773 Y94.024 E.03753
G1 X107.025 Y95.222 E.04341
G1 X105.928 Y96.44 E.05035
G1 X104.815 Y97.31 E.04342
M73 P6 R4
G1 X103.368 Y98.079 E.05035
G1 X101.615 Y98.603 E.05622
G1 X100.209 Y98.75 E.04342
G1 X79.791 Y98.75 E.62741
G1 X78.575 Y98.636 E.03752
G1 X77.387 Y98.354 E.03752
G1 X76.632 Y98.079 E.02468
G1 X75.541 Y97.532 E.03752
G1 X74.687 Y96.956 E.03163
G1 X73.771 Y96.149 E.03752
G1 X73.233 Y95.552 E.02468
G1 X72.527 Y94.557 E.03752
G1 X71.965 Y93.472 E.03752
G1 X71.419 Y91.726 E.05623
G1 X71.248 Y90.096 E.05035
G1 X71.419 Y88.274 E.05623
G1 X71.964 Y86.531 E.05611
G1 X72.628 Y85.28 E.04353
G1 X73.725 Y83.907 E.05401
M204 P1000
G1 X74.017 Y84.14 F9000
M204 P800
G1 F1200
G1 X75.248 Y83.103 E.04944
G1 X76.786 Y82.265 E.05381
G1 X78.054 Y81.853 E.04099
G1 X79.782 Y81.627 E.05355
G1 X100.375 Y81.632 E.63277
G1 X101.536 Y81.766 E.03591
M73 P7 R4
G1 X103.061 Y82.203 E.04873
G1 X104.26 Y82.788 E.04098
G1 X105.543 Y83.72 E.04874
G1 X106.47 Y84.68 E.04099
G1 X107.356 Y85.995 E.04873
G1 X107.899 Y87.213 E.04099
G1 X108.21 Y88.34 E.03591
G1 X108.376 Y89.917 E.04873
G1 X108.283 Y91.248 E.04098
G1 X107.899 Y92.787 E.04873
G1 X107.434 Y93.859 E.03591
G1 X106.727 Y94.99 E.04099
G1 X105.666 Y96.169 E.04873
G1 X104.615 Y96.99 E.041
G1 X103.214 Y97.735 E.04873
G1 X101.536 Y98.234 E.0538
G1 X100.209 Y98.373 E.04099
G1 X79.791 Y98.373 E.62741
G1 X78.627 Y98.263 E.03591
G1 X77.491 Y97.991 E.03591
G1 X76.786 Y97.735 E.02306
G1 X75.74 Y97.212 E.03591
G1 X74.909 Y96.651 E.03082
G1 X74.033 Y95.878 E.0359
M73 P8 R4
G1 X73.531 Y95.32 E.02306
G1 X72.853 Y94.368 E.03591
G1 X72.315 Y93.331 E.03591
G1 X71.79 Y91.66 E.05381
G1 X71.624 Y90.083 E.04873
G1 X71.79 Y88.34 E.05381
G1 X72.314 Y86.672 E.05371
G1 X72.941 Y85.491 E.04109
G1 X73.98 Y84.187 E.05125
M204 P1000
; printing object  id:0 copy 0
G1 E-2.24 F4200
;WIPE_START
G1 F7200
G1 X75.231 Y83.117 E-.912
;WIPE_END
G1 E-.048 F4200
G1 Z.4 F720
G1 X85.014 Y88.558 F9000
G1 Z.2 F720
G1 E3.2 F2400
M204 P800
;TYPE:Perimeter
;WIDTH:0.403633
G1 F1200
G1 X85.179 Y89.336 E.02338
;WIDTH:0.392614
G1 X85.219 Y90.088 E.02146
;WIDTH:0.403648
G1 X85.166 Y90.739 E.01919
G1 X85.013 Y91.451 E.0214
G1 X84.732 Y92.204 E.02363
G1 X84.419 Y92.776 E.01917
G1 X83.992 Y93.366 E.0214
;WIDTH:0.398595
G1 X83.483 Y93.889 E.02115
G1 X82.909 Y94.336 E.02107
G1 X82.278 Y94.698 E.02111
G1 X81.602 Y94.97 E.02111
;WIDTH:0.403631
G1 X80.894 Y95.142 E.02141
G1 X80.094 Y95.219 E.02363
G1 X79.442 Y95.189 E.01917
G1 X78.725 Y95.061 E.0214
G1 X77.986 Y94.817 E.02289
;WIDTH:0.39248
G1 X77.334 Y94.489 E.02077
G1 X76.726 Y94.066 E.0211
;WIDTH:0.392674
G1 X76.185 Y93.562 E.02109
;WIDTH:0.40365
G1 X75.771 Y93.057 E.01919
G1 X75.384 Y92.44 E.0214
;WIDTH:0.398594
G1 X75.089 Y91.774 E.02111
G1 X74.89 Y91.073 E.02111
G1 X74.791 Y90.352 E.02111
G1 X74.791 Y89.648 E.02039
;WIDTH:0.398625
G1 X74.895 Y88.902 E.02183
G1 X75.098 Y88.203 E.02111
;WIDTH:0.403634
G1 X75.398 Y87.539 E.02141
G1 X75.813 Y86.88 E.02289
;WIDTH:0.392453
G1 X76.288 Y86.328 E.02072
;WIDTH:0.393147
G1 X76.823 Y85.856 E.02039
G1 X77.467 Y85.436 E.02194
;WIDTH:0.40365
G1 X78.057 Y85.157 E.01917
G1 X78.749 Y84.931 E.0214
;WIDTH:0.398595
G1 X79.467 Y84.806 E.02111
;WIDTH:0.403647
G1 X80.195 Y84.785 E.02141
G1 X80.993 Y84.876 E.02363
G1 X81.625 Y85.041 E.01918
G1 X82.3 Y85.313 E.0214
;WIDTH:0.398626
G1 X82.93 Y85.678 E.02111
G1 X83.503 Y86.128 E.02111
;WIDTH:0.403633
G1 X84.006 Y86.655 E.02141
G1 X84.473 Y87.31 E.02363
G1 X84.773 Y87.889 E.01917
G1 X84.994 Y88.501 E.01914
M204 P1000
G1 X85.363 Y88.432 F9000
M204 P800
;TYPE:External perimeter
;WIDTH:0.419999
G1 F1200
G1 X85.535 Y89.222 E.02484
G1 X85.589 Y89.999 E.02392
G1 X85.535 Y90.778 E.024
G1 X85.373 Y91.541 E.02396
G1 X85.106 Y92.273 E.02396
G1 X84.74 Y92.962 E.02396
G1 X84.282 Y93.593 E.02396
G1 X83.739 Y94.155 E.024
G1 X83.126 Y94.634 E.02392
M73 P9 R4
G1 X82.45 Y95.024 E.02396
G1 X81.727 Y95.316 E.02396
G1 X80.971 Y95.504 E.02396
G1 X80.195 Y95.586 E.02396
G1 X79.416 Y95.559 E.02396
G1 X78.648 Y95.423 E.02396
G1 X77.906 Y95.182 E.02396
G1 X77.205 Y94.841 E.02396
G1 X76.559 Y94.405 E.02396
G1 X75.979 Y93.883 E.02396
G1 X75.478 Y93.285 E.02396
G1 X75.065 Y92.624 E.02396
G1 X74.748 Y91.912 E.02396
G1 X74.533 Y91.162 E.02396
G1 X74.424 Y90.39 E.02396
G1 X74.424 Y89.61 E.02396
G1 X74.533 Y88.838 E.02396
G1 X74.748 Y88.088 E.02396
G1 X75.065 Y87.376 E.02396
G1 X75.478 Y86.715 E.02396
G1 X75.979 Y86.117 E.02396
G1 X76.559 Y85.595 E.02396
G1 X77.205 Y85.159 E.02396
G1 X77.906 Y84.818 E.02396
G1 X78.648 Y84.577 E.02396
G1 X79.416 Y84.441 E.02396
G1 X80.195 Y84.414 E.02396
G1 X80.971 Y84.496 E.02396
G1 X81.727 Y84.684 E.02396
G1 X82.45 Y84.976 E.02396
G1 X83.126 Y85.366 E.02396
G1 X83.74 Y85.846 E.02396
G1 X84.282 Y86.407 E.02396
G1 X84.74 Y87.038 E.02396
G1 X85.106 Y87.727 E.02396
G1 X85.342 Y88.376 E.02123
M204 P1000
G1 X85.086 Y88.721 F9000
G1 E-2.24 F4200
;WIPE_START
G1 F7200
G1 X85.535 Y89.222 E-.48102
G1 X85.589 Y89.998 E-.43098
;WIPE_END
G1 E-.048 F4200
G1 Z.4 F720
G1 X82.438 Y94.197 F9000
G1 Z.2 F720
G1 E3.2 F2400
M204 P800
;TYPE:Perimeter
;WIDTH:0.398592
G1 F1200
G1 X82.133 Y94.374 E.01021
G1 X81.504 Y94.628 E.01968
;WIDTH:0.403641
G1 X80.85 Y94.784 E.01976
G1 X80.227 Y94.866 E.01846
G1 X79.486 Y94.831 E.02182
G1 X79.097 Y94.785 E.0115
;WIDTH:0.3927
G1 X78.229 Y94.537 E.02575
G1 X77.598 Y94.239 E.0199
;WIDTH:0.393148
G1 X77.02 Y93.854 E.01982
G1 X76.522 Y93.412 E.019
;WIDTH:0.40365
G1 X76.066 Y92.851 E.02126
G1 X75.704 Y92.284 E.01976
;WIDTH:0.398594
G1 X75.427 Y91.664 E.01967
G1 X75.24 Y91.012 E.01968
G1 X75.146 Y90.339 E.01968
G1 X75.13 Y90.038 E.00874
;WIDTH:0.38808
G1 X75.172 Y89.361 E.0191
G1 X75.308 Y88.694 E.01913
G1 X75.535 Y88.054 E.0191
;WIDTH:0.392697
G1 X76.026 Y87.184 E.02848
G1 X76.469 Y86.643 E.01991
;WIDTH:0.392454
G1 X76.96 Y86.193 E.01898
G1 X77.53 Y85.8 E.01972
;WIDTH:0.40365
G1 X78.186 Y85.493 E.02129
G1 X78.823 Y85.279 E.01976
;WIDTH:0.398595
G1 X79.491 Y85.161 E.01967
;WIDTH:0.403635
G1 X80.163 Y85.144 E.01976
G1 X80.789 Y85.193 E.01846
G1 X81.507 Y85.381 E.02181
G1 X82.133 Y85.626 E.01976
;WIDTH:0.398626
G1 X82.721 Y85.966 E.01968
G1 X83.256 Y86.384 E.01968
;WIDTH:0.403637
G1 X83.718 Y86.872 E.01976
G1 X84.1 Y87.37 E.01846
G1 X84.441 Y88.03 E.02181
G1 X84.595 Y88.389 E.0115
;WIDTH:0.392699
G1 X84.815 Y89.265 E.02575
G1 X84.872 Y89.962 E.01991
;WIDTH:0.40365
G1 X84.81 Y90.682 E.02127
M73 P10 R4
G1 X84.75 Y91.069 E.0115
;WIDTH:0.392696
G1 X84.473 Y91.929 E.02575
;WIDTH:0.403648
G1 X84.117 Y92.58 E.02181
G1 X83.728 Y93.128 E.01975
;WIDTH:0.398592
G1 X83.255 Y93.617 E.01972
G1 X82.721 Y94.034 E.01964
G1 X82.49 Y94.167 E.00772
M204 P1000
G1 X82.189 Y93.937 F9000
M204 P800
;TYPE:External perimeter
;WIDTH:0.419999
G1 F1200
G1 X81.702 Y94.176 E.01669
G1 X81.104 Y94.373 E.01933
G1 X80.177 Y94.506 E.02878
G1 X79.197 Y94.437 E.03017
G1 X78.329 Y94.188 E.02776
G1 X77.757 Y93.912 E.01951
G1 X77.224 Y93.553 E.01976
G1 X76.765 Y93.142 E.01892
G1 X76.168 Y92.378 E.02978
G1 X75.886 Y91.846 E.01851
G1 X75.669 Y91.256 E.01932
G1 X75.536 Y90.64 E.01936
G1 X75.49 Y90.013 E.01932
G1 X75.532 Y89.386 E.01932
G1 X75.661 Y88.769 E.01936
G1 X75.875 Y88.178 E.01932
G1 X76.341 Y87.365 E.02878
G1 X76.747 Y86.877 E.01952
G1 X77.203 Y86.463 E.01893
G1 X77.734 Y86.101 E.01974
G1 X78.619 Y85.707 E.02979
G1 X79.204 Y85.561 E.01851
G1 X79.829 Y85.493 E.01933
G1 X80.764 Y85.556 E.02878
G1 X81.702 Y85.824 E.02997
G1 X82.243 Y86.088 E.0185
G1 X82.766 Y86.438 E.01936
G1 X83.235 Y86.858 E.01932
G1 X83.814 Y87.594 E.02878
G1 X84.244 Y88.477 E.03017
G1 X84.463 Y89.353 E.02776
G1 X84.51 Y89.987 E.01952
G1 X84.406 Y90.957 E.02998
G1 X84.127 Y91.816 E.02776
G1 X83.64 Y92.662 E.02997
G1 X83.253 Y93.123 E.01851
G1 X82.787 Y93.545 E.01932
G1 X82.243 Y93.91 E.02014
M204 P1000
G1 X82.188 Y94.337 F9000
G1 E-2.24 F4200
;WIPE_START
G1 F7200
G1 X81.702 Y94.176 E-.33422
G1 X81.104 Y94.373 E-.34867
G1 X80.695 Y94.431 E-.22911
;WIPE_END
G1 E-.048 F4200
G1 Z.4 F720
G1 X95.771 Y93.057 F9000
G1 Z.2 F720
G1 E3.2 F2400
M204 P800
;TYPE:Perimeter
;WIDTH:0.40365
G1 F1200
G1 X95.385 Y92.44 E.02139
;WIDTH:0.39922
G1 X95.083 Y91.755 E.02173
;WIDTH:0.398603
G1 X94.89 Y91.074 E.02053
G1 X94.791 Y90.352 E.02112
G1 X94.791 Y89.648 E.0204
;WIDTH:0.398621
G1 X94.895 Y88.902 E.02183
G1 X95.098 Y88.203 E.02111
;WIDTH:0.404873
G1 X95.399 Y87.539 E.02149
G1 X95.813 Y86.88 E.02297
;WIDTH:0.392488
G1 X96.288 Y86.328 E.02074
G1 X96.835 Y85.847 E.02074
;WIDTH:0.392673
G1 X97.467 Y85.436 E.0215
;WIDTH:0.403637
G1 X98.057 Y85.157 E.01917
G1 X98.749 Y84.931 E.0214
;WIDTH:0.398595
G1 X99.467 Y84.806 E.02111
;WIDTH:0.403642
G1 X100.195 Y84.785 E.02141
G1 X100.993 Y84.876 E.02363
G1 X101.625 Y85.041 E.01917
G1 X102.3 Y85.313 E.0214
;WIDTH:0.398601
G1 X102.93 Y85.678 E.02111
G1 X103.503 Y86.128 E.02111
G1 X104.008 Y86.653 E.02111
;WIDTH:0.403636
G1 X104.432 Y87.245 E.02141
G1 X104.795 Y87.934 E.02289
;WIDTH:0.392476
G1 X105.036 Y88.621 E.02073
G1 X105.179 Y89.336 E.02077
G1 X105.221 Y90.063 E.02074
G1 X105.161 Y90.788 E.02074
;WIDTH:0.392673
M73 P11 R4
G1 X104.992 Y91.524 E.0215
;WIDTH:0.403651
G1 X104.762 Y92.134 E.01917
G1 X104.421 Y92.777 E.0214
;WIDTH:0.398636
G1 X103.992 Y93.366 E.02111
G1 X103.484 Y93.888 E.02112
G1 X102.909 Y94.336 E.02111
;WIDTH:0.404159
G1 X102.276 Y94.696 E.02144
G1 X101.527 Y94.992 E.02372
;WIDTH:0.392453
G1 X100.845 Y95.152 E.01996
;WIDTH:0.392673
G1 X100.094 Y95.219 E.02148
;WIDTH:0.403623
G1 X99.442 Y95.189 E.01919
G1 X98.725 Y95.061 E.0214
G1 X97.986 Y94.817 E.02289
;WIDTH:0.39248
G1 X97.335 Y94.49 E.02073
G1 X96.736 Y94.075 E.02077
;WIDTH:0.392658
G1 X96.185 Y93.562 E.02147
;WIDTH:0.40365
G1 X95.809 Y93.104 E.01742
M204 P1000
G1 X95.465 Y93.264 F9000
M204 P800
;TYPE:External perimeter
;WIDTH:0.419999
G1 F1200
G1 X95.065 Y92.624 E.02317
G1 X94.741 Y91.892 E.0246
G1 X94.533 Y91.162 E.02333
G1 X94.424 Y90.39 E.02396
G1 X94.424 Y89.61 E.02396
G1 X94.533 Y88.838 E.02396
G1 X94.748 Y88.088 E.02396
G1 X95.065 Y87.376 E.02396
G1 X95.478 Y86.715 E.02396
G1 X95.979 Y86.117 E.02396
G1 X96.559 Y85.595 E.02396
G1 X97.205 Y85.159 E.02396
G1 X97.906 Y84.818 E.02396
G1 X98.648 Y84.577 E.02396
G1 X99.416 Y84.441 E.02396
G1 X100.195 Y84.414 E.02396
G1 X100.971 Y84.496 E.02396
G1 X101.727 Y84.684 E.02396
G1 X102.45 Y84.976 E.02396
G1 X103.126 Y85.366 E.02396
G1 X103.74 Y85.846 E.02396
G1 X104.282 Y86.407 E.02396
G1 X104.74 Y87.038 E.02396
G1 X105.106 Y87.727 E.02396
G1 X105.373 Y88.459 E.02396
G1 X105.535 Y89.222 E.02396
G1 X105.589 Y90 E.02396
G1 X105.535 Y90.778 E.02396
G1 X105.373 Y91.541 E.02396
G1 X105.106 Y92.273 E.02396
G1 X104.74 Y92.962 E.02396
G1 X104.282 Y93.593 E.02396
G1 X103.74 Y94.154 E.02396
G1 X103.126 Y94.634 E.02396
G1 X102.45 Y95.024 E.02396
G1 X101.727 Y95.316 E.02396
G1 X100.971 Y95.504 E.02396
G1 X100.195 Y95.586 E.02396
G1 X99.416 Y95.559 E.02396
G1 X98.648 Y95.423 E.02396
G1 X97.906 Y95.182 E.02396
G1 X97.205 Y94.841 E.02396
G1 X96.559 Y94.405 E.02396
G1 X95.979 Y93.883 E.02396
G1 X95.5 Y93.312 E.0229
M204 P1000
G1 X95.628 Y92.899 F9000
G1 E-2.24 F4200
;WIPE_START
G1 F7200
G1 X95.065 Y92.624 E-.45102
G1 X94.741 Y91.892 E-.44362
G1 X94.733 Y91.862 E-.01736
;WIPE_END
G1 E-.048 F4200
G1 Z.4 F720
G1 X100.849 Y85.209 F9000
G1 Z.2 F720
G1 E3.2 F2400
M204 P800
;TYPE:Perimeter
;WIDTH:0.403634
G1 F1200
G1 X101.507 Y85.381 E.02001
G1 X102.133 Y85.626 E.01976
;WIDTH:0.398637
G1 X102.721 Y85.966 E.01968
G1 X103.256 Y86.384 E.01968
G1 X103.728 Y86.872 E.01968
;WIDTH:0.403636
G1 X104.117 Y87.42 E.01975
G1 X104.426 Y87.967 E.01846
;WIDTH:0.392721
G1 X104.673 Y88.62 E.01989
;WIDTH:0.392475
G1 X104.819 Y89.284 E.01939
M73 P12 R4
G1 X104.872 Y89.962 E.01935
G1 X104.83 Y90.64 E.01935
G1 X104.694 Y91.306 E.01938
;WIDTH:0.403651
G1 X104.436 Y91.982 E.02126
G1 X104.127 Y92.579 E.01976
;WIDTH:0.398595
G1 X103.728 Y93.128 E.01968
G1 X103.256 Y93.616 E.01968
G1 X102.721 Y94.034 E.01967
;WIDTH:0.404159
G1 X102.136 Y94.363 E.01976
G1 X101.533 Y94.623 E.01933
;WIDTH:0.39401
G1 X100.883 Y94.792 E.0192
;WIDTH:0.39245
G1 X100.209 Y94.868 E.01934
;WIDTH:0.403649
G1 X99.486 Y94.831 E.02127
G1 X99.097 Y94.785 E.0115
;WIDTH:0.39269
G1 X98.229 Y94.537 E.02575
G1 X97.598 Y94.239 E.01989
;WIDTH:0.392488
G1 X97.03 Y93.863 E.01938
G1 X96.522 Y93.412 E.01935
;WIDTH:0.40365
G1 X96.066 Y92.851 E.02127
G1 X95.705 Y92.286 E.0197
;WIDTH:0.39922
G1 X95.421 Y91.646 E.02032
;WIDTH:0.398633
G1 X95.24 Y91.012 E.01911
G1 X95.146 Y90.339 E.01969
G1 X95.13 Y90.038 E.00874
;WIDTH:0.388088
G1 X95.172 Y89.361 E.0191
G1 X95.308 Y88.694 E.01913
;WIDTH:0.388592
G1 X95.525 Y88.079 E.01837
;WIDTH:0.392737
G1 X96.025 Y87.185 E.02919
G1 X96.469 Y86.643 E.01997
;WIDTH:0.392462
G1 X96.97 Y86.185 E.01935
G1 X97.531 Y85.8 E.01938
;WIDTH:0.403637
G1 X98.186 Y85.493 E.02126
G1 X98.823 Y85.279 E.01976
;WIDTH:0.398595
G1 X99.491 Y85.161 E.01967
;WIDTH:0.403634
G1 X100.163 Y85.144 E.01976
G1 X100.791 Y85.194 E.0185
M204 P1000
G1 X100.78 Y85.561 F9000
M204 P800
;TYPE:External perimeter
;WIDTH:0.419999
G1 F1200
G1 X101.702 Y85.824 E.02945
G1 X102.243 Y86.088 E.0185
G1 X102.766 Y86.438 E.01936
G1 X103.235 Y86.858 E.01932
G1 X103.641 Y87.339 E.01933
G1 X104.111 Y88.148 E.02878
G1 X104.331 Y88.744 E.01951
G1 X104.464 Y89.36 E.01936
G1 X104.51 Y89.987 E.01932
G1 X104.468 Y90.614 E.01932
G1 X104.339 Y91.231 E.01936
G1 X103.975 Y92.129 E.02977
G1 X103.656 Y92.64 E.01851
G1 X103.253 Y93.123 E.01933
G1 X102.787 Y93.545 E.01932
G1 X102.266 Y93.899 E.01936
G1 X101.386 Y94.29 E.02958
G1 X100.796 Y94.439 E.0187
G1 X100.171 Y94.507 E.01932
G1 X99.197 Y94.437 E.02999
G1 X98.329 Y94.188 E.02776
G1 X97.757 Y93.912 E.01951
G1 X97.234 Y93.562 E.01936
G1 X96.765 Y93.142 E.01932
G1 X96.168 Y92.378 E.02981
G1 X95.875 Y91.821 E.01931
G1 X95.669 Y91.256 E.0185
G1 X95.536 Y90.64 E.01935
G1 X95.49 Y90.013 E.01932
G1 X95.532 Y89.386 E.01932
G1 X95.661 Y88.769 E.01935
G1 X95.865 Y88.202 E.01851
G1 X96.34 Y87.366 E.02956
G1 X96.747 Y86.877 E.01954
G1 X97.213 Y86.455 E.01932
