; generated by PrusaSlicer 2.5.0+linux-x64-GTK3 on 2023-03-10 at 13:52:14 UTC

; 
;

; 
;

; 
;

; 

; external perimeters extrusion width = 0.45mm
; perimeters extrusion width = 0.45mm
; infill extrusion width = 0.45mm
; solid infill extrusion width = 0.45mm
; top infill extrusion width = 0.40mm
; first layer extrusion width = 0.42mm

M73 P0 R26
M201 X2500 Y2500 Z400 E5000 ; sets maximum accelerations, mm/sec^2
M203 X180 Y180 Z12 E80 ; sets maximum feedrates, mm / sec
M204 P1250 R1250 T2500 ; sets acceleration (P, T) and retract acceleration (R), mm/sec^2
M205 X8.00 Y8.00 Z2.00 E10.00 ; sets the jerk limits, mm/sec
M205 S0 T0 ; sets the minimum extruding and travel feed rate, mm/sec
M107
;TYPE:Custom
M862.3 P "MINI" ; printer model check
G90 ; use absolute coordinates
M83 ; extruder relative mode
M104 S170 ; set extruder temp for bed leveling
M140 S60 ; set bed temp
M109 R170 ; wait for bed leveling temp
M190 S60 ; wait for bed temp
M204 T1250 ; set travel acceleration
G28 ; home all without mesh bed level
G29 ; mesh bed leveling 
M204 T2500 ; restore travel acceleration
M104 S215 ; set extruder temp
G92 E0
G1 Y-2 X179 F2400
G1 Z3 F720
M109 S215 ; wait for extruder temp

; intro line
G1 X170 F1000
G1 Z0.2 F720
G1 X110 E8 F900
G1 X40 E10 F700
G92 E0

M221 S95 ; set flow
G21 ; set units to millimeters
G90 ; use absolute coordinates
M83 ; use relative distances for extrusion
M900 K0.05 ; Filament gcode LA 1.5
M900 K30 ; Filament gcode LA 1.0
M107
;LAYER_CHANGE
;Z:0.2
;HEIGHT:0.2
;BEFORE_LAYER_CHANGE
G92 E0.0
;0.2


G1 E-3.2 F4200
G1 Z.2 F720
;AFTER_LAYER_CHANGE
;0.2
G1 Z.4
G1 X70.321 Y83.592 F9000
G1 Z.2 F720
M73 P1 R26
G1 E3.2 F2400
M204 P800
;TYPE:Skirt/Brim
;WIDTH:0.42
G1 F1200
G1 X71.759 Y82.717 E.05175
G1 X73.163 Y82.206 E.04588
G1 X74.267 Y81.998 E.03454
G1 X75.02 Y81.945 E.02318
G1 X105.172 Y81.952 E.9265
G1 X106.651 Y82.16 E.04588
M73 P1 R25
G1 X107.902 Y82.566 E.04043
G1 X109.22 Y83.267 E.04587
G1 X110.257 Y84.077 E.04043
G1 X111.257 Y85.187 E.04589
G1 X111.954 Y86.303 E.04042
G1 X112.566 Y87.872 E.05176
G1 X112.825 Y89.342 E.04587
G1 X112.825 Y90.658 E.04043
G1 X112.566 Y92.128 E.04587
G1 X112.116 Y93.365 E.04044
G1 X111.369 Y94.658 E.04589
G1 X110.524 Y95.666 E.04041
G1 X109.38 Y96.626 E.04589
G1 X108.241 Y97.283 E.04042
G1 X106.837 Y97.794 E.04588
G1 X105.733 Y98.002 E.03454
G1 X104.98 Y98.055 E.02318
G1 X75.02 Y98.055 E.9206
G1 X73.9 Y97.951 E.03454
G1 X72.807 Y97.692 E.03454
G1 X71.759 Y97.283 E.03454
G1 X70.78 Y96.733 E.03453
G1 X69.885 Y96.051 E.03455
G1 X69.095 Y95.252 E.03453
G1 X68.322 Y94.188 E.04042
G1 X67.806 Y93.189 E.03455
G1 X67.434 Y92.128 E.03454
G1 X67.161 Y90.466 E.05176
G1 X67.213 Y88.974 E.04588
G1 X67.601 Y87.334 E.05176
G1 X68.299 Y85.851 E.05038
G1 X69.095 Y84.748 E.04179
G1 X70.277 Y83.633 E.04992
M204 P1000
G1 X70.534 Y83.905 F9000
M204 P800
G1 F1200
G1 X71.913 Y83.061 E.04968
G1 X73.266 Y82.569 E.04426
G1 X75.02 Y82.322 E.0544
G1 X105.146 Y82.328 E.92569
G1 X106.573 Y82.528 E.04426
G1 X107.749 Y82.911 E.03801
G1 X109.021 Y83.587 E.04426
G1 X109.996 Y84.348 E.03801
G1 X110.96 Y85.419 E.04427
G1 X111.615 Y86.468 E.038
G1 X112.2 Y87.963 E.04934
G1 X112.45 Y89.381 E.04426
G1 X112.45 Y90.619 E.03801
G1 X112.2 Y92.037 E.04426
G1 X111.777 Y93.199 E.03801
G1 X111.057 Y94.447 E.04427
G1 X110.262 Y95.394 E.03799
G1 X109.158 Y96.32 E.04427
G1 X108.087 Y96.939 E.038
G1 X106.734 Y97.431 E.04426
G1 X104.98 Y97.678 E.0544
G1 X74.32 Y97.629 E.94212
G1 X73.266 Y97.431 E.03292
G1 X72.251 Y97.089 E.03292
G1 X70.979 Y96.413 E.04426
G1 X70.128 Y95.763 E.03293
G1 X69.375 Y95 E.03292
G1 X68.648 Y93.999 E.038
G1 X68.155 Y93.048 E.03294
G1 X67.8 Y92.037 E.03292
G1 X67.55 Y90.619 E.04425
G1 X67.588 Y89.013 E.04934
G1 X67.96 Y87.451 E.04934
G1 X68.626 Y86.04 E.04795
G1 X69.375 Y85 E.03938
G1 X70.49 Y83.946 E.04714
M204 P1000
; printing object  id:0 copy 0
G1 E-2.24 F4200
;WIPE_START
G1 F7200
G1 X71.888 Y83.077 E-.912
;WIPE_END
G1 E-.048 F4200
G1 Z.4 F720
G1 X77.579 Y93.705 F9000
G1 Z.2 F720
G1 E3.2 F2400
M204 P800
;TYPE:Perimeter
;WIDTH:0.419999
G1 F1200
G1 X77.799 Y93.551 E.00827
G1 X79.577 Y90.471 E.10926
G1 X79.692 Y90.142 E.01072
G1 X79.692 Y89.858 E.00873
G1 X79.577 Y89.529 E.01072
G1 X77.799 Y86.449 E.10926
G1 X77.205 Y86.106 E.02107
G1 X102.691 Y86.107 E.7831
G1 X102.201 Y86.449 E.01837
G1 X100.423 Y89.529 E.10926
G1 X100.308 Y89.858 E.01072
G1 X100.308 Y90.142 E.00873
G1 X100.423 Y90.471 E.01072
G1 X102.201 Y93.551 E.10926
G1 X102.795 Y93.894 E.02107
G1 X77.309 Y93.894 E.7831
G1 X77.53 Y93.739 E.00827
M204 P1000
G1 X77.391 Y93.435 F9000
M204 P800
;WIDTH:0.463653
G1 F1200
G1 X77.473 Y93.362 E.00377
;WIDTH:0.419999
G1 X79.25 Y90.283 E.10926
G1 X79.326 Y90 E.009
G1 X79.25 Y89.717 E.009
G1 X77.473 Y86.638 E.10926
;WIDTH:0.461432
G1 X77.309 Y86.523 E.00681
;WIDTH:0.502865
M73 P2 R25
G1 X77.146 Y86.408 E.00748
;WIDTH:0.544302
G1 X76.983 Y86.293 E.00816
G1 X74.665 Y86.308 E.09471
;WIDTH:0.513976
G1 X74.232 Y86.323 E.01664
;WIDTH:0.494614
G1 X73.427 Y86.318 E.02961
;WIDTH:0.527535
G1 X73.268 Y86.344 E.00636
;WIDTH:0.560456
G1 X73.109 Y86.37 E.00679
G1 X73.256 Y86.273 E.00741
;WIDTH:0.527535
G1 X73.402 Y86.176 E.00694
;WIDTH:0.494614
G1 X74.201 Y85.885 E.0313
;WIDTH:0.513976
G1 X74.641 Y85.838 E.01697
;WIDTH:0.544299
G1 X75.08 Y85.792 E.01807
G1 X76.983 Y85.792 E.07773
G1 X77.321 Y85.771 E.01384
;WIDTH:0.502866
G1 X77.659 Y85.75 E.0127
;WIDTH:0.461433
G1 X77.997 Y85.729 E.01155
;WIDTH:0.419999
G1 X102.003 Y85.729 E.73763
;WIDTH:0.461412
G1 X102.341 Y85.75 E.01155
;WIDTH:0.502825
G1 X102.679 Y85.771 E.01269
;WIDTH:0.544233
G1 X103.017 Y85.792 E.01384
G1 X104.92 Y85.792 E.07771
G1 X105.538 Y85.844 E.02536
;WIDTH:0.515198
G1 X106.388 Y86.091 E.03405
;WIDTH:0.547914
G1 X106.869 Y86.365 E.02277
G1 X106.573 Y86.304 E.01242
;WIDTH:0.522032
G1 X106.334 Y86.307 E.00933
;WIDTH:0.515198
G1 X105.473 Y86.307 E.03313
;WIDTH:0.544238
G1 X103.017 Y86.293 E.10033
;WIDTH:0.550894
G1 X102.908 Y86.299 E.00452
G1 X102.781 Y86.412 E.00703
;WIDTH:0.507263
G1 X102.654 Y86.525 E.00643
;WIDTH:0.463631
G1 X102.527 Y86.638 E.00582
;WIDTH:0.419999
G1 X100.75 Y89.717 E.10926
G1 X100.674 Y90 E.009
G1 X100.75 Y90.283 E.009
G1 X102.527 Y93.362 E.10926
;WIDTH:0.461434
G1 X102.691 Y93.477 E.00681
;WIDTH:0.502869
G1 X102.854 Y93.592 E.00749
;WIDTH:0.544302
G1 X103.017 Y93.707 E.00816
G1 X105.342 Y93.692 E.095
;WIDTH:0.513469
G1 X105.783 Y93.676 E.0169
;WIDTH:0.530717
G1 X106.267 Y93.688 E.01925
;WIDTH:0.578798
G1 X106.751 Y93.699 E.02115
G1 X106.563 Y93.817 E.0097
;WIDTH:0.530717
G1 X106.375 Y93.935 E.00883
;WIDTH:0.482635
G1 X105.814 Y94.114 E.02111
;WIDTH:0.513469
G1 X105.367 Y94.161 E.01723
;WIDTH:0.544303
G1 X104.92 Y94.208 E.01836
G1 X103.017 Y94.208 E.07773
G1 X102.679 Y94.229 E.01384
;WIDTH:0.502869
G1 X102.341 Y94.25 E.0127
;WIDTH:0.461434
G1 X102.003 Y94.271 E.01155
;WIDTH:0.419999
G1 X77.997 Y94.271 E.73763
;WIDTH:0.461434
G1 X77.659 Y94.25 E.01155
;WIDTH:0.502869
G1 X77.321 Y94.229 E.0127
;WIDTH:0.544303
G1 X76.983 Y94.208 E.01384
G1 X75.097 Y94.208 E.07703
G1 X74.616 Y94.159 E.01979
;WIDTH:0.513571
G1 X74.169 Y94.111 E.01723
;WIDTH:0.482839
G1 X73.637 Y93.939 E.02005
;WIDTH:0.520154
G1 X73.434 Y93.811 E.00935
;WIDTH:0.557468
G1 X73.23 Y93.682 E.01008
G1 X73.455 Y93.679 E.0094
;WIDTH:0.520154
G1 X73.679 Y93.676 E.00872
;WIDTH:0.482839
G1 X74.219 Y93.676 E.01936
;WIDTH:0.513571
G1 X74.658 Y93.692 E.01686
;WIDTH:0.544303
G1 X76.983 Y93.707 E.09498
;WIDTH:0.550959
G1 X77.092 Y93.701 E.00452
G1 X77.219 Y93.588 E.00703
;WIDTH:0.507306
G1 X77.346 Y93.475 E.00643
M204 P1000
G1 E-2.24 F4200
;WIPE_START
G1 F7200
G1 X77.473 Y93.362 E-.09416
G1 X78.21 Y92.084 E-.81785
;WIPE_END
G1 E-.048 F4200
G1 Z.4 F720
G1 X73.131 Y93.635 F9000
G1 Z.2 F720
G1 E3.2 F2400
M204 P800
;WIDTH:0.547928
G1 F1200
G1 X72.801 Y93.468 E.01524
;WIDTH:0.517456
G1 X72.37 Y93.131 E.02116
;WIDTH:0.514458
G1 X71.959 Y92.702 E.02283
;WIDTH:0.543526
G1 X71.626 Y92.215 E.02406
G1 X71.348 Y91.699 E.02392
;WIDTH:0.533888
G1 X71.13 Y91.169 E.02294
;WIDTH:0.485122
G1 X71.011 Y90.611 E.02053
;WIDTH:0.521312
G1 X71.02 Y90.371 E.00936
;WIDTH:0.557502
G1 X71.029 Y90.131 E.01007
G1 X71.143 Y90.324 E.0094
;WIDTH:0.521312
G1 X71.257 Y90.517 E.00874
;WIDTH:0.485122
G1 X71.534 Y90.997 E.01997
;WIDTH:0.533888
G1 X71.792 Y91.492 E.02233
;WIDTH:0.543526
G1 X72.354 Y92.446 E.04516
;WIDTH:0.514458
G1 X72.634 Y92.932 E.02157
;WIDTH:0.517456
G1 X72.895 Y93.387 E.02026
;WIDTH:0.547928
G1 X73.09 Y93.592 E.01165
M204 P1000
G1 E-2.24 F4200
;WIPE_START
G1 F7200
G1 X72.801 Y93.468 E-.17422
G1 X72.37 Y93.131 E-.30326
G1 X71.959 Y92.702 E-.32924
G1 X71.852 Y92.545 E-.10528
;WIPE_END
G1 E-.048 F4200
G1 Z.4 F720
G1 X73.016 Y86.43 F9000
G1 Z.2 F720
G1 E3.2 F2400
M204 P800
;WIDTH:0.570092
G1 F1200
G1 X72.882 Y86.606 E.00951
;WIDTH:0.548209
G1 X72.633 Y87.052 E.02102
;WIDTH:0.532561
G1 X71.785 Y88.522 E.06771
G1 X71.541 Y88.99 E.02108
;WIDTH:0.491955
G1 X71.128 Y89.699 E.03001
;WIDTH:0.519959
G1 X71.074 Y89.861 E.00662
;WIDTH:0.547962
G1 X71.02 Y90.022 E.007
G1 X70.985 Y89.705 E.01314
;WIDTH:0.49959
G1 X70.991 Y89.649 E.00207
;WIDTH:0.491955
G1 X71.14 Y88.804 E.03142
;WIDTH:0.53251
G1 X71.361 Y88.277 E.02278
G1 X71.813 Y87.504 E.03573
G1 X72.403 Y86.852 E.03508
;WIDTH:0.570092
G1 X72.966 Y86.464 E.02938
M204 P1000
G1 E-2.24 F4200
;WIPE_START
G1 F7200
G1 X72.882 Y86.606 E-.09169
G1 X72.633 Y87.052 E-.28296
G1 X72.148 Y87.892 E-.53734
;WIPE_END
G1 E-.048 F4200
G1 Z.4 F720
G1 X77.146 Y93.174 F9000
G1 Z.2 F720
G1 E3.2 F2400
M204 P800
;TYPE:External perimeter
;WIDTH:0.419999
G1 F1200
G1 X76.983 Y93.268 E.00579
G1 X73.427 Y93.268 E.10926
G1 X73.339 Y93.246 E.0028
G1 X73.002 Y92.72 E.01919
G1 X71.486 Y90.094 E.09316
G1 X71.479 Y89.918 E.00542
G1 X73.264 Y86.826 E.10968
G1 X73.41 Y86.733 E.00533
G1 X76.983 Y86.732 E.10978
G1 X77.146 Y86.826 E.00579
G1 X78.924 Y89.906 E.10926
G1 X78.939 Y90.06 E.00477
G1 X77.176 Y93.122 E.10855
M204 P1000
G1 X77.18 Y93.359 F9000
G1 E-2.24 F4200
;WIPE_START
G1 F7200
G1 X76.983 Y93.268 E-.13431
G1 X75.579 Y93.268 E-.77769
;WIPE_END
G1 E-.048 F4200
G1 Z.4 F720
G1 X106.948 Y93.596 F9000
G1 Z.2 F720
G1 E3.2 F2400
M204 P800
;TYPE:Perimeter
;WIDTH:0.5652
G1 F1200
G1 X107.111 Y93.39 E.01117
;WIDTH:0.53058
G1 X107.372 Y92.92 E.02136
;WIDTH:0.514457
G1 X107.646 Y92.446 E.02105
;WIDTH:0.543525
G1 X108.208 Y91.492 E.04516
;WIDTH:0.533888
G1 X108.459 Y91.01 E.02175
;WIDTH:0.521941
G1 X108.719 Y90.549 E.02066
;WIDTH:0.557498
G1 X108.979 Y90.088 E.02219
G1 X108.999 Y90.349 E.01099
;WIDTH:0.512227
G1 X108.86 Y91.196 E.03284
;WIDTH:0.533888
G1 X108.638 Y91.73 E.02312
;WIDTH:0.543525
G1 X108.356 Y92.245 E.02395
G1 X108.02 Y92.728 E.02398
;WIDTH:0.514457
G1 X107.617 Y93.141 E.02217
;WIDTH:0.539829
G1 X107.283 Y93.368 E.01638
;WIDTH:0.5652
G1 X106.998 Y93.562 E.01467
M204 P1000
G1 E-2.24 F4200
;WIPE_START
G1 F7200
G1 X107.111 Y93.39 E-.11414
G1 X107.372 Y92.92 E-.2979
G1 X107.646 Y92.446 E-.30357
G1 X107.826 Y92.141 E-.19639
;WIPE_END
G1 E-.048 F4200
G1 Z.4 F720
G1 X108.98 Y89.978 F9000
G1 Z.2 F720
G1 E3.2 F2400
M204 P800
;WIDTH:0.547958
G1 F1200
G1 X108.875 Y89.698 E.01233
;WIDTH:0.498248
G1 X108.743 Y89.483 E.00934
;WIDTH:0.48512
G1 X108.466 Y89.003 E.01997
;WIDTH:0.533855
G1 X108.208 Y88.508 E.02231
;WIDTH:0.543236
G1 X107.719 Y87.68 E.03922
;WIDTH:0.51357
G1 X107.494 Y87.32 E.01628
;WIDTH:0.520679
G1 X107.228 Y86.87 E.02033
;WIDTH:0.557454
G1 X106.963 Y86.42 E.0219
G1 X107.2 Y86.533 E.011
;WIDTH:0.510637
G1 X107.858 Y87.074 E.03249
;WIDTH:0.51357
G1 X108.12 Y87.436 E.01712
;WIDTH:0.543236
G1 X108.381 Y87.798 E.0182
G1 X108.652 Y88.302 E.02331
;WIDTH:0.533855
G1 X108.874 Y88.847 E.02354
;WIDTH:0.48512
G1 X108.992 Y89.412 E.0208
;WIDTH:0.516539
G1 X108.986 Y89.695 E.01093
;WIDTH:0.547958
G1 X108.981 Y89.918 E.00919
M204 P1000
G1 E-2.24 F4200
;WIPE_START
G1 F7200
G1 X108.875 Y89.698 E-.13573
G1 X108.743 Y89.483 E-.13948
G1 X108.466 Y89.003 E-.30712
G1 X108.208 Y88.508 E-.30904
G1 X108.19 Y88.476 E-.02063
;WIPE_END
G1 E-.048 F4200
G1 Z.4 F720
G1 X106.625 Y93.261 F9000
G1 Z.2 F720
G1 E3.2 F2400
M204 P800
;TYPE:External perimeter
;WIDTH:0.419999
G1 F1200
G1 X103.017 Y93.268 E.11086
G1 X102.854 Y93.174 E.00579
G1 X101.076 Y90.094 E.10926
G1 X101.051 Y90 E.003
G1 X101.076 Y89.906 E.003
G1 X102.854 Y86.826 E.10926
G1 X103.017 Y86.732 E.00579
G1 X106.573 Y86.732 E.10926
G1 X106.729 Y86.815 E.00542
G1 X108.514 Y89.906 E.10968
G1 X108.521 Y90.082 E.00542
G1 X106.736 Y93.174 E.10968
G1 X106.672 Y93.224 E.00249
M204 P1000
G1 X106.554 Y93.654 F9000
G1 E-2.24 F4200
;WIPE_START
G1 F7200
G1 X105.027 Y93.244 E-.912
;WIPE_END
G1 E-.048 F4200
G1 Z.4 F720
G1 X106.77 Y85.813 F9000
G1 Z.2 F720
G1 E3.2 F2400
M204 P800
G1 F1200
G1 X107.395 Y86.145 E.02177
G1 X108.14 Y86.77 E.02987
G1 X108.74 Y87.539 E.02996
G1 X109.043 Y88.109 E.01983
G1 X109.265 Y88.718 E.01994
G1 X109.399 Y89.35 E.01984
G1 X109.433 Y90.325 E.02997
G1 X109.264 Y91.285 E.02996
G1 X109.043 Y91.892 E.01985
G1 X108.739 Y92.464 E.01991
G1 X108.357 Y92.989 E.01995
G1 X107.909 Y93.454 E.01985
G1 X107.117 Y94.029 E.03006
G1 X106.537 Y94.312 E.01983
G1 X105.925 Y94.511 E.01978
G1 X104.95 Y94.648 E.03024
G1 X75.049 Y94.648 E.91878
G1 X74.077 Y94.511 E.03018
G1 X73.466 Y94.312 E.01974
G1 X72.602 Y93.853 E.03006
G1 X72.093 Y93.456 E.01983
G1 X71.643 Y92.989 E.01994
G1 X71.261 Y92.464 E.01995
G1 X70.957 Y91.892 E.01991
G1 X70.735 Y91.282 E.01995
G1 X70.601 Y90.65 E.01984
G1 X70.567 Y89.675 E.02997
G1 X70.736 Y88.715 E.02996
G1 X70.956 Y88.111 E.01974
G1 X71.443 Y87.267 E.02997
G1 X72.096 Y86.542 E.02996
G1 X72.605 Y86.145 E.01983
G1 X73.164 Y85.822 E.01985
G1 X74.078 Y85.489 E.02991
G1 X75.05 Y85.352 E.03013
G1 X104.956 Y85.352 E.91893
G1 X105.6 Y85.42 E.0199
M73 P3 R25
G1 X106.537 Y85.689 E.02997
G1 X106.717 Y85.785 E.00625
M204 P1000
G1 X106.806 Y86.211 F9000
G1 E-2.24 F4200
;WIPE_START
G1 F7200
G1 X107.395 Y86.145 E-.42593
G1 X108.067 Y86.709 E-.48607
;WIPE_END
G1 E-.048 F4200
G1 Z.4 F720
G1 X106.948 Y93.596 F9000
G1 Z.2 F720
G1 E3.2 F2400
M204 P800
;TYPE:Perimeter
;WIDTH:0.578798
G1 F1200
G1 X106.751 Y93.699 E.00971
M204 P1000
G1 E-2.24 F4200
;WIPE_START
G1 F7200
G1 X106.948 Y93.596 E-.12319
;WIPE_END
G1 E-.83681 F4200
G1 Z.4 F720
G1 X101.452 Y86.22 F9000
G1 Z.2 F720
G1 E3.2 F2400
M204 P800
;TYPE:Solid infill
;WIDTH:0.420862
G1 F1200
G1 X101.804 Y86.571 E.01531
G1 X101.608 Y86.91 E.01205
G1 X101.088 Y86.389 E.02268
G1 X100.553 Y86.389 E.01646
G1 X101.413 Y87.249 E.03744
G1 X101.217 Y87.588 E.01205
G1 X100.019 Y86.389 E.05219
G1 X99.484 Y86.389 E.01646
G1 X101.021 Y87.927 E.06695
G1 X100.826 Y88.265 E.01205
G1 X98.95 Y86.389 E.08171
G1 X98.415 Y86.389 E.01646
G1 X100.63 Y88.604 E.09647
G1 X100.435 Y88.943 E.01205
G1 X97.881 Y86.389 E.11123
G1 X97.346 Y86.389 E.01646
G1 X100.239 Y89.282 E.12599
G1 X100.069 Y89.646 E.01238
G1 X96.812 Y86.389 E.14185
G1 X96.277 Y86.389 E.01646
G1 X100.024 Y90.136 E.16319
G1 X100.078 Y90.392 E.00806
G1 X100.176 Y90.609 E.00732
G1 X100.468 Y91.114 E.01798
G1 X95.743 Y86.389 E.20579
G1 X95.208 Y86.389 E.01646
G1 X101.198 Y92.379 E.26087
G1 X101.909 Y93.611 E.04381
G1 X94.674 Y86.389 E.31482
G1 X94.139 Y86.389 E.01646
G1 X101.361 Y93.611 E.31452
G1 X100.826 Y93.611 E.01646
G1 X93.605 Y86.389 E.31452
G1 X93.07 Y86.389 E.01646
G1 X100.292 Y93.611 E.31452
G1 X99.757 Y93.611 E.01646
G1 X92.536 Y86.389 E.31452
G1 X92.001 Y86.389 E.01646
G1 X99.223 Y93.611 E.31452
G1 X98.688 Y93.611 E.01646
G1 X91.467 Y86.389 E.31453
G1 X90.932 Y86.389 E.01646
G1 X98.154 Y93.611 E.31453
G1 X97.619 Y93.611 E.01646
G1 X90.398 Y86.389 E.31453
G1 X89.863 Y86.389 E.01646
G1 X97.085 Y93.611 E.31453
G1 X96.55 Y93.611 E.01646
G1 X89.329 Y86.389 E.31453
G1 X88.794 Y86.389 E.01646
G1 X96.016 Y93.611 E.31453
G1 X95.481 Y93.611 E.01646
G1 X88.26 Y86.389 E.31453
G1 X87.725 Y86.389 E.01646
G1 X94.947 Y93.611 E.31453
G1 X94.412 Y93.611 E.01646
G1 X87.191 Y86.389 E.31453
G1 X86.656 Y86.389 E.01646
G1 X93.878 Y93.611 E.31453
G1 X93.343 Y93.611 E.01646
G1 X86.122 Y86.389 E.31453
G1 X85.587 Y86.389 E.01646
G1 X92.809 Y93.611 E.31453
G1 X92.274 Y93.611 E.01646
G1 X85.053 Y86.389 E.31453
G1 X84.518 Y86.389 E.01646
G1 X91.74 Y93.611 E.31453
