; generated by PrusaSlicer 2.6.0-alpha0 on 2023-03-02 at 16:18:49 UTC

; 
;

; 
;

; 
;

; 

; external perimeters extrusion width = 0.45mm
; perimeters extrusion width = 0.45mm
; infill extrusion width = 0.45mm
; solid infill extrusion width = 0.45mm
; top infill extrusion width = 0.40mm
; first layer extrusion width = 0.42mm

M73 P0 R59
M201 X2500 Y2500 Z400 E5000 ; sets maximum accelerations, mm/sec^2
M203 X180 Y180 Z12 E80 ; sets maximum feedrates, mm / sec
M204 P1250 R1250 T2500 ; sets acceleration (P, T) and retract acceleration (R), mm/sec^2
M205 X8.00 Y8.00 Z2.00 E10.00 ; sets the jerk limits, mm/sec
M205 S0 T0 ; sets the minimum extruding and travel feed rate, mm/sec
M107
;TYPE:Custom
M862.3 P "MINI" ; printer model check
G90 ; use absolute coordinates
M83 ; extruder relative mode
M104 S170 ; set extruder temp for bed leveling
M140 S60 ; set bed temp
M109 R170 ; wait for bed leveling temp
M190 S60 ; wait for bed temp
M204 T1250 ; set travel acceleration
G28 ; home all without mesh bed level
G29 ; mesh bed leveling 
M204 T2500 ; restore travel acceleration
M104 S215 ; set extruder temp
G92 E0
G1 Y-2 X179 F2400
G1 Z3 F720
M109 S215 ; wait for extruder temp

; intro line
G1 X170 F1000
G1 Z0.2 F720
G1 X110 E8 F900
G1 X40 E10 F700
G92 E0

M221 S95 ; set flow
G21 ; set units to millimeters
G90 ; use absolute coordinates
M83 ; use relative distances for extrusion
M900 K0.05 ; Filament gcode LA 1.5
M900 K30 ; Filament gcode LA 1.0
M107
;LAYER_CHANGE
;Z:0.25
;HEIGHT:0.25
;BEFORE_LAYER_CHANGE
G92 E0.0
;0.25


G1 E-3.2 F4200
G1 Z.2 F720
G1 Z.25
;AFTER_LAYER_CHANGE
;0.25
G1 Z.45
G1 X56.525 Y48.696 F9000
G1 Z.25 F720
G1 E3.2 F2400
M204 P800
;TYPE:Skirt/Brim
;WIDTH:0.42
G1 F1200
G1 X57.57 Y47.824 E.0596
G1 X58.5 Y47.634 E.04157
G1 X121.5 Y47.634 E2.75872
G1 X122.804 Y48.025 E.05961
G1 X123.676 Y49.07 E.0596
G1 X123.866 Y50 E.04157
G1 X123.866 Y130 E3.50314
G1 X123.475 Y131.304 E.05961
G1 X122.43 Y132.176 E.0596
G1 X121.5 Y132.366 E.04157
G1 X58.5 Y132.366 E2.75872
G1 X57.196 Y131.975 E.05961
G1 X56.324 Y130.93 E.0596
G1 X56.134 Y130 E.04157
G1 X56.134 Y50 E3.50314
G1 X56.508 Y48.754 E.05697
M204 P1000
; printing object 0 id:0 copy 0
G1 E-2.24 F4200
;WIPE_START
G1 F7200
G1 X57.57 Y47.824 E-.78229
G1 X57.884 Y47.76 E-.17771
;WIPE_END
G1 Z.45 F720
G1 X60.357 Y128.857 F9000
G1 Z.25 F720
G1 E3.2 F2400
M204 P800
;TYPE:Perimeter
G1 F1200
G1 X59.643 Y128.857 E.03127
G1 X59.643 Y51.143 E3.40304
G1 X60.357 Y51.143 E.03127
M73 P1 R59
G1 X60.357 Y128.797 E3.40041
M204 P1000
G1 X60.724 Y129.224 F9000
M204 P800
G1 F1200
G1 X59.276 Y129.224 E.06341
G1 X59.276 Y50.776 E3.43518
G1 X60.724 Y50.776 E.06341
G1 X60.724 Y129.164 E3.43255
M204 P1000
G1 X61.09 Y129.59 F9000
M204 P800
;TYPE:External perimeter
M73 P1 R58
G1 F1200
G1 X58.91 Y129.59 E.09546
G1 X58.91 Y50.41 E3.46723
G1 X61.09 Y50.41 E.09546
G1 X61.09 Y129.53 E3.46461
M204 P1000
G1 X60.742 Y129.393 F9000
G1 X60 Y128.674
M204 P800
;TYPE:Gap fill
;WIDTH:0.401906
G1 F1200
G1 X60 Y51.326 E3.21973
M204 P1000
G1 E-2.24 F4200
;WIPE_START
G1 F7200
G1 X60 Y53.058 E-.96
;WIPE_END
G1 Z.45 F720
G1 X120.357 Y128.857 F9000
G1 Z.25 F720
G1 E3.2 F2400
M204 P800
;TYPE:Perimeter
;WIDTH:0.42
G1 F1200
G1 X119.643 Y128.857 E.03127
G1 X119.643 Y51.143 E3.40304
G1 X120.357 Y51.143 E.03127
G1 X120.357 Y128.797 E3.40041
M204 P1000
G1 X120.724 Y129.224 F9000
M204 P800
G1 F1200
G1 X119.276 Y129.224 E.06341
G1 X119.276 Y50.776 E3.43518
G1 X120.724 Y50.776 E.06341
M73 P2 R58
G1 X120.724 Y129.164 E3.43255
M204 P1000
G1 X121.09 Y129.59 F9000
M204 P800
;TYPE:External perimeter
G1 F1200
G1 X118.91 Y129.59 E.09546
G1 X118.91 Y50.41 E3.46723
G1 X121.09 Y50.41 E.09546
G1 X121.09 Y129.53 E3.46461
M204 P1000
G1 X120.742 Y129.393 F9000
G1 X120 Y128.674
M204 P800
;TYPE:Gap fill
;WIDTH:0.401906
G1 F1200
G1 X120 Y51.326 E3.21973
M204 P1000
; stop printing object 0 id:0 copy 0
M106 S84.15
;LAYER_CHANGE
;Z:0.45
;HEIGHT:0.2
;BEFORE_LAYER_CHANGE
G92 E0.0
;0.45


G1 E-2.24 F4200
;WIPE_START
G1 F7200
G1 X120 Y53.058 E-.96
;WIPE_END
G1 Z.45 F720
;AFTER_LAYER_CHANGE
;0.45
M104 S213 ; set temperature
G1 Z.65
G1 X123.866 Y53.058 F9000
G1 Z.45 F720
G1 E3.2 F2400
;TYPE:Skirt/Brim
;WIDTH:0.42
G1 X123.866 Y130 E2.77433
G1 X123.475 Y131.304 E.04909
G1 X122.43 Y132.176 E.04908
G1 X121.5 Y132.366 E.03423
G1 X58.5 Y132.366 E2.27162
G1 X57.196 Y131.975 E.04909
G1 X56.324 Y130.93 E.04908
G1 X56.134 Y130 E.03423
G1 X56.134 Y50 E2.8846
G1 X56.525 Y48.696 E.04909
G1 X57.57 Y47.824 E.04908
G1 X58.5 Y47.634 E.03423
G1 X121.5 Y47.634 E2.27162
G1 X122.804 Y48.025 E.04909
G1 X123.676 Y49.07 E.04908
G1 X123.866 Y50 E.03423
G1 X123.866 Y52.998 E.1081
; printing object 0 id:0 copy 0
G1 E-2.24 F4200
;WIPE_START
G1 F7200
G1 X123.866 Y54.73 E-.96
;WIPE_END
G1 Z.65 F720
G1 X120.461 Y128.961 F9000
G1 Z.45 F720
G1 E3.2 F2400
M204 P800
;TYPE:Perimeter
;WIDTH:0.45
G1 F3000
G1 X119.539 Y128.961 E.03589
G1 X119.539 Y51.039 E3.0332
G1 X120.461 Y51.039 E.03589
G1 X120.461 Y128.901 E3.03087
M204 P1000
G1 X120.868 Y129.368 F9000
M204 P800
G1 F3000
G1 X119.132 Y129.368 E.06758
G1 X119.132 Y50.632 E3.06489
G1 X120.868 Y50.632 E.06758
G1 X120.868 Y129.308 E3.06255
M204 P1000
G1 X121.275 Y129.775 F9000
M204 P800
;TYPE:External perimeter
G1 F2400
G1 X118.725 Y129.775 E.09926
G1 X118.725 Y50.225 E3.09657
G1 X121.275 Y50.225 E.09926
G1 X121.275 Y129.715 E3.09424
M204 P1000
M73 P2 R57
G1 X120.926 Y129.579 F9000
M73 P3 R57
G1 E-2.24 F4200
;WIPE_START
G1 F7200
G1 X119.543 Y129.756 E-.96
;WIPE_END
G1 Z.65 F720
G1 X119.661 Y128.692 F9000
G1 Z.45 F720
G1 E3.2 F2400
;TYPE:Solid infill
;WIDTH:0.450735
G1 F8400
G1 X120.156 Y128.197 E.0273
G1 X120.156 Y127.621 E.02246
G1 X119.844 Y127.932 E.01718
G1 X119.844 Y127.355 E.0225
G1 X120.156 Y127.044 E.01718
G1 X120.156 Y126.467 E.0225
G1 X119.844 Y126.778 E.01718
G1 X119.844 Y126.202 E.02246
G1 X120.156 Y125.89 E.01721
G1 X120.156 Y125.314 E.02246
G1 X119.844 Y125.625 E.01718
G1 X119.844 Y125.048 E.0225
G1 X120.156 Y124.737 E.01718
G1 X120.156 Y124.16 E.0225
G1 X119.844 Y124.471 E.01718
G1 X119.844 Y123.895 E.02246
G1 X120.156 Y123.584 E.01718
G1 X120.156 Y123.007 E.0225
G1 X119.844 Y123.318 E.01718
G1 X119.844 Y122.741 E.0225
G1 X120.156 Y122.43 E.01718
G1 X120.156 Y121.853 E.0225
G1 X119.844 Y122.164 E.01718
G1 X119.844 Y121.588 E.02246
G1 X120.156 Y121.277 E.01718
G1 X120.156 Y120.7 E.0225
G1 X119.844 Y121.011 E.01718
G1 X119.844 Y120.434 E.0225
G1 X120.156 Y120.123 E.01718
G1 X120.156 Y119.546 E.0225
G1 X119.844 Y119.857 E.01718
G1 X119.844 Y119.281 E.02246
G1 X120.156 Y118.97 E.01718
G1 X120.156 Y118.393 E.0225
G1 X119.844 Y118.704 E.01718
G1 X119.844 Y118.127 E.0225
G1 X120.156 Y117.816 E.01718
G1 X120.156 Y117.239 E.0225
G1 X119.844 Y117.551 E.01721
G1 X119.844 Y116.974 E.0225
G1 X120.156 Y116.663 E.01718
G1 X120.156 Y116.086 E.0225
G1 X119.844 Y116.397 E.01718
G1 X119.844 Y115.82 E.0225
G1 X120.156 Y115.509 E.01718
G1 X120.156 Y114.932 E.0225
G1 X119.844 Y115.244 E.01721
G1 X119.844 Y114.667 E.0225
G1 X120.156 Y114.356 E.01718
G1 X120.156 Y113.779 E.0225
G1 X119.844 Y114.09 E.01718
G1 X119.844 Y113.513 E.0225
G1 X120.156 Y113.202 E.01718
G1 X120.156 Y112.626 E.02246
G1 X119.844 Y112.937 E.01718
G1 X119.844 Y112.36 E.0225
G1 X120.156 Y112.049 E.01718
G1 X120.156 Y111.472 E.0225
G1 X119.844 Y111.783 E.01718
G1 X119.844 Y111.206 E.0225
G1 X120.156 Y110.895 E.01718
G1 X120.156 Y110.319 E.02246
G1 X119.844 Y110.63 E.01718
G1 X119.844 Y110.053 E.0225
G1 X120.156 Y109.742 E.01718
G1 X120.156 Y109.165 E.0225
G1 X119.844 Y109.476 E.01718
G1 X119.844 Y108.899 E.0225
G1 X120.156 Y108.588 E.01718
G1 X120.156 Y108.012 E.02246
G1 X119.844 Y108.323 E.01718
G1 X119.844 Y107.746 E.0225
G1 X120.156 Y107.435 E.01718
G1 X120.156 Y106.858 E.0225
G1 X119.844 Y107.169 E.01718
G1 X119.844 Y106.593 E.02246
G1 X120.156 Y106.281 E.01721
G1 X120.156 Y105.705 E.02246
G1 X119.844 Y106.016 E.01718
G1 X119.844 Y105.439 E.0225
G1 X120.156 Y105.128 E.01718
G1 X120.156 Y104.551 E.0225
G1 X119.844 Y104.862 E.01718
G1 X119.844 Y104.286 E.02246
G1 X120.156 Y103.974 E.01721
G1 X120.156 Y103.398 E.02246
G1 X119.844 Y103.709 E.01718
G1 X119.844 Y103.132 E.0225
G1 X120.156 Y102.821 E.01718
G1 X120.156 Y102.244 E.0225
G1 X119.844 Y102.555 E.01718
G1 X119.844 Y101.979 E.02246
G1 X120.156 Y101.668 E.01718
G1 X120.156 Y101.091 E.0225
G1 X119.844 Y101.402 E.01718
G1 X119.844 Y100.825 E.0225
G1 X120.156 Y100.514 E.01718
G1 X120.156 Y99.937 E.0225
G1 X119.844 Y100.248 E.01718
G1 X119.844 Y99.672 E.02246
G1 X120.156 Y99.361 E.01718
G1 X120.156 Y98.784 E.0225
G1 X119.844 Y99.095 E.01718
G1 X119.844 Y98.518 E.0225
G1 X120.156 Y98.207 E.01718
G1 X120.156 Y97.63 E.0225
G1 X119.844 Y97.941 E.01718
G1 X119.844 Y97.365 E.02246
G1 X120.156 Y97.054 E.01718
G1 X120.156 Y96.477 E.0225
G1 X119.844 Y96.788 E.01718
G1 X119.844 Y96.211 E.0225
G1 X120.156 Y95.9 E.01718
G1 X120.156 Y95.323 E.0225
G1 X119.844 Y95.635 E.01721
G1 X119.844 Y95.058 E.0225
G1 X120.156 Y94.747 E.01718
G1 X120.156 Y94.17 E.0225
G1 X119.844 Y94.481 E.01718
G1 X119.844 Y93.904 E.0225
G1 X120.156 Y93.593 E.01718
G1 X120.156 Y93.016 E.0225
G1 X119.844 Y93.328 E.01721
G1 X119.844 Y92.751 E.0225
G1 X120.156 Y92.44 E.01718
G1 X120.156 Y91.863 E.0225
G1 X119.844 Y92.174 E.01718
G1 X119.844 Y91.597 E.0225
G1 X120.156 Y91.286 E.01718
G1 X120.156 Y90.71 E.02246
G1 X119.844 Y91.021 E.01718
G1 X119.844 Y90.444 E.0225
G1 X120.156 Y90.133 E.01718
G1 X120.156 Y89.556 E.0225
G1 X119.844 Y89.867 E.01718
G1 X119.844 Y89.29 E.0225
G1 X120.156 Y88.979 E.01718
G1 X120.156 Y88.403 E.02246
G1 X119.844 Y88.714 E.01718
G1 X119.844 Y88.137 E.0225
G1 X120.156 Y87.826 E.01718
G1 X120.156 Y87.249 E.0225
G1 X119.844 Y87.56 E.01718
G1 X119.844 Y86.983 E.0225
G1 X120.156 Y86.672 E.01718
G1 X120.156 Y86.096 E.02246
G1 X119.844 Y86.407 E.01718
G1 X119.844 Y85.83 E.0225
G1 X120.156 Y85.519 E.01718
G1 X120.156 Y84.942 E.0225
G1 X119.844 Y85.253 E.01718
G1 X119.844 Y84.676 E.0225
G1 X120.156 Y84.365 E.01718
G1 X120.156 Y83.789 E.02246
G1 X119.844 Y84.1 E.01718
G1 X119.844 Y83.523 E.0225
G1 X120.156 Y83.212 E.01718
G1 X120.156 Y82.635 E.0225
G1 X119.844 Y82.946 E.01718
G1 X119.844 Y82.37 E.02246
G1 X120.156 Y82.058 E.01721
G1 X120.156 Y81.482 E.02246
G1 X119.844 Y81.793 E.01718
G1 X119.844 Y81.216 E.0225
G1 X120.156 Y80.905 E.01718
G1 X120.156 Y80.328 E.0225
G1 X119.844 Y80.639 E.01718
G1 X119.844 Y80.063 E.02246
G1 X120.156 Y79.752 E.01718
G1 X120.156 Y79.175 E.0225
G1 X119.844 Y79.486 E.01718
G1 X119.844 Y78.909 E.0225
G1 X120.156 Y78.598 E.01718
G1 X120.156 Y78.021 E.0225
G1 X119.844 Y78.332 E.01718
G1 X119.844 Y77.756 E.02246
G1 X120.156 Y77.445 E.01718
G1 X120.156 Y76.868 E.0225
G1 X119.844 Y77.179 E.01718
G1 X119.844 Y76.602 E.0225
G1 X120.156 Y76.291 E.01718
G1 X120.156 Y75.714 E.0225
G1 X119.844 Y76.025 E.01718
G1 X119.844 Y75.449 E.02246
G1 X120.156 Y75.138 E.01718
G1 X120.156 Y74.561 E.0225
G1 X119.844 Y74.872 E.01718
G1 X119.844 Y74.295 E.0225
G1 X120.156 Y73.984 E.01718
G1 X120.156 Y73.407 E.0225
G1 X119.844 Y73.718 E.01718
G1 X119.844 Y73.142 E.02246
G1 X120.156 Y72.831 E.01718
G1 X120.156 Y72.254 E.0225
G1 X119.844 Y72.565 E.01718
G1 X119.844 Y71.988 E.0225
G1 X120.156 Y71.677 E.01718
G1 X120.156 Y71.1 E.0225
G1 X119.844 Y71.412 E.01721
G1 X119.844 Y70.835 E.0225
G1 X120.156 Y70.524 E.01718
G1 X120.156 Y69.947 E.0225
G1 X119.844 Y70.258 E.01718
G1 X119.844 Y69.681 E.0225
G1 X120.156 Y69.37 E.01718
G1 X120.156 Y68.793 E.0225
G1 X119.844 Y69.105 E.01721
G1 X119.844 Y68.528 E.0225
G1 X120.156 Y68.217 E.01718
G1 X120.156 Y67.64 E.0225
G1 X119.844 Y67.951 E.01718
G1 X119.844 Y67.374 E.0225
G1 X120.156 Y67.063 E.01718
G1 X120.156 Y66.487 E.02246
G1 X119.844 Y66.798 E.01718
G1 X119.844 Y66.221 E.0225
G1 X120.156 Y65.91 E.01718
G1 X120.156 Y65.333 E.0225
G1 X119.844 Y65.644 E.01718
G1 X119.844 Y65.067 E.0225
G1 X120.156 Y64.756 E.01718
G1 X120.156 Y64.18 E.02246
G1 X119.844 Y64.491 E.01718
G1 X119.844 Y63.914 E.0225
G1 X120.156 Y63.603 E.01718
G1 X120.156 Y63.026 E.0225
G1 X119.844 Y63.337 E.01718
G1 X119.844 Y62.76 E.0225
G1 X120.156 Y62.449 E.01718
G1 X120.156 Y61.873 E.02246
G1 X119.844 Y62.184 E.01718
G1 X119.844 Y61.607 E.0225
G1 X120.156 Y61.296 E.01718
G1 X120.156 Y60.719 E.0225
G1 X119.844 Y61.03 E.01718
G1 X119.844 Y60.454 E.02246
G1 X120.156 Y60.142 E.01721
G1 X120.156 Y59.566 E.02246
G1 X119.844 Y59.877 E.01718
G1 X119.844 Y59.3 E.0225
G1 X120.156 Y58.989 E.01718
G1 X120.156 Y58.412 E.0225
G1 X119.844 Y58.723 E.01718
G1 X119.844 Y58.147 E.02246
G1 X120.156 Y57.835 E.01721
G1 X120.156 Y57.259 E.02246
G1 X119.844 Y57.57 E.01718
G1 X119.844 Y56.993 E.0225
G1 X120.156 Y56.682 E.01718
G1 X120.156 Y56.105 E.0225
G1 X119.844 Y56.416 E.01718
G1 X119.844 Y55.84 E.02246
G1 X120.156 Y55.529 E.01718
G1 X120.156 Y54.952 E.0225
G1 X119.844 Y55.263 E.01718
G1 X119.844 Y54.686 E.0225
G1 X120.156 Y54.375 E.01718
G1 X120.156 Y53.798 E.0225
G1 X119.844 Y54.109 E.01718
G1 X119.844 Y53.533 E.02246
G1 X120.156 Y53.222 E.01718
G1 X120.156 Y52.645 E.0225
G1 X119.844 Y52.956 E.01718
G1 X119.844 Y52.379 E.0225
G1 X120.156 Y52.068 E.01718
G1 X120.156 Y51.491 E.0225
G1 X119.661 Y51.986 E.0273
G1 E-2.24 F4200
;WIPE_START
G1 F7200
G1 X120.156 Y51.491 E-.38794
G1 X120.156 Y52.068 E-.31975
G1 X119.844 Y52.379 E-.24413
G1 X119.844 Y52.394 E-.00818
;WIPE_END
G1 Z.65 F720
G1 X60.461 Y128.961 F9000
G1 Z.45 F720
G1 E3.2 F2400
M204 P800
;TYPE:Perimeter
;WIDTH:0.45
G1 F3000
G1 X59.539 Y128.961 E.03589
G1 X59.539 Y51.039 E3.0332
G1 X60.461 Y51.039 E.03589
G1 X60.461 Y128.901 E3.03087
M204 P1000
G1 X60.868 Y129.368 F9000
M204 P800
G1 F3000
G1 X59.132 Y129.368 E.06758
G1 X59.132 Y50.632 E3.06489
G1 X60.868 Y50.632 E.06758
G1 X60.868 Y129.308 E3.06255
M204 P1000
G1 X61.275 Y129.775 F9000
M204 P800
;TYPE:External perimeter
G1 F2400
G1 X58.725 Y129.775 E.09926
G1 X58.725 Y50.225 E3.09657
G1 X61.275 Y50.225 E.09926
G1 X61.275 Y129.715 E3.09424
M204 P1000
G1 X60.926 Y129.579 F9000
G1 E-2.24 F4200
;WIPE_START
G1 F7200
G1 X59.543 Y129.756 E-.96
;WIPE_END
G1 Z.65 F720
G1 X59.661 Y128.692 F9000
G1 Z.45 F720
G1 E3.2 F2400
;TYPE:Solid infill
;WIDTH:0.450735
G1 F8400
G1 X60.156 Y128.197 E.0273
G1 X60.156 Y127.621 E.02246
G1 X59.844 Y127.932 E.01718
G1 X59.844 Y127.355 E.0225
G1 X60.156 Y127.044 E.01718
G1 X60.156 Y126.467 E.0225
G1 X59.844 Y126.778 E.01718
G1 X59.844 Y126.202 E.02246
G1 X60.156 Y125.89 E.01721
G1 X60.156 Y125.314 E.02246
G1 X59.844 Y125.625 E.01718
G1 X59.844 Y125.048 E.0225
G1 X60.156 Y124.737 E.01718
G1 X60.156 Y124.16 E.0225
G1 X59.844 Y124.471 E.01718
G1 X59.844 Y123.895 E.02246
G1 X60.156 Y123.584 E.01718
G1 X60.156 Y123.007 E.0225
G1 X59.844 Y123.318 E.01718
G1 X59.844 Y122.741 E.0225
G1 X60.156 Y122.43 E.01718
G1 X60.156 Y121.853 E.0225
G1 X59.844 Y122.164 E.01718
G1 X59.844 Y121.588 E.02246
G1 X60.156 Y121.277 E.01718
G1 X60.156 Y120.7 E.0225
G1 X59.844 Y121.011 E.01718
G1 X59.844 Y120.434 E.0225
G1 X60.156 Y120.123 E.01718
G1 X60.156 Y119.546 E.0225
G1 X59.844 Y119.857 E.01718
G1 X59.844 Y119.281 E.02246
G1 X60.156 Y118.97 E.01718
G1 X60.156 Y118.393 E.0225
G1 X59.844 Y118.704 E.01718
G1 X59.844 Y118.127 E.0225
G1 X60.156 Y117.816 E.01718
G1 X60.156 Y117.239 E.0225
G1 X59.844 Y117.551 E.01721
G1 X59.844 Y116.974 E.0225
G1 X60.156 Y116.663 E.01718
G1 X60.156 Y116.086 E.0225
G1 X59.844 Y116.397 E.01718
G1 X59.844 Y115.82 E.0225
G1 X60.156 Y115.509 E.01718
G1 X60.156 Y114.932 E.0225
G1 X59.844 Y115.244 E.01721
G1 X59.844 Y114.667 E.0225
G1 X60.156 Y114.356 E.01718
G1 X60.156 Y113.779 E.0225
G1 X59.844 Y114.09 E.01718
G1 X59.844 Y113.513 E.0225
G1 X60.156 Y113.202 E.01718
G1 X60.156 Y112.626 E.02246
G1 X59.844 Y112.937 E.01718
G1 X59.844 Y112.36 E.0225
G1 X60.156 Y112.049 E.01718
G1 X60.156 Y111.472 E.0225
G1 X59.844 Y111.783 E.01718
G1 X59.844 Y111.206 E.0225
G1 X60.156 Y110.895 E.01718
G1 X60.156 Y110.319 E.02246
G1 X59.844 Y110.63 E.01718
G1 X59.844 Y110.053 E.0225
G1 X60.156 Y109.742 E.01718
G1 X60.156 Y109.165 E.0225
G1 X59.844 Y109.476 E.01718
G1 X59.844 Y108.899 E.0225
G1 X60.156 Y108.588 E.01718
G1 X60.156 Y108.012 E.02246
G1 X59.844 Y108.323 E.01718
G1 X59.844 Y107.746 E.0225
G1 X60.156 Y107.435 E.01718
G1 X60.156 Y106.858 E.0225
