; generated by PrusaSlicer 2.6.0-alpha0 on 2023-02-28 at 19:38:39 UTC

; 
;

; 
;

; 
;

; 

; external perimeters extrusion width = 0.45mm
; perimeters extrusion width = 0.45mm
; infill extrusion width = 0.45mm
; solid infill extrusion width = 0.45mm
; top infill extrusion width = 0.40mm
; support material extrusion width = 0.35mm
; first layer extrusion width = 0.42mm

M73 P0 R85
M201 X2500 Y2500 Z400 E5000 ; sets maximum accelerations, mm/sec^2
M203 X180 Y180 Z12 E80 ; sets maximum feedrates, mm / sec
M204 P1250 R1250 T2500 ; sets acceleration (P, T) and retract acceleration (R), mm/sec^2
M205 X8.00 Y8.00 Z2.00 E10.00 ; sets the jerk limits, mm/sec
M205 S0 T0 ; sets the minimum extruding and travel feed rate, mm/sec
M107
;TYPE:Custom
M862.3 P "MINI" ; printer model check
G90 ; use absolute coordinates
M83 ; extruder relative mode
M104 S170 ; set extruder temp for bed leveling
M140 S60 ; set bed temp
M109 R170 ; wait for bed leveling temp
M190 S60 ; wait for bed temp
M204 T1250 ; set travel acceleration
G28 ; home all without mesh bed level
G29 ; mesh bed leveling 
M204 T2500 ; restore travel acceleration
M104 S215 ; set extruder temp
G92 E0
G1 Y-2 X179 F2400
G1 Z3 F720
M109 S215 ; wait for extruder temp

; intro line
G1 X170 F1000
G1 Z0.2 F720
G1 X110 E8 F900
G1 X40 E10 F700
G92 E0

M221 S95 ; set flow
G21 ; set units to millimeters
G90 ; use absolute coordinates
M83 ; use relative distances for extrusion
M900 K0.05 ; Filament gcode LA 1.5
M900 K30 ; Filament gcode LA 1.0
M107
;LAYER_CHANGE
;Z:0.25
;HEIGHT:0.25
;BEFORE_LAYER_CHANGE
G92 E0.0
;0.25


G1 E-3.2 F4200
M73 P0 R84
G1 Z.2 F720
G1 Z.25
;AFTER_LAYER_CHANGE
;0.25
G1 Z.45
G1 X66.927 Y60.005 F9000
G1 Z.25 F720
G1 E3.2 F2400
M204 P800
;TYPE:Skirt/Brim
;WIDTH:0.42
G1 F1200
G1 X71.541 Y55.391 E.28573
G1 X73.214 Y54.698 E.0793
G1 X86.022 Y54.698 E.56085
G1 X86.528 Y54.753 E.02229
G1 X133.499 Y65.032 E2.1055
G1 X134.689 Y65.693 E.05961
G1 X135.244 Y66.613 E.04705
G1 X135.518 Y67.624 E.04587
G1 X135.703 Y69.391 E.0778
G1 X135.518 Y71.653 E.09938
G1 X134.866 Y73.827 E.09939
G1 X133.776 Y75.818 E.09939
G1 X132.137 Y77.699 E.10925
G1 X87.34 Y118.761 E2.66102
G1 X86.162 Y119.571 E.0626
G1 X85.081 Y119.996 E.05086
G1 X83.934 Y120.187 E.05092
G1 X49.516 Y120.187 E1.50714
G1 X48.369 Y119.996 E.05092
G1 X47.899 Y119.843 E.02164
G1 X46.859 Y119.324 E.0509
G1 X45.95 Y118.6 E.05089
G1 X45.503 Y118.103 E.02927
G1 X44.877 Y117.123 E.05092
G1 X44.469 Y116.035 E.05088
G1 X44.367 Y115.551 E.02166
G1 X44.297 Y114.391 E.05089
G1 X44.468 Y113.249 E.05056
G1 X44.676 Y112.605 E.02963
G1 X66.418 Y60.763 E2.46168
G1 X66.893 Y60.055 E.03733
M204 P1000
; printing object 0 id:0 copy 0
G1 X86.022 Y59.372 F9000
M204 P800
;TYPE:Support material
G1 F1200
G1 X88.329 Y59.372 E.10102
G1 X88.329 Y61.679 E.10102
G1 X90.636 Y61.679 E.10102
G1 X90.636 Y66.293 E.20204
G1 X92.943 Y66.293 E.10102
G1 X92.943 Y69.658 E.14735
G1 X88.113 Y69.658 E.2115
G1 X87.839 Y69.905 E.01615
G1 X87.692 Y71.305 E.06164
G1 X87.174 Y72.899 E.07339
G1 X86.336 Y74.351 E.07341
G1 X85.215 Y75.596 E.07336
G1 X83.859 Y76.581 E.07339
G1 X82.327 Y77.263 E.07343
G1 X80.688 Y77.612 E.07338
G1 X79.697 Y77.612 E.0434
G1 X79.415 Y77.898 E.01759
G1 X79.463 Y81.408 E.15371
G1 X70.907 Y81.408 E.37466
G1 X70.907 Y79.101 E.10102
G1 X68.6 Y79.101 E.10102
G1 X68.6 Y61.679 E.7629
G1 X70.907 Y61.679 E.10102
G1 X70.907 Y59.372 E.10102
G1 X73.214 Y59.372 E.10102
G1 X73.214 Y57.065 E.10102
G1 X86.022 Y57.065 E.56085
G1 X86.022 Y59.317 E.09861
M204 P1000
G1 X92.442 Y69.493 F9000
M204 P800
G1 F1200
G1 X92.442 Y66.623 E.12568
G1 X92.035 Y66.623 E.01782
G1 X92.035 Y69.328 E.11845
G1 X91.628 Y69.328 E.01782
G1 X91.628 Y66.623 E.11845
G1 X91.221 Y66.623 E.01782
G1 X91.221 Y69.328 E.11845
G1 X90.814 Y69.328 E.01782
G1 X90.814 Y66.623 E.11845
G1 X90.407 Y66.623 E.01782
G1 X90.407 Y69.328 E.11845
G1 X90 Y69.328 E.01782
G1 X90 Y62.008 E.32054
G1 X89.593 Y62.008 E.01782
G1 X89.593 Y69.328 E.32054
G1 X89.186 Y69.328 E.01782
G1 X89.186 Y62.008 E.32054
G1 X88.779 Y62.008 E.01782
G1 X88.779 Y69.328 E.32054
G1 X88.372 Y69.328 E.01782
G1 X88.372 Y62.008 E.32054
G1 X88 Y62.008 E.01629
G1 X88 Y59.701 E.10102
G1 X87.965 Y59.701 E.00153
G1 X87.965 Y69.348 E.42243
G1 X87.558 Y69.715 E.024
G1 X87.558 Y59.701 E.43851
G1 X87.151 Y59.701 E.01782
G1 X87.151 Y71.905 E.5344
G1 X86.871 Y72.764 E.03956
G1 X86.744 Y72.986 E.0112
G1 X86.744 Y59.701 E.58174
G1 X86.337 Y59.701 E.01782
G1 X86.337 Y73.691 E.61261
G1 X86.068 Y74.156 E.02352
G1 X85.929 Y74.31 E.00908
G1 X85.929 Y59.701 E.63972
G1 X85.692 Y59.701 E.01038
G1 X85.692 Y57.394 E.10102
G1 X85.522 Y57.394 E.00744
G1 X85.522 Y74.762 E.76053
G1 X85.115 Y75.214 E.02663
G1 X85.115 Y57.394 E.78032
G1 X84.708 Y57.394 E.01782
G1 X84.708 Y75.557 E.79534
G1 X84.301 Y75.852 E.02201
G1 X84.301 Y57.394 E.80826
G1 X83.894 Y57.394 E.01782
G1 X83.894 Y76.148 E.82122
G1 X83.693 Y76.294 E.01088
G1 X83.487 Y76.386 E.00988
G1 X83.487 Y57.394 E.83165
G1 X83.08 Y57.394 E.01782
G1 X83.08 Y76.567 E.83957
G1 X82.673 Y76.748 E.01951
G1 X82.673 Y57.394 E.8475
G1 X82.266 Y57.394 E.01782
G1 X82.266 Y76.93 E.85547
G1 X81.859 Y77.026 E.01831
G1 X81.859 Y57.394 E.85967
G1 X81.452 Y57.394 E.01782
G1 X81.452 Y77.112 E.86344
G1 X81.045 Y77.199 E.01822
M73 P1 R84
G1 X81.045 Y57.394 E.86725
G1 X80.638 Y57.394 E.01782
G1 X80.638 Y77.282 E.87088
G1 X80.231 Y77.282 E.01782
G1 X80.231 Y57.394 E.87088
G1 X79.824 Y57.394 E.01782
G1 X79.824 Y77.282 E.87088
G1 X79.559 Y77.282 E.0116
G1 X79.417 Y77.426 E.00886
G1 X79.417 Y57.394 E.87719
G1 X79.01 Y57.394 E.01782
G1 X79.01 Y81.078 E1.0371
G1 X78.602 Y81.078 E.01787
G1 X78.602 Y57.394 E1.0371
G1 X78.195 Y57.394 E.01782
G1 X78.195 Y81.078 E1.0371
G1 X77.788 Y81.078 E.01782
G1 X77.788 Y57.394 E1.0371
G1 X77.381 Y57.394 E.01782
G1 X77.381 Y81.078 E1.0371
G1 X76.974 Y81.078 E.01782
G1 X76.974 Y57.394 E1.0371
G1 X76.567 Y57.394 E.01782
G1 X76.567 Y81.078 E1.0371
G1 X76.16 Y81.078 E.01782
G1 X76.16 Y57.394 E1.0371
G1 X75.753 Y57.394 E.01782
G1 X75.753 Y81.078 E1.0371
G1 X75.346 Y81.078 E.01782
G1 X75.346 Y57.394 E1.0371
G1 X74.939 Y57.394 E.01782
G1 X74.939 Y81.078 E1.0371
G1 X74.532 Y81.078 E.01782
G1 X74.532 Y57.394 E1.0371
G1 X74.125 Y57.394 E.01782
G1 X74.125 Y81.078 E1.0371
M73 P1 R83
G1 X73.718 Y81.078 E.01782
G1 X73.718 Y57.394 E1.0371
G1 X73.544 Y57.394 E.00762
G1 X73.544 Y59.701 E.10102
G1 X73.311 Y59.701 E.0102
G1 X73.311 Y81.078 E.93608
G1 X72.904 Y81.078 E.01782
G1 X72.904 Y59.701 E.93608
G1 X72.497 Y59.701 E.01782
G1 X72.497 Y81.078 E.93608
G1 X72.09 Y81.078 E.01782
G1 X72.09 Y59.701 E.93608
G1 X71.683 Y59.701 E.01782
G1 X71.683 Y81.078 E.93608
G1 X71.275 Y81.078 E.01787
G1 X71.275 Y59.701 E.93608
G1 X71.237 Y59.701 E.00166
G1 X71.237 Y62.008 E.10102
G1 X70.868 Y62.008 E.01616
G1 X70.868 Y78.771 E.73404
G1 X70.461 Y78.771 E.01782
G1 X70.461 Y62.008 E.73404
G1 X70.054 Y62.008 E.01782
G1 X70.054 Y78.771 E.73404
G1 X69.647 Y78.771 E.01782
G1 X69.647 Y62.008 E.73404
G1 X69.24 Y62.008 E.01782
G1 X69.24 Y78.936 E.74126
M204 P1000
G1 E-2.24 F4200
;WIPE_START
G1 F7200
G1 X69.24 Y77.204 E-.96
;WIPE_END
G1 Z.45 F720
G1 X92.798 Y76.013 F9000
G1 Z.25 F720
G1 E3.2 F2400
M204 P800
;TYPE:Perimeter
G1 F1200
G1 X108.505 Y76.013 E.6878
G1 X109.394 Y76.202 E.0398
G1 X110.225 Y76.572 E.03983
G1 X110.96 Y77.106 E.03978
G1 X111.568 Y77.782 E.03981
G1 X112.023 Y78.569 E.03981
G1 X112.304 Y79.434 E.03983
G1 X112.399 Y80.338 E.0398
G1 X112.304 Y81.242 E.0398
G1 X112.023 Y82.107 E.03983
G1 X111.568 Y82.894 E.03981
G1 X111.02 Y83.503 E.03587
G1 X93.436 Y101.088 E1.08896
G1 X92.725 Y101.605 E.03849
G1 X91.894 Y101.974 E.03982
G1 X91.005 Y102.163 E.0398
G1 X90.095 Y102.163 E.03985
G1 X89.206 Y101.974 E.0398
G1 X88.376 Y101.605 E.03978
G1 X87.64 Y101.07 E.03984
G1 X87.032 Y100.394 E.03981
G1 X86.577 Y99.607 E.03981
G1 X86.296 Y98.742 E.03983
G1 X86.207 Y97.898 E.03716
G1 X86.207 Y82.046 E.69415
G1 X89.118 Y79.932 E.15754
G1 X91.056 Y77.78 E.12681
G1 X92.076 Y76.013 E.08934
G1 X92.738 Y76.013 E.02899
M204 P1000
G1 X92.648 Y76.379 F9000
M204 P800
G1 F1200
G1 X108.466 Y76.379 E.69266
G1 X109.28 Y76.552 E.03644
G1 X110.04 Y76.891 E.03644
G1 X110.714 Y77.38 E.03646
G1 X111.27 Y77.998 E.0364
G1 X111.686 Y78.719 E.03645
G1 X111.944 Y79.511 E.03647
G1 X112.031 Y80.338 E.03641
G1 X111.944 Y81.166 E.03646
G1 X111.686 Y81.957 E.03643
G1 X111.27 Y82.678 E.03645
G1 X110.755 Y83.251 E.03374
G1 X93.197 Y100.808 E1.08729
G1 X92.54 Y101.286 E.03558
G1 X91.78 Y101.624 E.03642
G1 X90.966 Y101.797 E.03644
G1 X90.134 Y101.797 E.03643
G1 X89.32 Y101.624 E.03644
G1 X88.56 Y101.286 E.03642
G1 X87.886 Y100.796 E.03649
G1 X87.33 Y100.178 E.0364
G1 X86.914 Y99.457 E.03645
G1 X86.656 Y98.666 E.03643
G1 X86.574 Y97.879 E.03465
G1 X86.574 Y82.233 E.68513
G1 X89.365 Y80.205 E.15107
G1 X91.354 Y77.996 E.13016
G1 X92.287 Y76.379 E.08175
G1 X92.588 Y76.379 E.01318
M204 P1000
G1 X92.499 Y76.746 F9000
M204 P800
;TYPE:External perimeter
G1 F1200
G1 X108.428 Y76.746 E.69752
G1 X109.166 Y76.903 E.03304
G1 X109.856 Y77.21 E.03307
G1 X110.467 Y77.654 E.03307
G1 X110.972 Y78.215 E.03305
G1 X111.35 Y78.869 E.03308
G1 X111.583 Y79.587 E.03305
G1 X111.662 Y80.338 E.03307
G1 X111.583 Y81.089 E.03307
G1 X111.35 Y81.807 E.03305
G1 X110.972 Y82.461 E.03308
G1 X110.489 Y82.999 E.03166
G1 X92.958 Y100.529 E1.08562
G1 X92.356 Y100.967 E.0326
G1 X91.666 Y101.274 E.03307
G1 X90.928 Y101.431 E.03304
G1 X90.172 Y101.431 E.0331
G1 X89.434 Y101.274 E.03304
G1 X88.744 Y100.967 E.03307
G1 X88.133 Y100.523 E.03307
G1 X87.628 Y99.961 E.03309
G1 X87.25 Y99.307 E.03308
G1 X87.017 Y98.589 E.03305
G1 X86.94 Y97.86 E.0321
G1 X86.94 Y82.42 E.67611
G1 X89.611 Y80.479 E.14458
G1 X91.652 Y78.213 E.13354
G1 X92.469 Y76.798 E.07155
M204 P1000
G1 X92.586 Y76.355 F9000
G1 E-2.24 F4200
;WIPE_START
G1 F7200
G1 X94.201 Y76.792 E-.96
;WIPE_END
G1 Z.45 F720
G1 X81.309 Y97.598 F9000
G1 Z.25 F720
G1 E3.2 F2400
M204 P800
;TYPE:Perimeter
G1 F1200
G1 X81.055 Y79.193 E.80602
G1 X82.832 Y78.815 E.07955
G1 X84.674 Y77.994 E.08831
G1 X86.306 Y76.809 E.08832
G1 X87.656 Y75.31 E.08834
G1 X88.665 Y73.563 E.08834
G1 X89.288 Y71.644 E.08835
G1 X89.326 Y71.281 E.01598
G1 X115.673 Y71.281 E1.15372
G1 X119.758 Y75.341 E.2522
G1 X121.026 Y76.262 E.06863
M73 P2 R83
G1 X122.486 Y76.913 E.07
G1 X124.051 Y77.245 E.07006
G1 X125.65 Y77.245 E.07002
G1 X127.214 Y76.913 E.07001
G1 X128.357 Y76.404 E.05479
G1 X85.017 Y116.13 E2.57446
G1 X84.626 Y116.414 E.02116
G1 X84.234 Y116.589 E.0188
G1 X83.814 Y116.678 E.0188
G1 X51.692 Y116.678 E1.4066
G1 X52.074 Y116.254 E.02499
G1 X52.361 Y115.756 E.02517
G1 X52.539 Y115.21 E.02515
G1 X52.599 Y114.638 E.02518
G1 X52.539 Y114.067 E.02514
G1 X52.361 Y113.52 E.02519
G1 X52.074 Y113.022 E.02517
G1 X51.689 Y112.595 E.02518
G1 X51.225 Y112.258 E.02511
G1 X50.699 Y112.024 E.02521
G1 X50.554 Y111.993 E.00649
G1 X78.738 Y97.9 E1.37985
G1 X79.216 Y97.688 E.0229
G1 X79.636 Y97.598 E.01881
G1 X81.249 Y97.598 E.07063
M204 P1000
G1 E-2.24 F4200
;WIPE_START
G1 F7200
G1 X81.231 Y95.866 E-.96
;WIPE_END
G1 Z.45 F720
G1 X52.008 Y113.642 F9000
G1 Z.25 F720
G1 E3.2 F2400
M204 P800
G1 F1200
G1 X52.179 Y114.143 E.02318
G1 X52.231 Y114.638 E.02179
G1 X52.179 Y115.133 E.02179
G1 X52.025 Y115.606 E.02178
G1 X51.776 Y116.038 E.02183
G1 X51.443 Y116.407 E.02177
G1 X51.04 Y116.7 E.02182
G1 X50.586 Y116.902 E.02176
G1 X50.099 Y117.006 E.02181
G1 X49.601 Y117.006 E.02181
G1 X49.114 Y116.902 E.02181
G1 X48.66 Y116.7 E.02176
G1 X48.257 Y116.407 E.02182
G1 X47.924 Y116.038 E.02177
G1 X47.675 Y115.607 E.0218
G1 X47.521 Y115.133 E.02182
G1 X47.469 Y114.638 E.02179
G1 X47.521 Y114.143 E.02179
G1 X47.675 Y113.67 E.02178
G1 X47.924 Y113.239 E.0218
G1 X48.257 Y112.869 E.0218
G1 X48.66 Y112.577 E.02179
G1 X49.114 Y112.374 E.02178
G1 X49.601 Y112.271 E.0218
G1 X50.099 Y112.271 E.02181
G1 X50.586 Y112.374 E.0218
G1 X51.04 Y112.577 E.02178
G1 X51.443 Y112.869 E.02179
G1 X51.776 Y113.239 E.0218
G1 X51.978 Y113.59 E.01773
M204 P1000
G1 X51.688 Y113.82 F9000
M204 P800
;TYPE:External perimeter
G1 F1200
G1 X51.818 Y114.22 E.01842
G1 X51.862 Y114.638 E.01841
G1 X51.818 Y115.057 E.01845
G1 X51.688 Y115.457 E.01842
G1 X51.478 Y115.821 E.0184
G1 X51.196 Y116.134 E.01845
G1 X50.856 Y116.381 E.0184
G1 X50.472 Y116.552 E.01841
G1 X50.06 Y116.639 E.01844
G1 X49.64 Y116.639 E.01839
G1 X49.228 Y116.552 E.01844
G1 X48.844 Y116.381 E.01841
G1 X48.504 Y116.134 E.0184
G1 X48.222 Y115.821 E.01845
G1 X48.012 Y115.457 E.0184
G1 X47.882 Y115.057 E.01842
G1 X47.838 Y114.638 E.01845
G1 X47.882 Y114.22 E.01841
G1 X48.012 Y113.82 E.01842
G1 X48.222 Y113.455 E.01844
G1 X48.504 Y113.143 E.01842
G1 X48.844 Y112.896 E.0184
G1 X49.228 Y112.724 E.01842
G1 X49.64 Y112.637 E.01844
G1 X50.06 Y112.637 E.01839
G1 X50.472 Y112.724 E.01844
G1 X50.856 Y112.896 E.01842
G1 X51.196 Y113.143 E.0184
G1 X51.478 Y113.455 E.01842
G1 X51.658 Y113.768 E.01581
M204 P1000
G1 X52.086 Y113.862 F9000
G1 E-2.24 F4200
;WIPE_START
G1 F7200
G1 X51.818 Y114.22 E-.26571
G1 X51.862 Y114.638 E-.23292
G1 X51.818 Y115.057 E-.23347
G1 X51.691 Y115.448 E-.2279
;WIPE_END
G1 Z.45 F720
G1 X80.937 Y97.232 F9000
G1 Z.25 F720
G1 E3.2 F2400
M204 P800
;TYPE:Perimeter
G1 F1200
G1 X80.685 Y78.868 E.80422
G1 X80.82 Y78.868 E.00591
G1 X82.718 Y78.465 E.08496
G1 X84.49 Y77.675 E.08496
G1 X86.06 Y76.535 E.08496
G1 X87.358 Y75.093 E.08496
G1 X88.328 Y73.413 E.08495
G1 X88.928 Y71.568 E.08496
G1 X88.996 Y70.915 E.02875
G1 X115.824 Y70.915 E1.17478
G1 X119.996 Y75.061 E.25756
G1 X121.21 Y75.943 E.06571
G1 X122.6 Y76.562 E.06663
G1 X124.089 Y76.879 E.06666
G1 X125.611 Y76.879 E.06665
G1 X127.1 Y76.562 E.06666
G1 X128.49 Y75.943 E.06663
G1 X129.722 Y75.049 E.06666
G1 X130.74 Y73.918 E.06663
G1 X131.501 Y72.6 E.06664
G1 X131.972 Y71.152 E.06668
G1 X132.131 Y69.638 E.06666
G1 X131.97 Y68.12 E.06684
G1 X132.41 Y68.12 E.01927
G1 X132.569 Y69.638 E.06684
G1 X132.401 Y71.243 E.07067
G1 X131.902 Y72.778 E.07068
G1 X131.095 Y74.176 E.07068
G1 X129.986 Y75.408 E.07259
G1 X85.249 Y116.414 E2.65743
G1 X84.81 Y116.733 E.02376
G1 X84.348 Y116.939 E.02215
G1 X83.853 Y117.044 E.02216
G1 X49.597 Y117.044 E1.50004
G1 X49.102 Y116.939 E.02216
G1 X48.64 Y116.733 E.02215
G1 X48.231 Y116.436 E.02213
G1 X47.893 Y116.06 E.02214
G1 X47.64 Y115.622 E.02215
G1 X47.483 Y115.141 E.02216
G1 X47.431 Y114.638 E.02214
G1 X47.483 Y114.135 E.02214
G1 X47.64 Y113.654 E.02216
G1 X47.893 Y113.216 E.02215
G1 X48.231 Y112.84 E.02214
G1 X48.654 Y112.533 E.02289
G1 X78.582 Y97.569 E1.46521
G1 X79.102 Y97.337 E.02493
G1 X79.597 Y97.232 E.02216
G1 X80.877 Y97.232 E.05605
M204 P1000
G1 X80.566 Y96.866 F9000
M204 P800
;TYPE:External perimeter
G1 F1200
G1 X80.313 Y78.502 E.80422
G1 X80.782 Y78.502 E.02054
G1 X82.604 Y78.114 E.08157
G1 X84.306 Y77.356 E.08159
G1 X85.813 Y76.261 E.08157
G1 X87.06 Y74.877 E.08158
G1 X87.992 Y73.263 E.08161
G1 X88.567 Y71.491 E.08158
G1 X88.667 Y70.548 E.04152
G1 X115.975 Y70.548 E1.1958
G1 X120.234 Y74.782 E.26298
G1 X121.394 Y75.624 E.06277
G1 X122.714 Y76.212 E.06328
G1 X124.128 Y76.513 E.06331
G1 X125.572 Y76.513 E.06323
G1 X126.986 Y76.212 E.06331
G1 X128.306 Y75.624 E.06328
G1 X129.475 Y74.775 E.06327
G1 X130.442 Y73.701 E.06328
G1 X131.165 Y72.45 E.06327
G1 X131.611 Y71.075 E.0633
G1 X131.762 Y69.638 E.06327
G1 X131.611 Y68.201 E.06327
G1 X131.466 Y67.754 E.02058
G1 X132.695 Y67.754 E.05382
G1 X132.761 Y67.957 E.00935
G1 X132.938 Y69.638 E.07402
G1 X132.761 Y71.32 E.07406
G1 X132.238 Y72.928 E.07404
G1 X131.393 Y74.392 E.07402
G1 X130.246 Y75.666 E.07507
G1 X85.481 Y116.698 E2.6591
G1 X84.994 Y117.052 E.02636
G1 X84.461 Y117.29 E.02556
G1 X83.891 Y117.411 E.02552
G1 X49.559 Y117.411 E1.50337
G1 X48.989 Y117.29 E.02552
M73 P2 R82
G1 X48.456 Y117.052 E.02556
G1 X47.985 Y116.71 E.02549
G1 X47.595 Y116.277 E.02552
G1 X47.303 Y115.772 E.02554
G1 X47.123 Y115.218 E.02551
G1 X47.062 Y114.638 E.02554
G1 X47.123 Y114.059 E.02549
G1 X47.303 Y113.504 E.02555
G1 X47.595 Y113 E.02551
G1 X47.985 Y112.566 E.02555
G1 X48.464 Y112.218 E.02593
G1 X78.425 Y97.238 E1.46682
G1 X78.989 Y96.987 E.02703
G1 X79.559 Y96.866 E.02552
G1 X80.506 Y96.866 E.04147
M204 P1000
G1 X80.965 Y96.852 F9000
G1 E-2.24 F4200
;WIPE_START
G1 F7200
