; generated by PrusaSlicer 2.6.0-alpha0 on 2023-03-01 at 12:46:29 UTC

; 
;

; 
;

; 
;

; 

; external perimeters extrusion width = 0.45mm
; perimeters extrusion width = 0.45mm
; infill extrusion width = 0.45mm
; solid infill extrusion width = 0.45mm
; top infill extrusion width = 0.40mm
; first layer extrusion width = 0.42mm

M73 P0 R124
M201 X2500 Y2500 Z400 E5000 ; sets maximum accelerations, mm/sec^2
M203 X180 Y180 Z12 E80 ; sets maximum feedrates, mm / sec
M204 P1250 R1250 T2500 ; sets acceleration (P, T) and retract acceleration (R), mm/sec^2
M205 X8.00 Y8.00 Z2.00 E10.00 ; sets the jerk limits, mm/sec
M205 S0 T0 ; sets the minimum extruding and travel feed rate, mm/sec
M107
;TYPE:Custom
M862.3 P "MINI" ; printer model check
G90 ; use absolute coordinates
M83 ; extruder relative mode
M104 S170 ; set extruder temp for bed leveling
M140 S60 ; set bed temp
M109 R170 ; wait for bed leveling temp
M190 S60 ; wait for bed temp
M204 T1250 ; set travel acceleration
G28 ; home all without mesh bed level
G29 ; mesh bed leveling 
M204 T2500 ; restore travel acceleration
M104 S215 ; set extruder temp
G92 E0
G1 Y-2 X179 F2400
G1 Z3 F720
M109 S215 ; wait for extruder temp

; intro line
G1 X170 F1000
G1 Z0.2 F720
G1 X110 E8 F900
G1 X40 E10 F700
G92 E0

M221 S95 ; set flow
G21 ; set units to millimeters
G90 ; use absolute coordinates
M83 ; use relative distances for extrusion
M900 K0.05 ; Filament gcode LA 1.5
M900 K30 ; Filament gcode LA 1.0
M107
;LAYER_CHANGE
;Z:0.25
;HEIGHT:0.25
;BEFORE_LAYER_CHANGE
G92 E0.0
;0.25


G1 E-3.2 F4200
G1 Z.2 F720
G1 Z.25
;AFTER_LAYER_CHANGE
;0.25
G1 Z.45
G1 X61.36 Y54.656 F9000
G1 Z.25 F720
G1 E3.2 F2400
M204 P800
;TYPE:Skirt/Brim
;WIDTH:0.42
G1 F1200
G1 X62.405 Y53.784 E.0596
G1 X63.335 Y53.594 E.04157
G1 X68.335 Y53.594 E.21895
G1 X68.895 Y53.661 E.0247
G1 X106.024 Y62.701 E1.67335
G1 X107.198 Y63.39 E.05961
G1 X107.83 Y65 E.07574
G1 X107.83 Y115 E2.18946
G1 X107.439 Y116.304 E.05961
G1 X106.024 Y117.299 E.07575
G1 X68.895 Y126.339 E1.67335
G1 X68.335 Y126.406 E.0247
G1 X63.335 Y126.406 E.21895
G1 X62.031 Y126.015 E.05961
G1 X61.159 Y124.97 E.0596
G1 X60.969 Y124.04 E.04157
G1 X60.969 Y55.96 E2.98117
G1 X61.343 Y54.714 E.05697
M204 P1000
; printing object 0 id:0 copy 0
G1 E-2.24 F4200
;WIPE_START
G1 F7200
G1 X62.405 Y53.784 E-.78229
G1 X62.719 Y53.72 E-.17771
;WIPE_END
G1 Z.45 F720
G1 X87.022 Y106.393 F9000
G1 Z.25 F720
G1 E3.2 F2400
M204 P800
;TYPE:Perimeter
G1 F1200
G1 X102.181 Y106.393 E.6638
G1 X102.181 Y113.857 E.32684
G1 X99.602 Y113.857 E.11293
G1 X72.193 Y110.087 E1.21152
G1 X72.193 Y114.206 E.18037
G1 X71.493 Y115.476 E.0635
G1 X67.745 Y120.757 E.28357
G1 X64.478 Y120.757 E.14306
G1 X64.478 Y59.243 E2.69365
G1 X67.745 Y59.243 E.14306
G1 X71.493 Y64.524 E.28357
G1 X72.193 Y65.794 E.0635
G1 X72.193 Y69.913 E.18037
G1 X99.602 Y66.143 E1.21152
G1 X102.181 Y66.143 E.11293
G1 X102.181 Y73.607 E.32684
G1 X87.022 Y73.607 E.6638
G1 X87.022 Y106.333 E1.43305
M204 P1000
M73 P0 R123
G1 X87.389 Y106.026 F9000
M204 P800
G1 F1200
G1 X102.547 Y106.026 E.66376
G1 X102.547 Y114.224 E.35898
G1 X99.577 Y114.224 E.13005
G1 X72.559 Y110.508 E1.19424
G1 X72.559 Y114.3 E.16605
G1 X71.804 Y115.671 E.06854
G1 X67.934 Y121.123 E.29277
G1 X64.112 Y121.123 E.16736
G1 X64.112 Y58.877 E2.72571
G1 X67.934 Y58.877 E.16736
G1 X71.804 Y64.329 E.29277
G1 X72.559 Y65.7 E.06854
G1 X72.559 Y69.492 E.16605
G1 X99.577 Y65.776 E1.19424
G1 X102.547 Y65.776 E.13005
G1 X102.547 Y73.974 E.35898
G1 X87.389 Y73.974 E.66376
G1 X87.389 Y105.966 E1.40091
M204 P1000
G1 X87.755 Y105.66 F9000
M204 P800
;TYPE:External perimeter
G1 F1200
G1 X102.914 Y105.66 E.6638
G1 X102.914 Y114.59 E.39104
G1 X99.552 Y114.59 E.14722
G1 X72.925 Y110.928 E1.17695
G1 X72.925 Y114.395 E.15182
G1 X72.115 Y115.866 E.07353
G1 X68.123 Y121.49 E.302
G1 X63.745 Y121.49 E.19171
G1 X63.745 Y58.51 E2.75785
G1 X68.123 Y58.51 E.19171
G1 X72.115 Y64.134 E.302
G1 X72.925 Y65.605 E.07353
G1 X72.925 Y69.072 E.15182
G1 X99.552 Y65.41 E1.17695
G1 X102.914 Y65.41 E.14722
G1 X102.914 Y74.34 E.39104
G1 X87.755 Y74.34 E.6638
G1 X87.755 Y105.6 E1.36885
M204 P1000
G1 X87.695 Y106.055 F9000
G1 E-2.24 F4200
;WIPE_START
G1 F7200
G1 X89.487 Y105.607 E-.96
;WIPE_END
G1 Z.45 F720
G1 X101.328 Y66.253 F9000
G1 Z.25 F720
G1 E3.2 F2400
M204 P800
;TYPE:Solid infill
;WIDTH:0.42099
G1 F1200
G1 X101.906 Y66.83 E.03586
G1 X101.906 Y67.35 E.02283
G1 X100.974 Y66.417 E.0579
G1 X100.454 Y66.417 E.02283
G1 X101.906 Y67.869 E.09016
G1 X101.906 Y68.389 E.02283
G1 X99.935 Y66.417 E.12242
G1 X99.621 Y66.417 E.01379
G1 X99.44 Y66.442 E.00802
G1 X101.906 Y68.908 E.15313
G1 X101.906 Y69.428 E.02283
G1 X98.984 Y66.505 E.18147
G1 X98.527 Y66.568 E.02026
G1 X101.906 Y69.947 E.20982
G1 X101.906 Y70.467 E.02283
G1 X98.07 Y66.631 E.2382
G1 X97.613 Y66.694 E.02026
G1 X101.906 Y70.986 E.26654
G1 X101.906 Y71.506 E.02283
G1 X97.157 Y66.756 E.29492
G1 X96.7 Y66.819 E.02026
G1 X101.906 Y72.025 E.32327
G1 X101.906 Y72.545 E.02283
G1 X96.243 Y66.882 E.35164
G1 X95.787 Y66.945 E.02021
G1 X101.906 Y73.064 E.37996
G1 X101.906 Y73.333 E.01181
G1 X101.655 Y73.333 E.01102
G1 X95.33 Y67.008 E.39275
G1 X94.873 Y67.07 E.02025
G1 X101.135 Y73.333 E.38887
G1 X100.616 Y73.333 E.02279
G1 X94.417 Y67.133 E.38496
G1 X93.96 Y67.196 E.02026
G1 X100.096 Y73.333 E.38104
G1 X99.577 Y73.333 E.02279
G1 X93.503 Y67.259 E.37716
G1 X93.047 Y67.322 E.02021
G1 X99.057 Y73.333 E.37322
G1 X98.538 Y73.333 E.02279
G1 X92.59 Y67.385 E.36934
G1 X92.133 Y67.447 E.02025
G1 X98.018 Y73.333 E.36546
G1 X97.499 Y73.333 E.02279
G1 X91.677 Y67.51 E.36155
G1 X91.22 Y67.573 E.02026
G1 X96.979 Y73.333 E.35763
G1 X96.46 Y73.333 E.02279
G1 X90.763 Y67.636 E.35375
G1 X90.307 Y67.699 E.02021
G1 X95.94 Y73.333 E.34981
G1 X95.421 Y73.333 E.02279
G1 X89.85 Y67.761 E.34596
G1 X89.393 Y67.824 E.02026
G1 X94.902 Y73.333 E.34208
G1 X94.382 Y73.333 E.02283
G1 X88.936 Y67.887 E.33817
G1 X88.48 Y67.95 E.02021
G1 X93.863 Y73.333 E.33426
G1 X93.343 Y73.333 E.02283
G1 X88.023 Y68.013 E.33034
G1 X87.566 Y68.075 E.02025
M73 P1 R123
G1 X92.824 Y73.333 E.32649
G1 X92.304 Y73.333 E.02283
G1 X87.11 Y68.138 E.32255
G1 X86.653 Y68.201 E.02026
G1 X91.785 Y73.333 E.31867
G1 X91.265 Y73.333 E.02283
G1 X86.196 Y68.264 E.31476
G1 X85.74 Y68.327 E.02021
G1 X90.746 Y73.333 E.31085
G1 X90.226 Y73.333 E.02283
G1 X85.283 Y68.389 E.30697
G1 X84.826 Y68.452 E.02026
G1 X89.707 Y73.333 E.30308
G1 X89.187 Y73.333 E.02283
G1 X84.37 Y68.515 E.29914
G1 X83.913 Y68.578 E.02026
G1 X88.668 Y73.333 E.29526
G1 X88.148 Y73.333 E.02283
G1 X83.456 Y68.641 E.29135
G1 X83 Y68.704 E.02021
G1 X87.629 Y73.333 E.28744
G1 X87.109 Y73.333 E.02283
G1 X82.543 Y68.766 E.28356
G1 X82.086 Y68.829 E.02026
G1 X86.748 Y73.491 E.28949
G1 X86.748 Y74.01 E.02279
G1 X81.629 Y68.892 E.31783
G1 X81.173 Y68.955 E.02021
G1 X86.748 Y74.53 E.34618
G1 X86.748 Y75.049 E.02279
G1 X80.716 Y69.018 E.37452
G1 X80.259 Y69.08 E.02025
G1 X86.748 Y75.568 E.4029
G1 X86.748 Y76.088 E.02283
G1 X79.803 Y69.143 E.43125
G1 X79.346 Y69.206 E.02026
G1 X86.748 Y76.607 E.45959
G1 X86.748 Y77.127 E.02283
G1 X78.889 Y69.269 E.48797
G1 X78.433 Y69.332 E.02021
G1 X86.748 Y77.646 E.51629
G1 X86.748 Y78.166 E.02283
G1 X77.976 Y69.394 E.5447
G1 X77.519 Y69.457 E.02026
G1 X86.748 Y78.685 E.57304
G1 X86.748 Y79.205 E.02283
G1 X77.063 Y69.52 E.60139
G1 X76.606 Y69.583 E.02026
G1 X86.748 Y79.724 E.62973
G1 X86.748 Y80.244 E.02283
G1 X76.149 Y69.646 E.65811
G1 X75.693 Y69.709 E.02021
G1 X86.748 Y80.763 E.68643
G1 X86.748 Y81.283 E.02283
G1 X75.236 Y69.771 E.71484
G1 X74.779 Y69.834 E.02026
G1 X86.748 Y81.802 E.74318
G1 X86.748 Y82.322 E.02283
G1 X74.322 Y69.897 E.77156
G1 X73.866 Y69.96 E.02021
G1 X86.748 Y82.841 E.79987
G1 X86.748 Y83.361 E.02283
G1 X73.409 Y70.023 E.82825
G1 X72.952 Y70.085 E.02025
G1 X86.748 Y83.88 E.85663
G1 X86.748 Y84.4 E.02283
G1 X72.349 Y70.002 E.89407
M204 P1000
G1 E-2.24 F4200
;WIPE_START
G1 F7200
G1 X73.574 Y71.227 E-.96
;WIPE_END
G1 Z.45 F720
G1 X68.356 Y60.294 F9000
G1 Z.25 F720
G1 E3.2 F2400
M204 P800
G1 F1200
G1 X67.58 Y59.518 E.04819
G1 X67.06 Y59.518 E.02283
G1 X68.93 Y61.388 E.11612
G1 X70.201 Y63.178 E.09639
G1 X66.541 Y59.518 E.22727
G1 X66.021 Y59.518 E.02283
G1 X71.366 Y64.862 E.33187
G1 X71.918 Y65.864 E.05023
G1 X71.918 Y65.934 E.00307
G1 X65.502 Y59.518 E.3984
G1 X64.982 Y59.518 E.02283
G1 X71.918 Y66.453 E.43066
G1 X71.918 Y66.973 E.02283
M73 P1 R122
G1 X64.753 Y59.808 E.44491
G1 X64.753 Y60.327 E.02279
G1 X71.918 Y67.492 E.44491
G1 X71.918 Y68.012 E.02283
G1 X64.753 Y60.847 E.44491
G1 X64.753 Y61.366 E.02279
G1 X71.918 Y68.531 E.44491
G1 X71.918 Y69.051 E.02283
G1 X64.753 Y61.886 E.44491
G1 X64.753 Y62.405 E.02279
G1 X72.083 Y69.735 E.45515
M204 P1000
G1 E-2.24 F4200
;WIPE_START
G1 F7200
G1 X70.858 Y68.51 E-.96
;WIPE_END
G1 Z.45 F720
G1 X64.588 Y62.76 F9000
G1 Z.25 F720
G1 E3.2 F2400
M204 P800
G1 F1200
G1 X86.748 Y84.919 E1.37599
G1 X86.748 Y85.439 E.02283
G1 X64.753 Y63.444 E1.36577
G1 X64.753 Y63.964 E.02283
G1 X86.748 Y85.958 E1.36574
G1 X86.748 Y86.478 E.02283
G1 X64.753 Y64.483 E1.36577
G1 X64.753 Y65.003 E.02283
G1 X86.748 Y86.997 E1.36574
G1 X86.748 Y87.517 E.02283
G1 X64.753 Y65.522 E1.36577
G1 X64.753 Y66.042 E.02283
G1 X86.748 Y88.036 E1.36574
G1 X86.748 Y88.556 E.02283
G1 X64.753 Y66.561 E1.36577
G1 X64.753 Y67.081 E.02283
G1 X86.748 Y89.075 E1.36574
G1 X86.748 Y89.595 E.02283
G1 X64.753 Y67.6 E1.36577
G1 X64.753 Y68.12 E.02283
G1 X86.748 Y90.114 E1.36574
G1 X86.748 Y90.634 E.02283
G1 X64.753 Y68.639 E1.36577
G1 X64.753 Y69.159 E.02283
G1 X86.748 Y91.153 E1.36574
G1 X86.748 Y91.673 E.02283
G1 X64.753 Y69.678 E1.36577
G1 X64.753 Y70.198 E.02283
G1 X86.748 Y92.192 E1.36574
G1 X86.748 Y92.712 E.02283
G1 X64.753 Y70.717 E1.36577
G1 X64.753 Y71.237 E.02283
G1 X86.748 Y93.231 E1.36574
G1 X86.748 Y93.751 E.02283
G1 X64.753 Y71.756 E1.36577
G1 X64.753 Y72.276 E.02283
G1 X86.748 Y94.27 E1.36574
G1 X86.748 Y94.79 E.02283
G1 X64.753 Y72.795 E1.36577
G1 X64.753 Y73.315 E.02283
G1 X86.748 Y95.309 E1.36574
G1 X86.748 Y95.829 E.02283
G1 X64.753 Y73.834 E1.36577
G1 X64.753 Y74.354 E.02283
G1 X86.748 Y96.348 E1.36574
G1 X86.748 Y96.868 E.02283
G1 X64.753 Y74.873 E1.36577
G1 X64.753 Y75.393 E.02283
G1 X86.748 Y97.387 E1.36574
G1 X86.748 Y97.907 E.02283
G1 X64.753 Y75.912 E1.36577
G1 X64.753 Y76.432 E.02283
G1 X86.748 Y98.426 E1.36574
G1 X86.748 Y98.946 E.02283
G1 X64.753 Y76.951 E1.36577
G1 X64.753 Y77.471 E.02283
G1 X86.748 Y99.465 E1.36574
G1 X86.748 Y99.985 E.02283
G1 X64.753 Y77.99 E1.36577
G1 X64.753 Y78.51 E.02283
G1 X86.748 Y100.504 E1.36574
G1 X86.748 Y101.024 E.02283
M73 P2 R122
G1 X64.753 Y79.029 E1.36577
G1 X64.753 Y79.548 E.02279
G1 X86.748 Y101.543 E1.36577
G1 X86.748 Y102.063 E.02283
G1 X64.753 Y80.068 E1.36577
G1 X64.753 Y80.587 E.02279
G1 X86.748 Y102.582 E1.36577
G1 X86.748 Y103.102 E.02283
G1 X64.753 Y81.107 E1.36577
G1 X64.753 Y81.626 E.02279
M73 P2 R121
G1 X86.748 Y103.621 E1.36577
G1 X86.748 Y104.141 E.02283
G1 X64.753 Y82.146 E1.36577
G1 X64.753 Y82.665 E.02279
G1 X86.748 Y104.66 E1.36577
G1 X86.748 Y105.18 E.02283
G1 X64.753 Y83.185 E1.36577
G1 X64.753 Y83.704 E.02279
G1 X86.912 Y105.864 E1.37599
M204 P1000
G1 E-2.24 F4200
;WIPE_START
G1 F7200
G1 X85.687 Y104.639 E-.96
;WIPE_END
G1 Z.45 F720
G1 X102.071 Y106.997 F9000
G1 Z.25 F720
G1 E3.2 F2400
M204 P800
G1 F1200
G1 X101.742 Y106.667 E.02046
G1 X101.223 Y106.667 E.02279
G1 X101.906 Y107.351 E.04244
G1 X101.906 Y107.871 E.02283
G1 X100.703 Y106.667 E.07473
G1 X100.184 Y106.667 E.02279
G1 X101.906 Y108.39 E.10696
G1 X101.906 Y108.91 E.02283
G1 X99.664 Y106.667 E.13925
G1 X99.145 Y106.667 E.02279
G1 X101.906 Y109.429 E.17147
G1 X101.906 Y109.949 E.02283
G1 X98.625 Y106.667 E.20376
G1 X98.106 Y106.667 E.02279
G1 X101.906 Y110.468 E.23599
G1 X101.906 Y110.988 E.02283
G1 X97.586 Y106.667 E.26828
G1 X97.067 Y106.667 E.02279
G1 X101.906 Y111.507 E.30051
G1 X101.906 Y112.027 E.02283
G1 X96.547 Y106.667 E.3328
G1 X96.028 Y106.667 E.02279
G1 X101.906 Y112.546 E.36502
G1 X101.906 Y113.066 E.02283
G1 X95.508 Y106.667 E.39731
G1 X94.989 Y106.667 E.02279
G1 X101.904 Y113.583 E.42942
G1 X101.384 Y113.583 E.02283
G1 X94.469 Y106.667 E.42942
G1 X93.95 Y106.667 E.02279
G1 X100.865 Y113.583 E.42942
G1 X100.345 Y113.583 E.02283
G1 X93.43 Y106.667 E.42942
G1 X92.911 Y106.667 E.02279
G1 X99.826 Y113.583 E.42942
G1 X99.621 Y113.583 E.009
G1 X99.256 Y113.532 E.01618
G1 X92.391 Y106.667 E.42628
G1 X91.872 Y106.667 E.02279
G1 X98.654 Y113.449 E.42113
G1 X98.051 Y113.367 E.02672
G1 X91.352 Y106.667 E.416
G1 X90.833 Y106.667 E.02279
G1 X97.449 Y113.284 E.41085
G1 X96.847 Y113.201 E.02668
G1 X90.313 Y106.667 E.40573
G1 X89.794 Y106.667 E.02279
G1 X96.244 Y113.118 E.40054
G1 X95.642 Y113.035 E.02668
G1 X89.274 Y106.667 E.39542
G1 X88.755 Y106.667 E.02279
G1 X95.04 Y112.952 E.39027
G1 X94.437 Y112.87 E.02672
G1 X88.235 Y106.667 E.38514
G1 X87.716 Y106.667 E.02279
G1 X93.835 Y112.787 E.37999
G1 X93.233 Y112.704 E.02668
G1 X87.196 Y106.667 E.37487
G1 X86.748 Y106.667 E.01967
G1 X86.748 Y106.219 E.01967
G1 X64.753 Y84.224 E1.36577
G1 X64.753 Y84.743 E.02279
G1 X92.63 Y112.621 E1.73105
G1 X92.028 Y112.538 E.02668
G1 X64.753 Y85.263 E1.69364
G1 X64.753 Y85.782 E.02279
G1 X91.426 Y112.455 E1.65625
G1 X90.823 Y112.372 E.02673
G1 X64.753 Y86.302 E1.61881
G1 X64.753 Y86.821 E.02279
G1 X90.221 Y112.29 E1.58146
G1 X89.619 Y112.207 E.02668
G1 X64.753 Y87.341 E1.54405
G1 X64.753 Y87.86 E.02279
G1 X89.016 Y112.124 E1.50664
G1 X88.414 Y112.041 E.02668
G1 X64.753 Y88.38 E1.46922
G1 X64.753 Y88.899 E.02279
G1 X87.811 Y111.958 E1.43181
G1 X87.209 Y111.875 E.02668
G1 X64.753 Y89.419 E1.3944
G1 X64.753 Y89.938 E.02279
G1 X86.607 Y111.793 E1.35705
G1 X86.004 Y111.71 E.02673
G1 X64.753 Y90.458 E1.31961
G1 X64.753 Y90.977 E.02279
G1 X85.402 Y111.627 E1.28223
G1 X84.8 Y111.544 E.02668
G1 X64.753 Y91.497 E1.24481
G1 X64.753 Y92.016 E.02279
G1 X84.197 Y111.461 E1.2074
G1 X83.595 Y111.378 E.02668
G1 X64.753 Y92.536 E1.16999
G1 X64.753 Y93.055 E.02279
G1 X82.993 Y111.296 E1.13264
G1 X82.39 Y111.213 E.02673
G1 X64.753 Y93.575 E1.0952
G1 X64.753 Y94.094 E.02279
G1 X81.788 Y111.13 E1.05782
G1 X81.186 Y111.047 E.02668
G1 X64.753 Y94.614 E1.0204
G1 X64.753 Y95.133 E.02279
G1 X80.583 Y110.964 E.98299
G1 X79.981 Y110.881 E.02668
G1 X64.753 Y95.653 E.94558
G1 X64.753 Y96.172 E.02279
G1 X79.379 Y110.798 E.9082
G1 X78.776 Y110.716 E.02672
G1 X64.753 Y96.692 E.87079
G1 X64.753 Y97.211 E.02279
G1 X78.174 Y110.633 E.83341
G1 X77.572 Y110.55 E.02668
M73 P2 R120
G1 X64.753 Y97.731 E.79599
G1 X64.753 Y98.25 E.02279
G1 X76.969 Y110.467 E.75858
G1 X76.367 Y110.384 E.02668
G1 X64.753 Y98.77 E.72117
G1 X64.753 Y99.289 E.02279
G1 X75.765 Y110.301 E.68379
G1 X75.162 Y110.219 E.02672
G1 X64.753 Y99.809 E.64638
G1 X64.753 Y100.328 E.02279
G1 X74.56 Y110.136 E.60899
G1 X73.958 Y110.053 E.02668
G1 X64.753 Y100.848 E.57158
G1 X64.753 Y101.367 E.02279
G1 X73.355 Y109.97 E.53417
G1 X72.753 Y109.887 E.02668
M73 P3 R120
G1 X64.753 Y101.887 E.49676
G1 X64.753 Y102.406 E.02279
G1 X72.151 Y109.804 E.45938
G1 X71.918 Y109.772 E.01033
G1 X71.918 Y110.091 E.01401
G1 X64.753 Y102.926 E.44491
G1 X64.753 Y103.445 E.02279
G1 X71.918 Y110.61 E.44491
G1 X71.918 Y111.13 E.02283
G1 X64.753 Y103.965 E.44491
G1 X64.753 Y104.484 E.02279
G1 X71.918 Y111.649 E.44491
G1 X71.918 Y112.169 E.02283
G1 X64.753 Y105.004 E.44491
G1 X64.753 Y105.523 E.02279
G1 X71.918 Y112.688 E.44491
G1 X71.918 Y113.208 E.02283
G1 X64.753 Y106.043 E.44491
G1 X64.753 Y106.562 E.02279
G1 X71.918 Y113.727 E.44491
G1 X71.918 Y114.136 E.01796
G1 X71.878 Y114.207 E.00358
G1 X64.753 Y107.082 E.44243
G1 X64.753 Y107.601 E.02279
G1 X71.694 Y114.542 E.431
G1 X71.509 Y114.877 E.0168
G1 X64.753 Y108.121 E.41951
G1 X64.753 Y108.64 E.02279
G1 X71.325 Y115.212 E.40809
G1 X71.12 Y115.527 E.0165
G1 X64.753 Y109.16 E.39536
G1 X64.753 Y109.679 E.02279
G1 X70.904 Y115.831 E.38198
G1 X70.689 Y116.135 E.01635
G1 X64.753 Y110.199 E.36859
G1 X64.753 Y110.718 E.02279
G1 X70.473 Y116.439 E.35521
G1 X70.257 Y116.743 E.01637
G1 X64.753 Y111.238 E.3418
G1 X64.753 Y111.757 E.02279
G1 X70.042 Y117.046 E.32842
G1 X69.826 Y117.35 E.01637
G1 X64.753 Y112.277 E.31501
G1 X64.753 Y112.796 E.02279
