; generated by PrusaSlicer 2.6.0-alpha0 on 2023-02-28 at 19:38:26 UTC

; 
;

; 
;

; 
;

; 

; external perimeters extrusion width = 0.45mm
; perimeters extrusion width = 0.45mm
; infill extrusion width = 0.45mm
; solid infill extrusion width = 0.45mm
; top infill extrusion width = 0.40mm
; first layer extrusion width = 0.42mm

M73 P0 R180
M201 X2500 Y2500 Z400 E5000 ; sets maximum accelerations, mm/sec^2
M203 X180 Y180 Z12 E80 ; sets maximum feedrates, mm / sec
M204 P1250 R1250 T2500 ; sets acceleration (P, T) and retract acceleration (R), mm/sec^2
M205 X8.00 Y8.00 Z2.00 E10.00 ; sets the jerk limits, mm/sec
M205 S0 T0 ; sets the minimum extruding and travel feed rate, mm/sec
M107
;TYPE:Custom
M862.3 P "MINI" ; printer model check
G90 ; use absolute coordinates
M83 ; extruder relative mode
M104 S170 ; set extruder temp for bed leveling
M140 S60 ; set bed temp
M109 R170 ; wait for bed leveling temp
M190 S60 ; wait for bed temp
M204 T1250 ; set travel acceleration
G28 ; home all without mesh bed level
G29 ; mesh bed leveling 
M204 T2500 ; restore travel acceleration
M104 S215 ; set extruder temp
G92 E0
G1 Y-2 X179 F2400
G1 Z3 F720
M109 S215 ; wait for extruder temp

; intro line
G1 X170 F1000
G1 Z0.2 F720
G1 X110 E8 F900
G1 X40 E10 F700
G92 E0

M221 S95 ; set flow
G21 ; set units to millimeters
G90 ; use absolute coordinates
M83 ; use relative distances for extrusion
M900 K0.05 ; Filament gcode LA 1.5
M900 K30 ; Filament gcode LA 1.0
M107
;LAYER_CHANGE
;Z:0.25
;HEIGHT:0.25
;BEFORE_LAYER_CHANGE
G92 E0.0
;0.25


G1 E-3.2 F4200
G1 Z.2 F720
G1 Z.25
;AFTER_LAYER_CHANGE
;0.25
G1 Z.45
G1 X76.334 Y76.334 F9000
G1 Z.25 F720
G1 E3.2 F2400
M204 P800
;TYPE:Skirt/Brim
;WIDTH:0.42
G1 F1200
G1 X123.863 Y28.805 E2.94334
G1 X124.727 Y28.254 E.04487
G1 X150.429 Y18.9 E1.19769
G1 X151.788 Y18.822 E.05961
G1 X152.965 Y19.506 E.05961
G1 X153.52 Y20.499 E.04981
G1 X154.386 Y23.665 E.14373
G1 X155.175 Y26.945 E.14773
G1 X155.874 Y30.321 E.15097
G1 X156.453 Y33.644 E.1477
G1 X156.917 Y36.909 E.14441
G1 X157.289 Y40.262 E.14773
G1 X157.554 Y43.624 E.14768
G1 X161.484 Y133.208 E3.92659
G1 X160.794 Y134.984 E.08343
G1 X134.984 Y160.794 E1.59834
G1 X133.208 Y161.484 E.08343
G1 X43.624 Y157.554 E3.92659
G1 X40.262 Y157.289 E.14768
G1 X36.909 Y156.917 E.14773
G1 X33.57 Y156.441 E.14769
G1 X30.248 Y155.86 E.14768
G1 X26.945 Y155.175 E.14771
G1 X23.738 Y154.405 E.14442
G1 X20.499 Y153.52 E.14703
G1 X19.345 Y152.798 E.05961
G1 X18.78 Y151.56 E.05959
G1 X18.9 Y150.429 E.0498
G1 X28.254 Y124.727 E1.19769
G1 X28.805 Y123.863 E.04487
G1 X76.292 Y76.376 E2.94074
M204 P1000
; printing object 0 id:0 copy 0
G1 E-2.24 F4200
;WIPE_START
G1 F7200
G1 X77.517 Y75.151 E-.96
;WIPE_END
G1 Z.45 F720
G1 X83.182 Y115.084 F9000
G1 Z.25 F720
G1 E3.2 F2400
M204 P800
;TYPE:Perimeter
G1 F1200
G1 X83.199 Y115.021 E.00286
G1 X83.783 Y113.875 E.05632
G1 X84.554 Y112.923 E.05364
G1 X112.923 Y84.554 E1.75682
G1 X113.875 Y83.783 E.05364
G1 X115.021 Y83.199 E.05632
G1 X116.262 Y82.867 E.05625
G1 X117.546 Y82.799 E.0563
G1 X118.816 Y83 E.0563
G1 X120.016 Y83.461 E.05629
G1 X121.094 Y84.161 E.05628
G1 X122.003 Y85.07 E.05629
G1 X122.703 Y86.148 E.05628
G1 X123.134 Y87.271 E.05267
G1 X129.534 Y107.892 E.94547
G1 X129.729 Y109.124 E.05462
G1 X129.661 Y110.408 E.0563
G1 X129.329 Y111.65 E.0563
G1 X128.745 Y112.795 E.05628
G1 X127.974 Y113.747 E.05364
G1 X113.747 Y127.974 E.88104
G1 X112.795 Y128.745 E.05364
M73 P0 R179
G1 X111.65 Y129.329 E.05628
G1 X110.408 Y129.661 E.0563
G1 X109.124 Y129.729 E.0563
G1 X107.892 Y129.534 E.05462
G1 X87.271 Y123.134 E.94547
G1 X86.148 Y122.703 E.05267
G1 X85.07 Y122.003 E.05628
G1 X84.161 Y121.094 E.05629
G1 X83.461 Y120.016 E.05628
G1 X83 Y118.816 E.05629
G1 X82.799 Y117.546 E.0563
G1 X82.867 Y116.262 E.0563
G1 X83.167 Y115.142 E.05077
M204 P1000
G1 X83.535 Y115.184 F9000
M204 P800
G1 F1200
G1 X84.092 Y114.076 E.0543
G1 X84.827 Y113.168 E.05115
G1 X113.168 Y84.827 E1.75508
G1 X114.076 Y84.092 E.05115
G1 X115.153 Y83.543 E.05293
G1 X116.32 Y83.231 E.0529
G1 X117.527 Y83.167 E.05293
G1 X118.72 Y83.356 E.05289
G1 X119.849 Y83.789 E.05295
G1 X120.862 Y84.448 E.05292
G1 X121.717 Y85.302 E.05292
G1 X122.375 Y86.316 E.05293
G1 X122.788 Y87.391 E.05043
G1 X129.176 Y107.975 E.94377
G1 X129.361 Y109.143 E.05178
G1 X129.298 Y110.35 E.05293
G1 X128.985 Y111.518 E.05295
G1 X128.436 Y112.594 E.0529
G1 X127.701 Y113.502 E.05115
G1 X113.502 Y127.701 E.87931
G1 X112.594 Y128.436 E.05115
G1 X111.518 Y128.985 E.0529
G1 X110.35 Y129.298 E.05295
G1 X109.143 Y129.361 E.05293
G1 X107.975 Y129.176 E.05178
G1 X87.391 Y122.788 E.94377
G1 X86.316 Y122.375 E.05043
G1 X85.302 Y121.717 E.05293
G1 X84.448 Y120.862 E.05292
G1 X83.789 Y119.849 E.05292
G1 X83.356 Y118.72 E.05295
G1 X83.167 Y117.527 E.05289
G1 X83.231 Y116.32 E.05293
G1 X83.519 Y115.242 E.04886
M204 P1000
G1 X83.887 Y115.285 F9000
M204 P800
;TYPE:External perimeter
G1 F1200
G1 X84.401 Y114.277 E.04955
G1 X85.099 Y113.414 E.0486
G1 X113.414 Y85.099 E1.75347
G1 X114.277 Y84.401 E.0486
G1 X115.285 Y83.887 E.04955
G1 X116.378 Y83.594 E.04955
G1 X117.507 Y83.535 E.04951
G1 X118.625 Y83.712 E.04957
G1 X119.681 Y84.118 E.04954
G1 X120.63 Y84.734 E.04954
G1 X121.43 Y85.534 E.04954
G1 X122.047 Y86.483 E.04957
G1 X122.441 Y87.511 E.04821
G1 X128.818 Y108.059 E.94212
G1 X128.993 Y109.163 E.04895
G1 X128.934 Y110.293 E.04955
G1 X128.641 Y111.386 E.04955
G1 X128.127 Y112.394 E.04955
G1 X127.429 Y113.256 E.04857
G1 X113.256 Y127.429 E.8777
G1 X112.394 Y128.127 E.04857
G1 X111.386 Y128.641 E.04955
G1 X110.293 Y128.934 E.04955
G1 X109.163 Y128.993 E.04955
G1 X108.059 Y128.818 E.04895
G1 X87.511 Y122.441 E.94212
G1 X86.483 Y122.047 E.04821
G1 X85.534 Y121.43 E.04957
G1 X84.734 Y120.63 E.04954
G1 X84.118 Y119.681 E.04954
G1 X83.712 Y118.625 E.04954
G1 X83.535 Y117.507 E.04957
G1 X83.594 Y116.378 E.04951
G1 X83.872 Y115.343 E.04693
M204 P1000
G1 X83.635 Y114.974 F9000
G1 E-2.24 F4200
;WIPE_START
G1 F7200
G1 X84.401 Y114.277 E-.65948
G1 X84.742 Y113.855 E-.30052
;WIPE_END
G1 Z.45 F720
G1 X104.977 Y133.937 F9000
G1 Z.25 F720
G1 E3.2 F2400
M204 P800
;TYPE:Perimeter
G1 F1200
G1 X104.913 Y135.157 E.0535
G1 X104.58 Y136.398 E.05626
G1 X103.996 Y137.544 E.05632
G1 X103.187 Y138.543 E.05629
G1 X102.188 Y139.352 E.05629
G1 X101.116 Y139.898 E.05268
G1 X81.207 Y148.43 E.94848
G1 X80.07 Y148.735 E.05155
G1 X55.911 Y152.999 E1.07426
G1 X54.748 Y153.06 E.051
G1 X32.485 Y152.327 E.97541
G1 X31.781 Y152.215 E.03122
G1 X31.068 Y151.942 E.03343
G1 X30.429 Y151.526 E.03339
G1 X29.889 Y150.987 E.03341
G1 X29.474 Y150.347 E.0334
G1 X29.2 Y149.635 E.03341
G1 X29.081 Y148.881 E.03343
G1 X29.121 Y148.119 E.03341
G1 X29.303 Y147.441 E.03074
G1 X34.436 Y134.059 E.62762
G1 X34.993 Y132.967 E.05368
G1 X35.802 Y131.968 E.05629
G1 X36.801 Y131.159 E.05629
G1 X37.915 Y130.591 E.05476
G1 X69.849 Y119.947 E1.474
G1 X71.007 Y119.636 E.0525
G1 X72.291 Y119.569 E.0563
G1 X73.526 Y119.765 E.05476
G1 X100.511 Y128.286 E1.23916
G1 X101.631 Y128.716 E.05253
G1 X102.709 Y129.416 E.05628
G1 X103.618 Y130.325 E.05629
G1 X104.318 Y131.403 E.05628
G1 X104.767 Y132.573 E.05488
G1 X104.98 Y133.877 E.05786
M204 P1000
G1 X104.607 Y133.858 F9000
M204 P800
G1 F1200
G1 X104.549 Y135.099 E.0544
G1 X104.236 Y136.266 E.05291
G1 X103.688 Y137.343 E.05291
G1 X102.927 Y138.282 E.05293
G1 X101.988 Y139.043 E.05293
G1 X100.961 Y139.566 E.05047
G1 X81.087 Y148.083 E.94682
G1 X79.991 Y148.377 E.04969
G1 X55.869 Y152.634 E1.07261
G1 X54.745 Y152.693 E.04929
G1 X32.52 Y151.961 E.97374
G1 X31.876 Y151.859 E.02855
G1 X31.236 Y151.613 E.03002
G1 X30.66 Y151.24 E.03005
G1 X30.175 Y150.755 E.03003
G1 X29.802 Y150.18 E.03001
G1 X29.556 Y149.54 E.03002
G1 X29.449 Y148.862 E.03006
G1 X29.485 Y148.177 E.03004
G1 X29.652 Y147.554 E.02824
G1 X34.771 Y134.208 E.62593
G1 X35.302 Y133.168 E.05113
G1 X36.062 Y132.229 E.0529
G1 X37.001 Y131.468 E.05293
G1 X38.057 Y130.93 E.0519
G1 X69.954 Y120.298 E1.47229
G1 X71.065 Y120 E.05037
G1 X72.272 Y119.937 E.05293
G1 X73.442 Y120.122 E.05187
G1 X100.39 Y128.632 E1.23747
G1 X101.464 Y129.044 E.05037
G1 X102.477 Y129.702 E.0529
G1 X103.332 Y130.557 E.05295
G1 X103.99 Y131.57 E.0529
G1 X104.412 Y132.67 E.05159
G1 X104.597 Y133.798 E.05005
M204 P1000
G1 X104.244 Y133.911 F9000
M204 P800
;TYPE:External perimeter
G1 F1200
G1 X104.185 Y135.041 E.04955
G1 X103.892 Y136.134 E.04955
G1 X103.379 Y137.142 E.04953
G1 X102.666 Y138.022 E.0496
G1 X101.787 Y138.734 E.04953
G1 X100.805 Y139.234 E.04825
G1 X80.967 Y147.736 E.94511
G1 X79.911 Y148.019 E.04787
G1 X55.828 Y152.269 E1.07087
G1 X54.741 Y152.326 E.04766
G1 X32.555 Y151.596 E.97203
G1 X31.971 Y151.503 E.0259
G1 X31.403 Y151.285 E.02664
G1 X30.892 Y150.954 E.02666
G1 X30.462 Y150.523 E.02666
G1 X30.13 Y150.013 E.02665
G1 X29.912 Y149.444 E.02668
G1 X29.817 Y148.843 E.02664
G1 X29.849 Y148.235 E.02666
G1 X30.001 Y147.668 E.02571
G1 X35.107 Y134.357 E.62429
G1 X35.61 Y133.368 E.04859
G1 X36.323 Y132.489 E.04956
G1 X37.202 Y131.777 E.04953
G1 X38.199 Y131.269 E.049
G1 X70.06 Y120.649 E1.47063
G1 X71.123 Y120.364 E.04819
G1 X72.253 Y120.305 E.04955
G1 X73.358 Y120.48 E.04899
G1 X100.269 Y128.978 E1.23577
G1 X101.297 Y129.372 E.04821
G1 X102.245 Y129.989 E.04953
G1 X103.046 Y130.789 E.04957
G1 X103.662 Y131.738 E.04954
G1 X104.056 Y132.766 E.04821
G1 X104.235 Y133.852 E.0482
M204 P1000
G1 X104.601 Y134.093 F9000
G1 E-2.24 F4200
;WIPE_START
G1 F7200
G1 X104.185 Y135.041 E-.65949
G1 X104.045 Y135.565 E-.30051
;WIPE_END
G1 Z.45 F720
G1 X147.846 Y29.194 F9000
G1 Z.25 F720
G1 E3.2 F2400
M204 P800
;TYPE:Perimeter
G1 F1200
G1 X148.12 Y29.121 E.01242
G1 X148.881 Y29.081 E.03337
G1 X149.635 Y29.2 E.03343
G1 X150.347 Y29.474 E.03341
G1 X150.987 Y29.889 E.0334
G1 X151.526 Y30.429 E.03341
G1 X151.942 Y31.068 E.03339
G1 X152.215 Y31.781 E.03343
G1 X152.327 Y32.485 E.03122
G1 X153.06 Y54.748 E.97541
G1 X152.999 Y55.911 E.051
G1 X148.735 Y80.07 E1.07426
G1 X148.43 Y81.207 E.05155
G1 X139.898 Y101.116 E.94848
G1 X139.352 Y102.188 E.05268
G1 X138.543 Y103.187 E.05629
G1 X137.544 Y103.996 E.05629
G1 X136.398 Y104.58 E.05632
G1 X135.157 Y104.913 E.05626
G1 X133.873 Y104.98 E.0563
G1 X132.603 Y104.779 E.0563
G1 X131.403 Y104.318 E.05629
G1 X130.325 Y103.618 E.05628
G1 X129.416 Y102.709 E.05629
G1 X128.716 Y101.631 E.05628
G1 X128.286 Y100.511 E.05253
G1 X119.765 Y73.526 E1.23916
G1 X119.569 Y72.291 E.05476
G1 X119.636 Y71.007 E.0563
G1 X119.947 Y69.849 E.0525
G1 X130.591 Y37.915 E1.474
G1 X131.159 Y36.801 E.05476
G1 X131.968 Y35.802 E.05629
G1 X132.967 Y34.993 E.05629
G1 X134.059 Y34.436 E.05368
G1 X147.441 Y29.303 E.62762
G1 X147.788 Y29.21 E.01573
M204 P1000
G1 X148.266 Y29.48 F9000
M204 P800
G1 F1200
G1 X148.862 Y29.449 E.02613
G1 X149.54 Y29.556 E.03006
G1 X150.18 Y29.802 E.03002
G1 X150.755 Y30.175 E.03001
G1 X151.24 Y30.66 E.03003
G1 X151.613 Y31.236 E.03005
G1 X151.859 Y31.876 E.03002
G1 X151.961 Y32.52 E.02855
G1 X152.693 Y54.745 E.97374
G1 X152.634 Y55.869 E.04929
G1 X148.377 Y79.991 E1.07261
G1 X148.083 Y81.087 E.04969
G1 X139.566 Y100.961 E.94682
G1 X139.043 Y101.988 E.05047
G1 X138.282 Y102.927 E.05293
G1 X137.343 Y103.688 E.05293
G1 X136.266 Y104.236 E.05291
G1 X135.099 Y104.549 E.05291
G1 X133.892 Y104.612 E.05293
G1 X132.699 Y104.423 E.05289
G1 X131.57 Y103.99 E.05295
G1 X130.557 Y103.332 E.0529
G1 X129.702 Y102.477 E.05295
G1 X129.044 Y101.464 E.0529
G1 X128.632 Y100.39 E.05037
G1 X120.122 Y73.442 E1.23747
G1 X119.937 Y72.272 E.05187
G1 X120 Y71.065 E.05293
G1 X120.298 Y69.954 E.05037
G1 X130.93 Y38.057 E1.47229
G1 X131.468 Y37.001 E.0519
M73 P0 R178
G1 X132.229 Y36.062 E.05293
G1 X133.168 Y35.302 E.0529
G1 X134.208 Y34.771 E.05113
G1 X147.554 Y29.652 E.62593
G1 X148.206 Y29.483 E.02949
M204 P1000
G1 X148.546 Y29.832 F9000
M204 P800
;TYPE:External perimeter
G1 F1200
G1 X148.843 Y29.817 E.01302
G1 X149.444 Y29.912 E.02664
G1 X150.013 Y30.13 E.02668
G1 X150.523 Y30.462 E.02665
G1 X150.954 Y30.892 E.02666
G1 X151.285 Y31.403 E.02666
G1 X151.503 Y31.971 E.02664
G1 X151.596 Y32.555 E.0259
G1 X152.326 Y54.741 E.97203
G1 X152.269 Y55.828 E.04766
G1 X148.019 Y79.911 E1.07087
M73 P1 R178
G1 X147.736 Y80.967 E.04787
G1 X139.234 Y100.805 E.94511
G1 X138.734 Y101.787 E.04825
G1 X138.022 Y102.666 E.04953
G1 X137.142 Y103.379 E.0496
G1 X136.134 Y103.892 E.04953
G1 X135.041 Y104.185 E.04955
G1 X133.912 Y104.244 E.04951
G1 X132.794 Y104.067 E.04957
G1 X131.738 Y103.662 E.04953
G1 X130.789 Y103.046 E.04954
G1 X129.989 Y102.245 E.04957
G1 X129.372 Y101.297 E.04953
G1 X128.978 Y100.269 E.04821
G1 X120.48 Y73.358 E1.23577
G1 X120.305 Y72.253 E.04899
G1 X120.364 Y71.123 E.04955
G1 X120.649 Y70.06 E.04819
G1 X131.269 Y38.199 E1.47063
G1 X131.777 Y37.202 E.049
G1 X132.489 Y36.323 E.04953
G1 X133.368 Y35.61 E.04956
G1 X134.357 Y35.107 E.04859
G1 X147.668 Y30.001 E.62429
G1 X148.235 Y29.849 E.02571
G1 X148.486 Y29.835 E.01101
M204 P1000
G1 X148.669 Y29.562 F9000
G1 E-2.24 F4200
;WIPE_START
G1 F7200
G1 X148.843 Y29.817 E-.19809
G1 X149.444 Y29.912 E-.33719
G1 X150.013 Y30.13 E-.33767
G1 X150.145 Y30.216 E-.08705
;WIPE_END
G1 Z.45 F720
G1 X112.249 Y135.432 F9000
G1 Z.25 F720
G1 E3.2 F2400
M204 P800
;TYPE:Perimeter
G1 F1200
G1 X133.816 Y156.999 E1.33559
G1 X133.311 Y157.504 E.03127
G1 X110.734 Y134.927 E1.39813
G1 X108.779 Y136.301 E.10464
G1 X106.052 Y138.092 E.14286
G1 X103.27 Y139.797 E.14288
G1 X100.436 Y141.413 E.14286
G1 X97.553 Y142.94 E.14286
G1 X94.623 Y144.375 E.14286
G1 X91.649 Y145.718 E.14289
G1 X88.635 Y146.967 E.14286
G1 X85.583 Y148.12 E.14286
G1 X82.496 Y149.177 E.14288
G1 X79.378 Y150.136 E.14285
G1 X76.231 Y150.997 E.14287
G1 X73.058 Y151.759 E.14289
G1 X69.863 Y152.42 E.14287
G1 X66.649 Y152.981 E.14287
G1 X63.419 Y153.441 E.14287
G1 X60.176 Y153.799 E.14287
G1 X56.924 Y154.055 E.14284
G1 X53.689 Y154.207 E.14181
G1 X50.403 Y154.26 E.14391
G1 X47.14 Y154.209 E.1429
G1 X43.881 Y154.055 E.14287
G1 X40.629 Y153.799 E.14284
G1 X37.386 Y153.441 E.14287
G1 X34.156 Y152.981 E.14287
G1 X30.942 Y152.42 E.14287
G1 X27.747 Y151.758 E.14288
G1 X24.574 Y150.997 E.14288
G1 X22.622 Y150.463 E.08862
G1 X31.296 Y126.631 E1.11056
G1 X33.586 Y126.485 E.10048
G1 X35.175 Y126.347 E.06984
G1 X37.933 Y126.046 E.12149
G1 X39.907 Y125.787 E.08718
G1 X43.04 Y125.291 E.1389
G1 X44.61 Y125.004 E.06989
G1 X47.714 Y124.362 E.1388
G1 X49.269 Y124.001 E.0699
G1 X52.339 Y123.213 E.13879
G1 X53.875 Y122.78 E.06988
G1 X56.905 Y121.848 E.13882
G1 X58.416 Y121.344 E.06975
G1 X59.932 Y120.811 E.07037
G1 X62.884 Y119.695 E.13819
G1 X64.363 Y119.096 E.06987
G1 X67.276 Y117.836 E.13898
G1 X70.147 Y116.485 E.13894
G1 X71.575 Y115.771 E.06991
G1 X74.377 Y114.288 E.13882
G1 X75.766 Y113.51 E.06971
G1 X77.143 Y112.71 E.06974
G1 X79.846 Y111.053 E.13883
G1 X81.184 Y110.19 E.06972
G1 X82.52 Y109.297 E.07037
G1 X85.101 Y107.482 E.13817
G1 X86.382 Y106.536 E.06973
G1 X87.648 Y105.57 E.06973
G1 X90.125 Y103.586 E.13897
G1 X92.538 Y101.525 E.13896
G1 X93.724 Y100.462 E.06974
G1 X94.894 Y99.381 E.06975
G1 X97.173 Y97.173 E.13895
G1 X99.381 Y94.894 E.13895
G1 X100.462 Y93.724 E.06975
G1 X101.525 Y92.538 E.06974
G1 X103.586 Y90.125 E.13896
G1 X105.57 Y87.648 E.13897
G1 X106.538 Y86.379 E.06989
G1 X108.402 Y83.815 E.13881
G1 X109.307 Y82.505 E.06972
G1 X110.2 Y81.168 E.0704
G1 X111.892 Y78.501 E.13831
G1 X113.508 Y75.769 E.13899
G1 X114.288 Y74.377 E.06987
G1 X115.771 Y71.575 E.13882
G1 X116.485 Y70.147 E.06991
G1 X117.836 Y67.276 E.13894
G1 X119.096 Y64.363 E.13898
G1 X119.695 Y62.884 E.06987
G1 X120.816 Y59.918 E.13885
G1 X121.344 Y58.416 E.06972
G1 X121.848 Y56.905 E.06975
G1 X122.78 Y53.875 E.13882
G1 X123.217 Y52.325 E.07052
G1 X124.001 Y49.269 E.13815
G1 X124.362 Y47.714 E.0699
G1 X125.004 Y44.61 E.1388
G1 X125.291 Y43.04 E.06989
G1 X125.787 Y39.909 E.13881
G1 X126.001 Y38.312 E.07056
G1 X126.347 Y35.176 E.13816
G1 X126.485 Y33.586 E.06989
G1 X126.631 Y31.296 E.10048
G1 X150.463 Y22.622 E1.11056
G1 X150.997 Y24.574 E.08862
G1 X151.758 Y27.747 E.14288
G1 X152.42 Y30.942 E.14288
G1 X152.981 Y34.156 E.14287
G1 X153.441 Y37.386 E.14287
G1 X153.799 Y40.629 E.14287
G1 X154.055 Y43.881 E.14284
G1 X154.209 Y47.14 E.14287
G1 X154.26 Y50.403 E.1429
G1 X154.209 Y53.665 E.14286
