; generated by PrusaSlicer 2.6.0-alpha0 on 2023-02-28 at 19:38:36 UTC

; 
;

; 
;

; 
;

; 

; external perimeters extrusion width = 0.45mm
; perimeters extrusion width = 0.45mm
; infill extrusion width = 0.45mm
; solid infill extrusion width = 0.45mm
; top infill extrusion width = 0.40mm
; support material extrusion width = 0.35mm
; first layer extrusion width = 0.42mm

M73 P0 R163
M201 X2500 Y2500 Z400 E5000 ; sets maximum accelerations, mm/sec^2
M203 X180 Y180 Z12 E80 ; sets maximum feedrates, mm / sec
M204 P1250 R1250 T2500 ; sets acceleration (P, T) and retract acceleration (R), mm/sec^2
M205 X8.00 Y8.00 Z2.00 E10.00 ; sets the jerk limits, mm/sec
M205 S0 T0 ; sets the minimum extruding and travel feed rate, mm/sec
M107
;TYPE:Custom
M862.3 P "MINI" ; printer model check
G90 ; use absolute coordinates
M83 ; extruder relative mode
M104 S170 ; set extruder temp for bed leveling
M140 S60 ; set bed temp
M109 R170 ; wait for bed leveling temp
M190 S60 ; wait for bed temp
M204 T1250 ; set travel acceleration
G28 ; home all without mesh bed level
G29 ; mesh bed leveling 
M204 T2500 ; restore travel acceleration
M104 S215 ; set extruder temp
G92 E0
G1 Y-2 X179 F2400
G1 Z3 F720
M109 S215 ; wait for extruder temp

; intro line
G1 X170 F1000
G1 Z0.2 F720
G1 X110 E8 F900
G1 X40 E10 F700
G92 E0

M221 S95 ; set flow
G21 ; set units to millimeters
G90 ; use absolute coordinates
M83 ; use relative distances for extrusion
M900 K0.05 ; Filament gcode LA 1.5
M900 K30 ; Filament gcode LA 1.0
M107
;LAYER_CHANGE
;Z:0.25
;HEIGHT:0.25
;BEFORE_LAYER_CHANGE
G92 E0.0
;0.25


G1 E-3.2 F4200
M73 P0 R162
G1 Z.2 F720
G1 Z.25
;AFTER_LAYER_CHANGE
;0.25
G1 Z.45
G1 X45.212 Y32.298 F9000
G1 Z.25 F720
G1 E3.2 F2400
M204 P800
;TYPE:Skirt/Brim
;WIDTH:0.42
G1 F1200
G1 X45.503 Y31.897 E.0217
G1 X46.318 Y31.069 E.05087
G1 X47.287 Y30.429 E.05085
G1 X48.369 Y30.004 E.0509
G1 X49.024 Y29.865 E.02932
G1 X49.516 Y29.813 E.02166
G1 X83.934 Y29.813 E1.50714
G1 X84.427 Y29.865 E.02171
G1 X85.551 Y30.157 E.05085
G1 X86.162 Y30.429 E.02929
G1 X87.34 Y31.239 E.0626
G1 X132.137 Y72.301 E2.66102
G1 X133.485 Y73.782 E.08769
G1 X134.664 Y75.721 E.09937
G1 X135.332 Y77.61 E.08774
G1 X135.448 Y78.341 E.03241
G1 X135.448 Y138.341 E2.62735
G1 X135.057 Y139.645 E.05961
G1 X133.619 Y140.646 E.07672
G1 X83.615 Y152.289 E2.24821
G1 X83.079 Y152.35 E.02362
G1 X76.157 Y152.35 E.30311
G1 X74.484 Y151.657 E.0793
G1 X69.87 Y147.043 E.28573
G1 X69.431 Y146.437 E.03277
G1 X44.815 Y97.731 E2.38971
G1 X44.469 Y96.758 E.04522
G1 X44.284 Y95.366 E.06149
G1 X44.297 Y35.115 E2.63835
G1 X44.469 Y33.965 E.05092
G1 X44.676 Y33.329 E.02929
G1 X45.184 Y32.351 E.04826
M204 P1000
; printing object 0 id:0 copy 0
G1 E-2.24 F4200
;WIPE_START
G1 F7200
G1 X45.503 Y31.897 E-.30749
G1 X46.318 Y31.069 E-.64384
G1 X46.331 Y31.06 E-.00867
;WIPE_END
G1 Z.45 F720
G1 X71.543 Y74.232 F9000
G1 Z.25 F720
G1 E3.2 F2400
M204 P800
;TYPE:Support material interface
;WIDTH:0.35
G1 F1200
G1 X71.543 Y73.85 E.01353
G1 X71.745 Y73.85 E.00716
G1 X71.745 Y85.386 E.40863
G1 X72.252 Y85.386 E.01796
G1 X72.252 Y73.85 E.40863
G1 X72.759 Y73.85 E.01796
G1 X72.759 Y85.386 E.40863
G1 X73.266 Y85.386 E.01796
G1 X73.266 Y73.85 E.40863
G1 X73.62 Y73.85 E.01254
M204 P1000
G1 E-2.24 F4200
;WIPE_START
G1 F7200
G1 X73.266 Y73.85 E-.19617
G1 X73.266 Y75.228 E-.76383
;WIPE_END
G1 Z.45 F720
G1 X79.597 Y72.207 F9000
G1 Z.25 F720
G1 E3.2 F2400
M204 P800
G1 F1200
G1 X79.72 Y72.332 E.00621
G1 X79.858 Y72.332 E.00489
G1 X79.858 Y78.465 E.21724
G1 X80.365 Y78.465 E.01796
G1 X80.366 Y72.332 E.21724
G1 X80.694 Y72.332 E.01162
G1 X80.873 Y72.37 E.00648
G1 X80.873 Y78.465 E.2159
G1 X81.38 Y78.465 E.01796
G1 X81.38 Y72.478 E.21207
G1 X81.887 Y72.585 E.01835
G1 X81.887 Y78.465 E.20828
G1 X82.394 Y78.465 E.01796
G1 X82.394 Y72.705 E.20403
G1 X82.901 Y72.93 E.01965
G1 X82.901 Y78.465 E.19606
G1 X83.079 Y78.465 E.00631
G1 X83.079 Y80.772 E.08172
G1 X82.901 Y80.772 E.00631
G1 X82.901 Y90 E.32688
G1 X82.394 Y90 E.01796
G1 X82.394 Y80.772 E.32688
G1 X81.887 Y80.772 E.01796
G1 X81.887 Y90 E.32688
G1 X81.38 Y90 E.01796
G1 X81.38 Y80.772 E.32688
G1 X80.873 Y80.772 E.01796
G1 X80.873 Y90 E.32688
G1 X80.365 Y90 E.01799
G1 X80.365 Y83.079 E.24516
G1 X79.858 Y83.079 E.01796
G1 X79.858 Y90 E.24516
G1 X79.351 Y90 E.01796
G1 X79.351 Y83.079 E.24516
G1 X78.844 Y83.079 E.01796
G1 X78.844 Y90 E.24516
G1 X78.465 Y90 E.01343
G1 X78.465 Y87.693 E.08172
G1 X78.337 Y87.693 E.00453
G1 X78.337 Y71.543 E.57207
G1 X78.844 Y71.543 E.01796
G1 X78.844 Y78.465 E.24519
G1 X79.351 Y78.465 E.01796
G1 X79.351 Y71.543 E.24519
M204 P1000
G1 X78.184 Y71.543 F9000
M204 P800
G1 F1200
G1 X77.83 Y71.543 E.01254
G1 X77.83 Y87.693 E.57207
G1 X77.323 Y87.693 E.01796
G1 X77.323 Y71.543 E.57207
G1 X76.816 Y71.543 E.01796
G1 X76.816 Y87.693 E.57207
G1 X76.309 Y87.693 E.01796
G1 X76.309 Y71.543 E.57207
G1 X75.802 Y71.543 E.01796
G1 X75.802 Y87.693 E.57207
G1 X75.295 Y87.693 E.01796
G1 X75.295 Y71.543 E.57207
G1 X74.788 Y71.543 E.01796
G1 X74.788 Y87.693 E.57207
G1 X74.281 Y87.693 E.01796
G1 X74.281 Y71.543 E.57207
G1 X73.85 Y71.543 E.01527
G1 X73.85 Y73.85 E.08172
G1 X73.773 Y73.85 E.00273
G1 X73.773 Y85.386 E.40863
G1 X73.85 Y85.386 E.00273
G1 X73.85 Y87.693 E.08172
M204 P1000
G1 E-2.24 F4200
;WIPE_START
G1 F7200
G1 X73.85 Y85.961 E-.96
;WIPE_END
G1 Z.45 F720
G1 X83.147 Y87.693 F9000
G1 Z.25 F720
G1 E3.2 F2400
M204 P800
G1 F1200
G1 X83.408 Y87.693 E.00925
G1 X83.408 Y76.158 E.4086
G1 X83.915 Y76.158 E.01796
G1 X83.915 Y87.693 E.4086
G1 X84.422 Y87.693 E.01796
G1 X84.422 Y76.158 E.4086
G1 X84.929 Y76.158 E.01796
G1 X84.929 Y87.693 E.4086
G1 X85.386 Y87.693 E.01619
G1 X85.386 Y85.386 E.08172
G1 X85.436 Y85.386 E.00177
G1 X85.436 Y76.158 E.32688
G1 X85.943 Y76.158 E.01796
G1 X85.943 Y85.386 E.32688
G1 X86.45 Y85.386 E.01796
G1 X86.45 Y76.158 E.32688
G1 X86.695 Y76.158 E.00868
G1 X86.958 Y76.613 E.01862
G1 X86.958 Y85.386 E.31076
G1 X87.465 Y85.386 E.01796
G1 X87.465 Y77.812 E.26829
M204 P1000
G1 E-2.24 F4200
;WIPE_START
G1 F7200
G1 X87.465 Y79.544 E-.96
;WIPE_END
G1 Z.45 F720
G1 X87.71 Y80.772 F9000
G1 Z.25 F720
G1 E3.2 F2400
M204 P800
G1 F1200
G1 X87.972 Y80.772 E.00928
G1 X87.972 Y80.138 E.02246
G1 X88.135 Y80.285 E.00778
G1 X88.479 Y80.285 E.01219
G1 X88.479 Y80.772 E.01725
G1 X88.986 Y80.772 E.01796
G1 X88.986 Y80.285 E.01725
G1 X89.493 Y80.285 E.01796
G1 X89.493 Y80.772 E.01725
G1 X90 Y80.772 E.01796
G1 X90 Y80.285 E.01725
M204 P1000
G1 E-2.24 F4200
;WIPE_START
G1 F7200
G1 X90 Y80.772 E-.26988
G1 X89.493 Y80.772 E-.28096
G1 X89.493 Y80.285 E-.26988
G1 X89.242 Y80.285 E-.13928
;WIPE_END
G1 Z.45 F720
G1 X71.543 Y134.216 F9000
G1 Z.25 F720
G1 E3.2 F2400
M204 P800
G1 F1200
G1 X71.543 Y133.835 E.0135
G1 X71.745 Y133.835 E.00716
G1 X71.745 Y145.37 E.4086
G1 X72.252 Y145.37 E.01796
G1 X72.252 Y133.835 E.4086
G1 X72.759 Y133.835 E.01796
G1 X72.759 Y145.37 E.4086
G1 X73.266 Y145.37 E.01796
G1 X73.266 Y133.835 E.4086
G1 X73.62 Y133.835 E.01254
M204 P1000
G1 E-2.24 F4200
;WIPE_START
G1 F7200
G1 X73.266 Y133.835 E-.19617
G1 X73.266 Y135.213 E-.76383
;WIPE_END
G1 Z.45 F720
G1 X79.597 Y132.207 F9000
G1 Z.25 F720
G1 E3.2 F2400
M204 P800
G1 F1200
G1 X79.72 Y132.332 E.00621
G1 X79.858 Y132.332 E.00489
G1 X79.858 Y138.449 E.21668
G1 X80.365 Y138.449 E.01796
G1 X80.365 Y132.332 E.21668
G1 X80.694 Y132.332 E.01165
G1 X80.873 Y132.37 E.00648
G1 X80.873 Y138.449 E.21533
G1 X81.38 Y138.449 E.01796
G1 X81.38 Y132.478 E.21151
G1 X81.887 Y132.585 E.01835
G1 X81.887 Y138.449 E.20772
G1 X82.394 Y138.449 E.01796
G1 X82.394 Y132.705 E.20347
G1 X82.901 Y132.93 E.01965
G1 X82.901 Y138.449 E.1955
G1 X83.079 Y138.449 E.00631
G1 X83.079 Y140.756 E.08172
G1 X82.901 Y140.756 E.00631
G1 X82.901 Y149.984 E.32688
G1 X82.394 Y149.984 E.01796
G1 X82.394 Y140.756 E.32688
G1 X81.887 Y140.756 E.01796
G1 X81.887 Y149.984 E.32688
G1 X81.38 Y149.984 E.01796
G1 X81.38 Y140.756 E.32688
G1 X80.873 Y140.756 E.01796
G1 X80.873 Y149.984 E.32688
G1 X80.365 Y149.984 E.01799
G1 X80.365 Y143.063 E.24516
G1 X79.858 Y143.063 E.01796
G1 X79.858 Y149.984 E.24516
G1 X79.351 Y149.984 E.01796
G1 X79.351 Y143.063 E.24516
G1 X78.844 Y143.063 E.01796
G1 X78.844 Y149.984 E.24516
G1 X78.337 Y149.984 E.01796
G1 X78.337 Y131.527 E.65379
G1 X78.844 Y131.527 E.01796
G1 X78.844 Y138.449 E.24519
G1 X79.351 Y138.449 E.01796
G1 X79.351 Y131.527 E.24519
M204 P1000
G1 X78.184 Y131.527 F9000
M204 P800
G1 F1200
G1 X77.83 Y131.527 E.01254
G1 X77.83 Y149.984 E.65379
G1 X77.323 Y149.984 E.01796
G1 X77.323 Y131.527 E.65379
G1 X76.816 Y131.527 E.01796
M73 P0 R161
G1 X76.816 Y149.984 E.65379
G1 X76.309 Y149.984 E.01796
G1 X76.309 Y131.527 E.65379
M204 P1000
G1 E-2.24 F4200
;WIPE_START
G1 F7200
G1 X76.309 Y133.259 E-.96
;WIPE_END
G1 Z.45 F720
G1 X76.063 Y133.835 F9000
G1 Z.25 F720
G1 E3.2 F2400
M204 P800
G1 F1200
G1 X75.802 Y133.835 E.00925
G1 X75.802 Y147.677 E.49031
G1 X75.295 Y147.677 E.01796
G1 X75.295 Y133.835 E.49031
G1 X74.788 Y133.835 E.01796
G1 X74.788 Y147.677 E.49031
G1 X74.281 Y147.677 E.01796
G1 X74.281 Y133.835 E.49031
G1 X73.773 Y133.835 E.01799
G1 X73.773 Y145.37 E.4086
G1 X73.85 Y145.37 E.00273
G1 X73.85 Y147.677 E.08172
M204 P1000
G1 E-2.24 F4200
;WIPE_START
G1 F7200
G1 X73.85 Y145.945 E-.96
;WIPE_END
G1 Z.45 F720
G1 X83.147 Y147.677 F9000
G1 Z.25 F720
G1 E3.2 F2400
M204 P800
G1 F1200
G1 X83.408 Y147.677 E.00925
G1 X83.408 Y133.835 E.49031
G1 X83.915 Y133.835 E.01796
G1 X83.915 Y147.677 E.49031
G1 X84.422 Y147.677 E.01796
G1 X84.422 Y133.835 E.49031
G1 X84.527 Y133.835 E.00372
G1 X84.929 Y134.127 E.0176
G1 X84.929 Y147.677 E.47997
G1 X85.386 Y147.677 E.01619
G1 X85.386 Y145.37 E.08172
G1 X85.436 Y145.37 E.00177
G1 X85.436 Y136.142 E.32688
G1 X85.386 Y136.142 E.00177
G1 X85.386 Y134.51 E.05781
M204 P1000
G1 E-2.24 F4200
;WIPE_START
G1 F7200
G1 X85.386 Y136.142 E-.9044
G1 X85.436 Y136.142 E-.02771
G1 X85.436 Y136.192 E-.02789
;WIPE_END
G1 Z.45 F720
G1 X85.59 Y136.142 F9000
G1 Z.25 F720
G1 E3.2 F2400
M204 P800
G1 F1200
G1 X85.943 Y136.142 E.0125
G1 X85.943 Y145.37 E.32688
G1 X86.45 Y145.37 E.01796
G1 X86.45 Y136.142 E.32688
G1 X86.686 Y136.142 E.00836
G1 X86.958 Y136.613 E.01927
G1 X86.958 Y145.37 E.31019
G1 X87.465 Y145.37 E.01796
G1 X87.465 Y137.812 E.26772
M204 P1000
G1 E-2.24 F4200
;WIPE_START
G1 F7200
G1 X87.465 Y139.544 E-.96
;WIPE_END
G1 Z.45 F720
G1 X87.71 Y140.756 F9000
G1 Z.25 F720
G1 E3.2 F2400
M204 P800
G1 F1200
G1 X87.972 Y140.756 E.00928
G1 X87.972 Y140.138 E.02189
G1 X88.135 Y140.285 E.00778
G1 X88.479 Y140.285 E.01219
G1 X88.479 Y140.756 E.01668
G1 X88.986 Y140.756 E.01796
G1 X88.986 Y140.285 E.01668
G1 X89.493 Y140.285 E.01796
G1 X89.493 Y140.756 E.01668
G1 X90 Y140.756 E.01796
G1 X90 Y140.285 E.01668
M204 P1000
G1 E-2.24 F4200
;WIPE_START
G1 F7200
G1 X90 Y140.756 E-.26101
G1 X89.493 Y140.756 E-.28096
G1 X89.493 Y140.285 E-.26101
G1 X89.21 Y140.285 E-.15702
;WIPE_END
G1 Z.45 F720
G1 X92.014 Y133.88 F9000
G1 Z.25 F720
G1 E3.2 F2400
M204 P800
;TYPE:Perimeter
;WIDTH:0.42
G1 F1200
G1 X91.056 Y132.22 E.08393
G1 X89.118 Y130.068 E.12681
G1 X86.207 Y127.954 E.15754
G1 X86.207 Y112.102 E.69415
G1 X86.296 Y111.258 E.03716
G1 X86.577 Y110.393 E.03983
G1 X87.032 Y109.606 E.03981
G1 X87.64 Y108.93 E.03981
G1 X88.376 Y108.395 E.03984
G1 X89.206 Y108.026 E.03978
G1 X90.095 Y107.837 E.0398
G1 X91.005 Y107.837 E.03985
G1 X91.894 Y108.026 E.0398
G1 X92.725 Y108.395 E.03982
G1 X93.436 Y108.912 E.03849
G1 X111.02 Y126.497 E1.08896
G1 X111.568 Y127.106 E.03587
G1 X112.023 Y127.893 E.03981
G1 X112.304 Y128.758 E.03983
G1 X112.399 Y129.662 E.0398
G1 X112.304 Y130.566 E.0398
G1 X112.023 Y131.431 E.03983
G1 X111.568 Y132.218 E.03981
G1 X110.96 Y132.894 E.03981
G1 X110.225 Y133.428 E.03978
G1 X109.394 Y133.798 E.03983
G1 X108.505 Y133.987 E.0398
G1 X92.076 Y133.987 E.71941
G1 X92.044 Y133.932 E.00279
M204 P1000
G1 X92.256 Y133.567 F9000
M204 P800
G1 F1200
G1 X91.354 Y132.004 E.07902
G1 X89.365 Y129.795 E.13016
G1 X86.574 Y127.767 E.15107
G1 X86.574 Y112.121 E.68513
G1 X86.656 Y111.334 E.03465
G1 X86.914 Y110.543 E.03643
G1 X87.33 Y109.822 E.03645
G1 X87.886 Y109.204 E.0364
G1 X88.56 Y108.714 E.03649
G1 X89.32 Y108.376 E.03642
G1 X90.134 Y108.203 E.03644
G1 X90.966 Y108.203 E.03643
G1 X91.78 Y108.376 E.03644
G1 X92.54 Y108.714 E.03642
G1 X93.197 Y109.192 E.03558
G1 X110.755 Y126.749 E1.08729
G1 X111.27 Y127.322 E.03374
G1 X111.686 Y128.043 E.03645
G1 X111.944 Y128.834 E.03643
G1 X112.031 Y129.662 E.03646
G1 X111.944 Y130.489 E.03641
G1 X111.686 Y131.281 E.03647
G1 X111.27 Y132.002 E.03645
G1 X110.714 Y132.62 E.0364
G1 X110.04 Y133.109 E.03646
G1 X109.28 Y133.448 E.03644
G1 X108.466 Y133.621 E.03644
G1 X92.286 Y133.619 E.70851
M204 P1000
G1 X92.499 Y133.254 F9000
M204 P800
;TYPE:External perimeter
G1 F1200
G1 X91.652 Y131.787 E.07418
G1 X89.611 Y129.521 E.13354
G1 X86.94 Y127.58 E.14458
G1 X86.94 Y112.14 E.67611
G1 X87.017 Y111.411 E.0321
G1 X87.25 Y110.693 E.03305
G1 X87.628 Y110.039 E.03308
G1 X88.133 Y109.477 E.03309
G1 X88.744 Y109.033 E.03307
G1 X89.434 Y108.726 E.03307
G1 X90.172 Y108.569 E.03304
G1 X90.928 Y108.569 E.0331
G1 X91.666 Y108.726 E.03304
G1 X92.356 Y109.033 E.03307
G1 X92.958 Y109.471 E.0326
G1 X110.489 Y127.001 E1.08562
G1 X110.972 Y127.539 E.03166
M73 P1 R161
G1 X111.35 Y128.193 E.03308
G1 X111.583 Y128.911 E.03305
G1 X111.662 Y129.662 E.03307
G1 X111.583 Y130.413 E.03307
G1 X111.35 Y131.131 E.03305
G1 X110.972 Y131.785 E.03308
G1 X110.467 Y132.346 E.03305
G1 X109.856 Y132.79 E.03307
G1 X109.166 Y133.097 E.03307
G1 X108.428 Y133.254 E.03304
G1 X92.559 Y133.254 E.69489
M204 P1000
G1 X92.123 Y133.392 F9000
G1 E-2.24 F4200
;WIPE_START
G1 F7200
G1 X91.652 Y131.787 E-.9558
G1 X91.647 Y131.781 E-.0042
;WIPE_END
G1 Z.45 F720
G1 X81.309 Y112.402 F9000
G1 Z.25 F720
G1 E3.2 F2400
M204 P800
;TYPE:Perimeter
G1 F1200
G1 X79.636 Y112.402 E.07326
G1 X79.216 Y112.312 E.01881
G1 X78.738 Y112.1 E.0229
G1 X50.553 Y98.007 E1.37989
G1 X50.699 Y97.976 E.00654
G1 X51.225 Y97.742 E.02521
G1 X51.689 Y97.405 E.02511
G1 X52.074 Y96.978 E.02518
G1 X52.361 Y96.48 E.02517
G1 X52.539 Y95.933 E.02519
G1 X52.599 Y95.362 E.02514
G1 X52.539 Y94.79 E.02518
G1 X52.361 Y94.244 E.02515
G1 X52.074 Y93.746 E.02517
G1 X51.692 Y93.322 E.02499
G1 X83.814 Y93.322 E1.4066
G1 X84.234 Y93.411 E.0188
G1 X84.626 Y93.586 E.0188
G1 X85.017 Y93.87 E.02116
G1 X128.356 Y133.596 E2.57443
G1 X127.214 Y133.087 E.05475
G1 X125.649 Y132.755 E.07006
G1 X124.051 Y132.755 E.06998
G1 X122.486 Y133.087 E.07006
G1 X121.025 Y133.738 E.07004
G1 X119.758 Y134.659 E.06859
G1 X115.673 Y138.719 E.2522
G1 X89.326 Y138.719 E1.15372
G1 X89.288 Y138.356 E.01598
G1 X88.665 Y136.437 E.08835
G1 X87.656 Y134.69 E.08834
G1 X86.306 Y133.191 E.08834
G1 X84.675 Y132.006 E.08828
G1 X82.832 Y131.185 E.08835
G1 X81.055 Y130.808 E.07955
G1 X81.308 Y112.462 E.80343
M204 P1000
G1 E-2.24 F4200
;WIPE_START
G1 F7200
G1 X79.636 Y112.402 E-.92716
G1 X79.578 Y112.39 E-.03284
;WIPE_END
G1 Z.45 F720
G1 X47.665 Y96.299 F9000
G1 Z.25 F720
G1 E3.2 F2400
M204 P800
G1 F1200
G1 X47.521 Y95.857 E.02036
G1 X47.469 Y95.362 E.02179
G1 X47.521 Y94.867 E.02179
G1 X47.675 Y94.394 E.02178
G1 X47.924 Y93.962 E.02183
G1 X48.257 Y93.593 E.02177
G1 X48.66 Y93.3 E.02182
G1 X49.114 Y93.098 E.02176
G1 X49.601 Y92.994 E.02181
G1 X50.099 Y92.994 E.02181
G1 X50.586 Y93.098 E.02181
G1 X51.04 Y93.3 E.02176
G1 X51.443 Y93.593 E.02182
G1 X51.776 Y93.962 E.02177
G1 X52.025 Y94.394 E.02183
G1 X52.179 Y94.867 E.02178
G1 X52.231 Y95.362 E.02179
G1 X52.179 Y95.857 E.02179
G1 X52.025 Y96.33 E.02178
G1 X51.776 Y96.761 E.0218
G1 X51.443 Y97.131 E.0218
G1 X51.04 Y97.423 E.02179
G1 X50.586 Y97.626 E.02178
G1 X50.099 Y97.729 E.0218
G1 X49.601 Y97.729 E.02181
G1 X49.114 Y97.626 E.0218
G1 X48.66 Y97.423 E.02178
G1 X48.257 Y97.131 E.02179
G1 X47.924 Y96.761 E.0218
G1 X47.689 Y96.354 E.02058
M204 P1000
G1 X48.012 Y96.18 F9000
M204 P800
;TYPE:External perimeter
G1 F1200
G1 X47.882 Y95.78 E.01842
G1 X47.838 Y95.362 E.01841
G1 X47.882 Y94.943 E.01845
G1 X48.012 Y94.543 E.01842
G1 X48.222 Y94.179 E.0184
G1 X48.504 Y93.866 E.01845
G1 X48.844 Y93.619 E.0184
G1 X49.228 Y93.448 E.01841
G1 X49.64 Y93.361 E.01844
G1 X50.06 Y93.361 E.01839
G1 X50.472 Y93.448 E.01844
