; generated by PrusaSlicer 2.5.0+linux-x64-GTK3 on 2023-03-10 at 14:34:25 UTC

; 
;

; 
;

; 
;

; 

; external perimeters extrusion width = 0.45mm
; perimeters extrusion width = 0.45mm
; infill extrusion width = 0.45mm
; solid infill extrusion width = 0.45mm
; top infill extrusion width = 0.40mm
; first layer extrusion width = 0.42mm

M73 P0 R10
M201 X2500 Y2500 Z400 E5000 ; sets maximum accelerations, mm/sec^2
M203 X180 Y180 Z12 E80 ; sets maximum feedrates, mm / sec
M204 P1250 R1250 T2500 ; sets acceleration (P, T) and retract acceleration (R), mm/sec^2
M205 X8.00 Y8.00 Z2.00 E10.00 ; sets the jerk limits, mm/sec
M205 S0 T0 ; sets the minimum extruding and travel feed rate, mm/sec
M107
;TYPE:Custom
M862.3 P "MINI" ; printer model check
G90 ; use absolute coordinates
M83 ; extruder relative mode
M104 S170 ; set extruder temp for bed leveling
M140 S60 ; set bed temp
M109 R170 ; wait for bed leveling temp
M190 S60 ; wait for bed temp
M204 T1250 ; set travel acceleration
G28 ; home all without mesh bed level
G29 ; mesh bed leveling 
M204 T2500 ; restore travel acceleration
M104 S215 ; set extruder temp
G92 E0
G1 Y-2 X179 F2400
G1 Z3 F720
M109 S215 ; wait for extruder temp

; intro line
G1 X170 F1000
G1 Z0.2 F720
G1 X110 E8 F900
G1 X40 E10 F700
G92 E0

M221 S95 ; set flow
G21 ; set units to millimeters
G90 ; use absolute coordinates
M83 ; use relative distances for extrusion
M900 K0.05 ; Filament gcode LA 1.5
M900 K30 ; Filament gcode LA 1.0
M107
;LAYER_CHANGE
;Z:0.2
;HEIGHT:0.2
;BEFORE_LAYER_CHANGE
G92 E0.0
;0.2


M73 P1 R10
G1 E-3.2 F4200
M73 P2 R10
G1 Z.2 F720
;AFTER_LAYER_CHANGE
;0.2
G1 Z.4
G1 X63.453 Y84.353 F9000
G1 Z.2 F720
G1 E3.2 F2400
M204 P800
;TYPE:Skirt/Brim
;WIDTH:0.42
G1 F1200
G1 X64.704 Y83.739 E.04284
G1 X66.056 Y83.398 E.04284
G1 X66.551 Y83.346 E.01527
G1 X113.45 Y83.346 E1.44107
G1 X113.944 Y83.398 E.01527
M73 P3 R10
G1 X115.296 Y83.739 E.04284
G1 X116.547 Y84.353 E.04284
G1 X117.275 Y84.881 E.02762
G1 X118.245 Y85.882 E.04284
G1 X118.987 Y87.063 E.04284
G1 X119.467 Y88.371 E.04283
G1 X119.664 Y89.751 E.04284
G1 X119.664 Y90.249 E.01527
G1 X119.467 Y91.629 E.04284
G1 X118.987 Y92.937 E.04283
G1 X118.245 Y94.118 E.04284
G1 X117.644 Y94.786 E.02762
G1 X117.274 Y95.119 E.01527
G1 X116.117 Y95.895 E.04284
G1 X115.296 Y96.261 E.02762
G1 X113.944 Y96.602 E.04284
G1 X113.45 Y96.654 E.01527
G1 X66.551 Y96.654 E1.44107
G1 X66.056 Y96.602 E.01527
G1 X64.704 Y96.261 E.04284
G1 X63.453 Y95.647 E.04284
G1 X62.726 Y95.119 E.02762
G1 X61.755 Y94.118 E.04284
G1 X61.463 Y93.716 E.01527
G1 X60.811 Y92.484 E.04284
G1 X60.43 Y91.143 E.04284
G1 X60.336 Y89.752 E.04284
G1 X60.43 Y88.857 E.02762
G1 X60.811 Y87.516 E.04284
G1 X61.463 Y86.284 E.04284
G1 X62.356 Y85.214 E.04284
G1 X63.406 Y84.39 E.041
M204 P1000
; printing object  id:0 copy 0
G1 E-2.24 F4200
;WIPE_START
G1 F7200
G1 X64.704 Y83.739 E-.80512
G1 X64.891 Y83.692 E-.10688
;WIPE_END
G1 E-.048 F4200
G1 Z.4 F720
G1 X63.867 Y90 F9000
G1 Z.2 F720
G1 E3.2 F2400
M204 P800
;TYPE:Perimeter
;WIDTH:0.412986
G1 F1200
G1 X63.88 Y89.864 E.00413
;WIDTH:0.409907
G1 X63.976 Y89.218 E.01953
G1 X64.205 Y88.606 E.01952
G1 X64.556 Y88.056 E.01953
G1 X65.014 Y87.59 E.01953
G1 X65.558 Y87.23 E.01953
G1 X66.166 Y86.99 E.01953
G1 X66.809 Y86.883 E.01952
;WIDTH:0.422291
G1 X68.057 Y86.888 E.03856
;WIDTH:0.419999
G1 X112.81 Y86.883 E1.37513
;WIDTH:0.409907
G1 X113.462 Y86.911 E.01952
M73 P4 R10
G1 X114.094 Y87.075 E.01953
G1 X114.678 Y87.366 E.01953
G1 X115.189 Y87.773 E.01953
G1 X115.604 Y88.276 E.01952
G1 X115.906 Y88.856 E.01954
G1 X116.08 Y89.485 E.01951
G1 X116.12 Y90.137 E.01953
G1 X116.024 Y90.782 E.01952
G1 X115.795 Y91.394 E.01953
G1 X115.444 Y91.944 E.01952
G1 X114.986 Y92.41 E.01952
G1 X114.442 Y92.77 E.01953
G1 X113.834 Y93.01 E.01953
G1 X113.19 Y93.117 E.01952
;WIDTH:0.422289
G1 X111.943 Y93.112 E.03855
;WIDTH:0.419999
G1 X67.191 Y93.117 E1.37513
;WIDTH:0.409907
M73 P4 R9
G1 X66.538 Y93.089 E.01953
G1 X65.906 Y92.925 E.01953
G1 X65.322 Y92.634 E.01953
G1 X64.811 Y92.227 E.01953
G1 X64.396 Y91.724 E.01953
G1 X64.094 Y91.145 E.01952
G1 X63.92 Y90.515 E.01953
;WIDTH:0.412986
G1 X63.873 Y90.06 E.01381
M204 P1000
G1 X63.491 Y90 F9000
M204 P800
;WIDTH:0.419999
G1 F1200
G1 X63.568 Y89.271 E.02254
G1 X63.795 Y88.573 E.02254
G1 X64.161 Y87.938 E.02254
G1 X64.652 Y87.393 E.02254
G1 X65.246 Y86.961 E.02254
G1 X65.916 Y86.663 E.02254
G1 X66.633 Y86.511 E.02254
G1 X113.367 Y86.511 E1.43599
G1 X114.084 Y86.663 E.02254
M73 P5 R9
G1 X114.754 Y86.961 E.02254
G1 X115.348 Y87.393 E.02254
G1 X115.839 Y87.938 E.02254
G1 X116.205 Y88.573 E.02254
G1 X116.432 Y89.271 E.02254
G1 X116.509 Y90 E.02254
G1 X116.432 Y90.729 E.02254
G1 X116.205 Y91.427 E.02254
G1 X115.839 Y92.062 E.02254
G1 X115.348 Y92.607 E.02254
G1 X114.754 Y93.039 E.02254
G1 X114.084 Y93.337 E.02254
G1 X113.367 Y93.489 E.02254
G1 X66.633 Y93.489 E1.43599
G1 X65.916 Y93.337 E.02254
G1 X65.246 Y93.039 E.02254
G1 X64.652 Y92.607 E.02254
G1 X64.161 Y92.062 E.02254
G1 X63.795 Y91.427 E.02254
G1 X63.568 Y90.729 E.02254
G1 X63.498 Y90.06 E.02069
M204 P1000
G1 X63.112 Y90 F9000
M204 P800
;TYPE:External perimeter
G1 F1200
G1 X63.197 Y89.192 E.02497
G1 X63.448 Y88.419 E.02497
G1 X63.855 Y87.715 E.02497
G1 X64.399 Y87.111 E.02497
G1 X65.056 Y86.633 E.02497
G1 X65.799 Y86.303 E.02497
G1 X66.594 Y86.134 E.02497
G1 X113.406 Y86.134 E1.43842
G1 X114.201 Y86.303 E.02497
G1 X114.944 Y86.633 E.02497
G1 X115.601 Y87.111 E.02498
M73 P6 R9
G1 X116.145 Y87.715 E.02497
G1 X116.552 Y88.419 E.02497
G1 X116.803 Y89.192 E.02497
G1 X116.888 Y90 E.02497
G1 X116.803 Y90.808 E.02497
G1 X116.552 Y91.581 E.02497
G1 X116.145 Y92.285 E.02497
G1 X115.601 Y92.889 E.02497
G1 X114.944 Y93.367 E.02498
G1 X114.201 Y93.697 E.02497
G1 X113.406 Y93.866 E.02497
G1 X66.594 Y93.866 E1.43842
G1 X65.799 Y93.697 E.02497
G1 X65.056 Y93.367 E.02497
G1 X64.399 Y92.889 E.02497
G1 X63.855 Y92.285 E.02497
G1 X63.448 Y91.581 E.02497
G1 X63.197 Y90.808 E.02497
G1 X63.119 Y90.06 E.02313
M204 P1000
G1 X63.459 Y89.8 F9000
G1 E-2.24 F4200
;WIPE_START
G1 F7200
G1 X63.197 Y89.192 E-.48298
G1 X63.436 Y88.455 E-.42902
;WIPE_END
G1 E-.048 F4200
G1 Z.4 F720
G1 X67.789 Y92.634 F9000
G1 Z.2 F720
G1 E3.2 F2400
M204 P800
;TYPE:Perimeter
;WIDTH:0.420095
G1 F1200
G1 X67.386 Y92.734 E.01275
;WIDTH:0.418564
G1 X66.809 Y92.75 E.01767
;WIDTH:0.409907
G1 X66.242 Y92.651 E.01724
G1 X65.707 Y92.435 E.01724
G1 X65.229 Y92.113 E.01724
G1 X64.829 Y91.699 E.01724
G1 X64.523 Y91.21 E.01724
G1 X64.325 Y90.669 E.01723
G1 X64.245 Y90.098 E.01724
G1 X64.285 Y89.523 E.01724
G1 X64.443 Y88.969 E.01724
G1 X64.713 Y88.46 E.01723
G1 X65.084 Y88.018 E.01724
G1 X65.538 Y87.663 E.01724
G1 X66.055 Y87.41 E.01724
G1 X66.615 Y87.27 E.01724
G1 X67.191 Y87.25 E.01724
;WIDTH:0.420095
G1 X67.759 Y87.344 E.01772
G1 X68.295 Y87.56 E.01775
G1 X68.774 Y87.883 E.01775
G1 X69.175 Y88.298 E.01775
G1 X69.482 Y88.787 E.01775
G1 X69.679 Y89.33 E.01775
G1 X69.76 Y89.901 E.01775
G1 X69.72 Y90.477 E.01775
G1 X69.562 Y91.033 E.01775
G1 X69.291 Y91.543 E.01775
G1 X68.92 Y91.985 E.01775
G1 X68.465 Y92.341 E.01775
G1 X67.947 Y92.595 E.01775
G1 X67.847 Y92.619 E.00315
M204 P1000
G1 X67.738 Y92.263 F9000
M204 P800
;WIDTH:0.419999
G1 F1200
G1 X67.191 Y92.378 E.0172
G1 X66.692 Y92.366 E.01533
G1 X66.207 Y92.25 E.01533
G1 X65.756 Y92.036 E.01533
G1 X65.36 Y91.733 E.01533
G1 X65.036 Y91.354 E.01533
G1 X64.797 Y90.916 E.01533
G1 X64.655 Y90.438 E.01533
G1 X64.615 Y90.059 E.01171
G1 X64.664 Y89.503 E.01714
G1 X64.845 Y88.976 E.01714
G1 X65.105 Y88.55 E.01533
G1 X65.448 Y88.188 E.01533
G1 X65.859 Y87.905 E.01533
G1 X66.319 Y87.713 E.01533
G1 X66.809 Y87.622 E.01533
G1 X67.308 Y87.634 E.01533
G1 X67.793 Y87.75 E.01533
G1 X68.244 Y87.964 E.01533
G1 X68.64 Y88.267 E.01533
G1 X68.964 Y88.646 E.01533
G1 X69.203 Y89.084 E.01533
G1 X69.345 Y89.562 E.01533
G1 X69.385 Y90.059 E.01533
G1 X69.321 Y90.554 E.01533
G1 X69.155 Y91.024 E.01533
G1 X68.895 Y91.45 E.01533
G1 X68.552 Y91.812 E.01533
G1 X68.141 Y92.095 E.01533
G1 X67.794 Y92.24 E.01157
M204 P1000
G1 X67.583 Y91.922 F9000
M204 P800
;TYPE:External perimeter
G1 F1200
G1 X67.191 Y92.001 E.01229
G1 X66.77 Y91.997 E.01291
G1 X66.36 Y91.906 E.01291
G1 X65.978 Y91.731 E.01291
G1 X65.64 Y91.481 E.01291
G1 X65.362 Y91.166 E.01291
G1 X65.156 Y90.8 E.01291
G1 X65.03 Y90.399 E.01291
G1 X64.99 Y90.02 E.01171
G1 X65.038 Y89.563 E.01412
G1 X65.172 Y89.164 E.01291
G1 X65.385 Y88.803 E.01291
G1 X65.67 Y88.493 E.01291
G1 X66.012 Y88.249 E.01291
G1 X66.398 Y88.082 E.01291
G1 X66.809 Y87.999 E.01291
G1 X67.23 Y88.003 E.01291
G1 X67.64 Y88.094 E.01291
G1 X68.022 Y88.269 E.01291
G1 X68.36 Y88.519 E.01291
G1 X68.638 Y88.834 E.01291
G1 X68.844 Y89.2 E.01291
G1 X68.97 Y89.601 E.01291
G1 X69.01 Y90.02 E.01291
G1 X68.962 Y90.437 E.01291
G1 X68.828 Y90.836 E.01291
G1 X68.615 Y91.197 E.01291
G1 X68.33 Y91.507 E.01291
G1 X67.988 Y91.751 E.01291
G1 X67.639 Y91.902 E.01169
M204 P1000
G1 X67.495 Y92.312 F9000
G1 E-2.24 F4200
;WIPE_START
G1 F7200
G1 X67.191 Y92.001 E-.25455
G1 X66.77 Y91.997 E-.2329
G1 X66.36 Y91.906 E-.2329
G1 X66.046 Y91.762 E-.19166
;WIPE_END
G1 E-.048 F4200
G1 Z.4 F720
G1 X111.181 Y87.94 F9000
G1 Z.2 F720
M73 P7 R9
G1 E3.2 F2400
M204 P800
;TYPE:Perimeter
G1 F1200
G1 X111.524 Y87.667 E.01346
G1 X112.053 Y87.405 E.01816
G1 X112.614 Y87.266 E.01774
;WIDTH:0.418564
G1 X113.19 Y87.25 E.01766
;WIDTH:0.409909
G1 X113.758 Y87.349 E.01724
G1 X114.293 Y87.565 E.01724
G1 X114.771 Y87.887 E.01724
G1 X115.171 Y88.301 E.01724
G1 X115.477 Y88.79 E.01723
G1 X115.675 Y89.331 E.01724
G1 X115.755 Y89.902 E.01723
G1 X115.715 Y90.477 E.01724
G1 X115.557 Y91.031 E.01723
G1 X115.287 Y91.54 E.01725
G1 X114.916 Y91.982 E.01723
G1 X114.462 Y92.337 E.01724
G1 X113.945 Y92.59 E.01724
G1 X113.385 Y92.73 E.01724
G1 X112.81 Y92.75 E.01723
;WIDTH:0.420095
G1 X112.241 Y92.656 E.01772
G1 X111.705 Y92.44 E.01775
G1 X111.226 Y92.117 E.01775
G1 X110.825 Y91.702 E.01775
G1 X110.519 Y91.213 E.01774
G1 X110.321 Y90.67 E.01776
G1 X110.24 Y90.099 E.01774
;WIDTH:0.419999
G1 X110.28 Y89.522 E.01775
G1 X110.438 Y88.968 E.01773
G1 X110.709 Y88.457 E.01775
G1 X111.061 Y88.035 E.01688
G1 X111.134 Y87.977 E.00286
M204 P1000
G1 X111.383 Y88.256 F9000
M204 P800
G1 F1200
G1 X111.858 Y87.905 E.01816
G1 X112.319 Y87.713 E.01533
G1 X112.81 Y87.622 E.01533
G1 X113.308 Y87.634 E.01532
G1 X113.793 Y87.75 E.01533
G1 X114.244 Y87.964 E.01533
G1 X114.64 Y88.267 E.01533
G1 X114.964 Y88.646 E.01532
G1 X115.203 Y89.084 E.01533
G1 X115.345 Y89.562 E.01532
G1 X115.385 Y90.059 E.01533
G1 X115.321 Y90.554 E.01532
G1 X115.155 Y91.024 E.01533
G1 X114.895 Y91.45 E.01533
G1 X114.552 Y91.812 E.01533
G1 X114.141 Y92.095 E.01533
G1 X113.681 Y92.287 E.01533
G1 X113.19 Y92.378 E.01533
G1 X112.692 Y92.366 E.01532
G1 X112.207 Y92.25 E.01533
G1 X111.756 Y92.036 E.01533
G1 X111.36 Y91.733 E.01533
G1 X111.036 Y91.354 E.01532
G1 X110.797 Y90.916 E.01533
G1 X110.655 Y90.438 E.01532
G1 X110.615 Y90.059 E.01171
G1 X110.679 Y89.446 E.01893
G1 X110.845 Y88.976 E.01533
G1 X111.105 Y88.55 E.01532
G1 X111.342 Y88.299 E.01059
M204 P1000
G1 X111.683 Y88.49 F9000
M204 P800
;TYPE:External perimeter
G1 F1200
G1 X112.012 Y88.249 E.01252
G1 X112.398 Y88.082 E.01292
G1 X112.81 Y87.999 E.01291
G1 X113.23 Y88.003 E.01291
G1 X113.64 Y88.094 E.01291
G1 X114.022 Y88.269 E.01291
G1 X114.36 Y88.519 E.01291
G1 X114.638 Y88.834 E.01291
G1 X114.844 Y89.2 E.01292
G1 X114.97 Y89.601 E.01291
G1 X115.01 Y90.02 E.01291
G1 X114.962 Y90.437 E.01291
G1 X114.828 Y90.836 E.01291
G1 X114.615 Y91.198 E.01291
G1 X114.33 Y91.507 E.01291
G1 X113.988 Y91.751 E.01291
G1 X113.602 Y91.918 E.01292
G1 X113.19 Y92.001 E.01291
G1 X112.77 Y91.997 E.01291
G1 X112.36 Y91.906 E.01291
G1 X111.978 Y91.731 E.01291
G1 X111.64 Y91.481 E.01291
G1 X111.362 Y91.166 E.01291
G1 X111.156 Y90.8 E.01292
G1 X111.03 Y90.399 E.01291
G1 X110.99 Y90.02 E.01171
G1 X111.038 Y89.563 E.01412
G1 X111.172 Y89.164 E.01291
G1 X111.385 Y88.802 E.01291
G1 X111.637 Y88.528 E.01144
M204 P1000
G1 X111.602 Y88.098 F9000
G1 E-2.24 F4200
;WIPE_START
G1 F7200
G1 X112.012 Y88.249 E-.2588
G1 X112.398 Y88.082 E-.233
G1 X112.81 Y87.999 E-.2329
G1 X113.147 Y88.002 E-.18729
;WIPE_END
G1 E-.048 F4200
G1 Z.4 F720
G1 X111.173 Y87.002 F9000
G1 Z.2 F720
G1 E3.2 F2400
M204 P800
;TYPE:Solid infill
;WIDTH:0.422717
G1 F1200
G1 X111.516 Y87.345 E.01499
G1 X111.194 Y87.56 E.01198
G1 X110.806 Y87.172 E.017
G1 X110.268 Y87.172 E.01663
G1 X110.899 Y87.802 E.02759
G1 X110.64 Y88.081 E.01176
G1 X109.731 Y87.172 E.03979
G1 X109.193 Y87.171 E.01663
G1 X110.418 Y88.396 E.0536
G1 X110.229 Y88.744 E.01226
G1 X108.656 Y87.171 E.06885
G1 X108.119 Y87.171 E.01663
G1 X110.086 Y89.138 E.08609
G1 X109.99 Y89.58 E.01399
G1 X107.581 Y87.171 E.10544
G1 X107.044 Y87.171 E.01662
G1 X109.959 Y90.086 E.12759
G1 X109.999 Y90.512 E.01324
G1 X110.039 Y90.703 E.00605
G1 X106.507 Y87.171 E.1546
G1 X105.97 Y87.171 E.01662
G1 X111.627 Y92.827 E.24758
G1 X111.09 Y92.827 E.01662
G1 X105.433 Y87.171 E.24758
G1 X104.896 Y87.171 E.01662
G1 X110.552 Y92.827 E.24757
G1 X110.015 Y92.827 E.01662
G1 X104.359 Y87.171 E.24757
G1 X103.822 Y87.171 E.01662
G1 X109.478 Y92.827 E.24757
G1 X108.941 Y92.827 E.01662
M73 P8 R9
G1 X103.285 Y87.171 E.24757
G1 X102.748 Y87.171 E.01662
G1 X108.404 Y92.827 E.24757
G1 X107.867 Y92.827 E.01662
G1 X102.211 Y87.171 E.24757
G1 X101.673 Y87.171 E.01662
G1 X107.33 Y92.827 E.24757
G1 X106.793 Y92.827 E.01662
G1 X101.136 Y87.171 E.24757
G1 X100.599 Y87.171 E.01662
G1 X106.256 Y92.827 E.24756
G1 X105.718 Y92.827 E.01662
G1 X100.062 Y87.171 E.24756
G1 X99.525 Y87.171 E.01662
G1 X105.181 Y92.827 E.24756
G1 X104.644 Y92.827 E.01662
G1 X98.988 Y87.171 E.24756
G1 X98.451 Y87.171 E.01662
G1 X104.107 Y92.827 E.24756
G1 X103.57 Y92.827 E.01662
G1 X97.914 Y87.171 E.24756
G1 X97.377 Y87.171 E.01662
G1 X103.033 Y92.827 E.24756
G1 X102.496 Y92.827 E.01662
G1 X96.84 Y87.171 E.24755
G1 X96.303 Y87.171 E.01662
G1 X101.959 Y92.827 E.24755
G1 X101.422 Y92.827 E.01662
M73 P9 R9
G1 X95.766 Y87.171 E.24755
G1 X95.228 Y87.171 E.01662
G1 X100.884 Y92.827 E.24755
G1 X100.347 Y92.827 E.01662
G1 X94.691 Y87.171 E.24755
G1 X94.154 Y87.171 E.01662
G1 X99.81 Y92.827 E.24755
G1 X99.273 Y92.827 E.01662
G1 X93.617 Y87.171 E.24755
G1 X93.08 Y87.171 E.01662
G1 X98.736 Y92.827 E.24755
G1 X98.199 Y92.827 E.01662
G1 X92.543 Y87.171 E.24754
G1 X92.006 Y87.171 E.01662
G1 X97.662 Y92.827 E.24754
G1 X97.125 Y92.827 E.01662
G1 X91.469 Y87.171 E.24754
G1 X90.932 Y87.171 E.01662
G1 X96.588 Y92.827 E.24754
G1 X96.05 Y92.827 E.01662
G1 X90.395 Y87.171 E.24754
G1 X89.858 Y87.172 E.01662
G1 X95.513 Y92.827 E.24754
G1 X94.976 Y92.827 E.01662
G1 X89.321 Y87.172 E.24754
G1 X88.783 Y87.172 E.01662
G1 X94.439 Y92.827 E.24753
G1 X93.902 Y92.827 E.01662
M73 P10 R9
G1 X88.246 Y87.172 E.24753
G1 X87.709 Y87.172 E.01662
G1 X93.365 Y92.827 E.24753
G1 X92.828 Y92.827 E.01662
G1 X87.172 Y87.172 E.24753
G1 X86.635 Y87.172 E.01662
G1 X92.291 Y92.827 E.24753
G1 X91.753 Y92.827 E.01662
G1 X86.098 Y87.172 E.24753
G1 X85.561 Y87.172 E.01662
G1 X91.216 Y92.827 E.24753
G1 X90.679 Y92.827 E.01662
G1 X85.024 Y87.172 E.24753
G1 X84.487 Y87.172 E.01662
G1 X90.142 Y92.827 E.24752
G1 X89.605 Y92.827 E.01662
G1 X83.95 Y87.172 E.24752
G1 X83.413 Y87.172 E.01662
G1 X89.068 Y92.827 E.24752
G1 X88.531 Y92.827 E.01662
G1 X82.876 Y87.172 E.24752
G1 X82.338 Y87.172 E.01662
G1 X87.994 Y92.827 E.24752
G1 X87.457 Y92.827 E.01662
G1 X81.801 Y87.172 E.24752
G1 X81.264 Y87.172 E.01662
G1 X86.919 Y92.827 E.24752
G1 X86.382 Y92.827 E.01662
M73 P11 R9
G1 X80.727 Y87.172 E.24751
G1 X80.19 Y87.172 E.01662
G1 X85.845 Y92.827 E.24751
G1 X85.308 Y92.827 E.01662
G1 X79.653 Y87.172 E.24751
G1 X79.116 Y87.172 E.01662
G1 X84.771 Y92.827 E.24751
G1 X84.234 Y92.827 E.01662
G1 X78.579 Y87.172 E.24751
G1 X78.042 Y87.172 E.01662
G1 X83.697 Y92.827 E.24751
G1 X83.16 Y92.827 E.01662
G1 X77.505 Y87.172 E.24751
G1 X76.968 Y87.172 E.01662
G1 X82.623 Y92.827 E.2475
G1 X82.085 Y92.827 E.01662
G1 X76.431 Y87.172 E.2475
G1 X75.893 Y87.172 E.01662
G1 X81.548 Y92.827 E.2475
G1 X81.011 Y92.827 E.01662
G1 X75.356 Y87.172 E.2475
G1 X74.819 Y87.172 E.01662
G1 X80.474 Y92.827 E.2475
G1 X79.937 Y92.827 E.01662
