; generated by PrusaSlicer 2.6.0-alpha0 on 2023-03-02 at 16:14:49 UTC

; 
;

; 
;

; 
;

; 

; external perimeters extrusion width = 0.45mm
; perimeters extrusion width = 0.45mm
; infill extrusion width = 0.45mm
; solid infill extrusion width = 0.45mm
; top infill extrusion width = 0.40mm
; support material extrusion width = 0.35mm
; first layer extrusion width = 0.42mm

M73 P0 R32
M201 X2500 Y2500 Z400 E5000 ; sets maximum accelerations, mm/sec^2
M203 X180 Y180 Z12 E80 ; sets maximum feedrates, mm / sec
M204 P1250 R1250 T2500 ; sets acceleration (P, T) and retract acceleration (R), mm/sec^2
M205 X8.00 Y8.00 Z2.00 E10.00 ; sets the jerk limits, mm/sec
M205 S0 T0 ; sets the minimum extruding and travel feed rate, mm/sec
M107
;TYPE:Custom
M862.3 P "MINI" ; printer model check
G90 ; use absolute coordinates
M83 ; extruder relative mode
M104 S170 ; set extruder temp for bed leveling
M140 S60 ; set bed temp
M109 R170 ; wait for bed leveling temp
M190 S60 ; wait for bed temp
M204 T1250 ; set travel acceleration
G28 ; home all without mesh bed level
G29 ; mesh bed leveling 
M204 T2500 ; restore travel acceleration
M104 S215 ; set extruder temp
G92 E0
G1 Y-2 X179 F2400
G1 Z3 F720
M109 S215 ; wait for extruder temp

; intro line
G1 X170 F1000
G1 Z0.2 F720
G1 X110 E8 F900
G1 X40 E10 F700
G92 E0

M221 S95 ; set flow
G21 ; set units to millimeters
G90 ; use absolute coordinates
M83 ; use relative distances for extrusion
M900 K0.05 ; Filament gcode LA 1.5
M900 K30 ; Filament gcode LA 1.0
M107
;LAYER_CHANGE
;Z:0.25
;HEIGHT:0.25
;BEFORE_LAYER_CHANGE
G92 E0.0
;0.25


G1 E-3.2 F4200
G1 Z.2 F720
G1 Z.25
;AFTER_LAYER_CHANGE
;0.25
G1 Z.45
G1 X77.724 Y67.24 F9000
G1 Z.25 F720
G1 E3.2 F2400
M204 P800
;TYPE:Skirt/Brim
;WIDTH:0.42
G1 F1200
G1 X79.91 Y64.889 E.14058
G1 X82.538 Y63.044 E.14061
G1 X85.02 Y61.939 E.11897
G1 X88.149 Y61.221 E.14058
G1 X88.641 Y61.169 E.02166
G1 X91.851 Y61.221 E.14058
G1 X94.98 Y61.939 E.14058
G1 X97.462 Y63.044 E.11897
G1 X100.09 Y64.889 E.14061
G1 X100.457 Y65.22 E.02164
G1 X102.566 Y67.64 E.14056
G1 X104.127 Y70.446 E.14061
G1 X109.244 Y87.177 E.76614
G1 X109.366 Y88.464 E.05661
G1 X109.366 Y102.464 E.61305
G1 X109.244 Y103.751 E.05661
M73 P1 R32
G1 X108.818 Y105.229 E.06736
G1 X107.959 Y106.795 E.07821
G1 X101.724 Y115.368 E.46419
G1 X99.752 Y117.914 E.14102
G1 X98.644 Y118.705 E.05961
G1 X97.882 Y118.831 E.03382
G1 X82.118 Y118.831 E.69029
G1 X80.814 Y118.439 E.05963
G1 X80.248 Y117.914 E.03381
G1 X78.276 Y115.368 E.14102
G1 X72.041 Y106.795 E.46419
G1 X71.182 Y105.229 E.07821
G1 X70.756 Y103.751 E.06736
G1 X70.634 Y102.464 E.05661
G1 X70.634 Y88.464 E.61305
G1 X70.756 Y87.177 E.05661
G1 X75.873 Y70.446 E.76614
G1 X76.096 Y69.957 E.02353
G1 X77.693 Y67.291 E.13609
M204 P1000
; printing object 0 id:0 copy 0
G1 E-2.24 F4200
;WIPE_START
G1 F7200
G1 X78.868 Y66.018 E-.96
;WIPE_END
G1 Z.45 F720
G1 X104.532 Y87.409 F9000
G1 Z.25 F720
G1 E3.2 F2400
M204 P800
;TYPE:Perimeter
G1 F1200
G1 X104.689 Y87.893 E.02228
G1 X104.749 Y88.464 E.02514
G1 X104.689 Y89.036 E.02518
G1 X104.511 Y89.583 E.02519
G1 X104.224 Y90.08 E.02513
G1 X103.839 Y90.507 E.02518
G1 X103.375 Y90.845 E.02514
G1 X102.849 Y91.079 E.02521
G1 X102.287 Y91.198 E.02516
G1 X101.713 Y91.198 E.02514
G1 X101.151 Y91.079 E.02516
G1 X100.625 Y90.845 E.02521
G1 X100.161 Y90.507 E.02514
G1 X99.776 Y90.08 E.02518
G1 X99.489 Y89.583 E.02513
G1 X99.311 Y89.036 E.02519
G1 X99.251 Y88.464 E.02518
G1 X99.311 Y87.893 E.02514
G1 X99.489 Y87.346 E.02519
G1 X99.776 Y86.848 E.02517
G1 X100.161 Y86.421 E.02518
G1 X100.625 Y86.084 E.02511
G1 X101.151 Y85.85 E.02521
G1 X101.713 Y85.731 E.02516
G1 X102.287 Y85.731 E.02514
G1 X102.849 Y85.85 E.02516
G1 X103.375 Y86.084 E.02521
G1 X103.839 Y86.421 E.02511
G1 X104.224 Y86.848 E.02518
G1 X104.513 Y87.352 E.02544
M204 P1000
G1 X104.158 Y87.468 F9000
M204 P800
G1 F1200
G1 X104.329 Y87.969 E.02318
G1 X104.381 Y88.464 E.02179
G1 X104.329 Y88.959 E.02179
G1 X104.175 Y89.433 E.02182
G1 X103.926 Y89.864 E.0218
G1 X103.593 Y90.234 E.0218
G1 X103.19 Y90.526 E.02179
G1 X102.736 Y90.729 E.02178
G1 X102.249 Y90.832 E.0218
G1 X101.751 Y90.832 E.02181
G1 X101.264 Y90.729 E.0218
G1 X100.81 Y90.526 E.02178
G1 X100.407 Y90.234 E.02179
G1 X100.074 Y89.864 E.0218
G1 X99.825 Y89.433 E.0218
G1 X99.671 Y88.959 E.02182
G1 X99.619 Y88.464 E.02179
G1 X99.671 Y87.969 E.02179
G1 X99.825 Y87.496 E.02178
G1 X100.074 Y87.065 E.0218
G1 X100.407 Y86.695 E.0218
G1 X100.81 Y86.403 E.02179
G1 X101.264 Y86.2 E.02178
G1 X101.751 Y86.097 E.0218
G1 X102.249 Y86.097 E.02181
G1 X102.736 Y86.2 E.0218
G1 X103.19 Y86.403 E.02178
G1 X103.593 Y86.695 E.02179
G1 X103.926 Y87.065 E.0218
G1 X104.128 Y87.416 E.01773
M204 P1000
G1 X103.838 Y87.646 F9000
M204 P800
;TYPE:External perimeter
G1 F1200
G1 X103.968 Y88.046 E.01842
G1 X104.012 Y88.464 E.01841
G1 X103.968 Y88.883 E.01845
G1 X103.838 Y89.283 E.01842
G1 X103.628 Y89.647 E.0184
G1 X103.346 Y89.96 E.01845
G1 X103.006 Y90.207 E.0184
G1 X102.622 Y90.378 E.01841
G1 X102.21 Y90.466 E.01845
G1 X101.79 Y90.466 E.01839
G1 X101.378 Y90.378 E.01845
G1 X100.994 Y90.207 E.01841
G1 X100.654 Y89.96 E.0184
G1 X100.372 Y89.647 E.01845
G1 X100.162 Y89.283 E.0184
G1 X100.032 Y88.883 E.01842
G1 X99.988 Y88.464 E.01845
G1 X100.032 Y88.046 E.01841
G1 X100.162 Y87.646 E.01842
G1 X100.372 Y87.282 E.0184
G1 X100.654 Y86.969 E.01845
G1 X100.994 Y86.722 E.0184
G1 X101.378 Y86.551 E.01841
G1 X101.79 Y86.463 E.01845
G1 X102.21 Y86.463 E.01839
G1 X102.622 Y86.551 E.01845
G1 X103.006 Y86.722 E.01841
G1 X103.346 Y86.969 E.0184
G1 X103.628 Y87.282 E.01845
G1 X103.808 Y87.594 E.01577
M204 P1000
G1 X104.236 Y87.688 F9000
G1 E-2.24 F4200
;WIPE_START
G1 F7200
G1 X103.968 Y88.046 E-.26571
G1 X104.012 Y88.464 E-.23292
G1 X103.968 Y88.883 E-.23347
G1 X103.841 Y89.274 E-.2279
;WIPE_END
G1 Z.45 F720
G1 X99.468 Y101.409 F9000
G1 Z.25 F720
G1 E3.2 F2400
M204 P800
;TYPE:Perimeter
G1 F1200
G1 X99.776 Y100.848 E.02802
G1 X100.161 Y100.421 E.02518
G1 X100.625 Y100.084 E.02511
G1 X101.151 Y99.85 E.02521
G1 X101.713 Y99.731 E.02516
G1 X102.287 Y99.731 E.02514
G1 X102.849 Y99.85 E.02516
G1 X103.375 Y100.084 E.02521
G1 X103.839 Y100.421 E.02511
G1 X104.224 Y100.848 E.02518
G1 X104.511 Y101.346 E.02517
G1 X104.689 Y101.893 E.02519
G1 X104.749 Y102.464 E.02514
G1 X104.689 Y103.036 E.02518
G1 X104.511 Y103.583 E.02519
G1 X104.224 Y104.08 E.02513
G1 X103.839 Y104.507 E.02518
G1 X103.375 Y104.845 E.02514
G1 X102.849 Y105.079 E.02521
G1 X102.287 Y105.198 E.02516
G1 X101.713 Y105.198 E.02514
G1 X101.151 Y105.079 E.02516
G1 X100.625 Y104.845 E.02521
G1 X100.161 Y104.507 E.02514
G1 X99.776 Y104.08 E.02518
G1 X99.489 Y103.583 E.02513
G1 X99.311 Y103.036 E.02519
G1 X99.251 Y102.464 E.02518
G1 X99.311 Y101.893 E.02514
G1 X99.45 Y101.466 E.01966
M204 P1000
G1 X99.815 Y101.527 F9000
M204 P800
G1 F1200
G1 X100.074 Y101.065 E.02319
G1 X100.407 Y100.695 E.0218
G1 X100.81 Y100.403 E.02179
G1 X101.264 Y100.2 E.02178
G1 X101.751 Y100.097 E.0218
G1 X102.249 Y100.097 E.02181
G1 X102.736 Y100.2 E.0218
G1 X103.19 Y100.403 E.02178
G1 X103.593 Y100.695 E.02179
G1 X103.926 Y101.065 E.0218
G1 X104.175 Y101.496 E.0218
G1 X104.329 Y101.969 E.02178
G1 X104.381 Y102.464 E.02179
G1 X104.329 Y102.959 E.02179
G1 X104.175 Y103.433 E.02182
G1 X103.926 Y103.864 E.0218
G1 X103.593 Y104.234 E.0218
G1 X103.19 Y104.526 E.02179
G1 X102.736 Y104.729 E.02178
G1 X102.249 Y104.832 E.0218
G1 X101.751 Y104.832 E.02181
G1 X101.264 Y104.729 E.0218
G1 X100.81 Y104.526 E.02178
G1 X100.407 Y104.234 E.02179
G1 X100.074 Y103.864 E.0218
G1 X99.825 Y103.433 E.0218
G1 X99.671 Y102.959 E.02182
G1 X99.619 Y102.464 E.02179
G1 X99.671 Y101.969 E.02179
G1 X99.796 Y101.584 E.01773
M204 P1000
G1 X100.162 Y101.646 F9000
M204 P800
;TYPE:External perimeter
G1 F1200
G1 X100.372 Y101.282 E.0184
G1 X100.654 Y100.969 E.01845
G1 X100.994 Y100.722 E.0184
G1 X101.378 Y100.551 E.01841
G1 X101.79 Y100.463 E.01845
G1 X102.21 Y100.463 E.01839
G1 X102.622 Y100.551 E.01845
G1 X103.006 Y100.722 E.01841
G1 X103.346 Y100.969 E.0184
G1 X103.628 Y101.282 E.01845
G1 X103.838 Y101.646 E.0184
G1 X103.968 Y102.046 E.01842
G1 X104.012 Y102.464 E.01841
G1 X103.968 Y102.883 E.01845
G1 X103.838 Y103.283 E.01842
G1 X103.628 Y103.647 E.0184
G1 X103.346 Y103.96 E.01845
G1 X103.006 Y104.207 E.0184
G1 X102.622 Y104.378 E.01841
G1 X102.21 Y104.466 E.01845
G1 X101.79 Y104.466 E.01839
G1 X101.378 Y104.378 E.01845
G1 X100.994 Y104.207 E.01841
G1 X100.654 Y103.96 E.0184
G1 X100.372 Y103.647 E.01845
G1 X100.162 Y103.283 E.0184
G1 X100.032 Y102.883 E.01842
G1 X99.988 Y102.464 E.01845
G1 X100.032 Y102.046 E.01841
G1 X100.143 Y101.703 E.01579
M204 P1000
G1 X99.927 Y101.322 F9000
G1 E-2.24 F4200
;WIPE_START
G1 F7200
G1 X100.372 Y101.282 E-.26559
G1 X100.654 Y100.969 E-.23347
G1 X100.994 Y100.722 E-.23289
G1 X101.37 Y100.555 E-.22805
;WIPE_END
G1 Z.45 F720
G1 X75.521 Y101.29 F9000
G1 Z.25 F720
G1 E3.2 F2400
M204 P800
;TYPE:Perimeter
G1 F1200
G1 X75.776 Y100.848 E.02234
G1 X76.161 Y100.421 E.02518
G1 X76.625 Y100.084 E.02511
G1 X77.151 Y99.85 E.02521
G1 X77.713 Y99.731 E.02516
G1 X78.287 Y99.731 E.02514
G1 X78.849 Y99.85 E.02516
G1 X79.375 Y100.084 E.02521
G1 X79.839 Y100.421 E.02511
G1 X80.224 Y100.848 E.02518
G1 X80.511 Y101.346 E.02517
G1 X80.689 Y101.893 E.02519
G1 X80.749 Y102.464 E.02514
G1 X80.689 Y103.036 E.02518
G1 X80.511 Y103.583 E.02519
G1 X80.224 Y104.08 E.02513
G1 X79.839 Y104.507 E.02518
G1 X79.375 Y104.845 E.02514
G1 X78.849 Y105.079 E.02521
G1 X78.287 Y105.198 E.02516
G1 X77.713 Y105.198 E.02514
G1 X77.151 Y105.079 E.02516
M73 P1 R31
G1 X76.625 Y104.845 E.02521
G1 X76.161 Y104.507 E.02514
G1 X75.776 Y104.08 E.02518
G1 X75.489 Y103.583 E.02513
G1 X75.311 Y103.036 E.02519
G1 X75.251 Y102.464 E.02518
G1 X75.311 Y101.893 E.02514
G1 X75.491 Y101.342 E.02538
M204 P1000
G1 X75.842 Y101.468 F9000
M204 P800
G1 F1200
G1 X76.074 Y101.065 E.02036
G1 X76.407 Y100.695 E.0218
G1 X76.81 Y100.403 E.02179
G1 X77.264 Y100.2 E.02178
G1 X77.751 Y100.097 E.0218
G1 X78.249 Y100.097 E.02181
G1 X78.736 Y100.2 E.0218
G1 X79.19 Y100.403 E.02178
G1 X79.593 Y100.695 E.02179
G1 X79.926 Y101.065 E.0218
G1 X80.175 Y101.496 E.0218
G1 X80.329 Y101.969 E.02178
G1 X80.381 Y102.464 E.02179
G1 X80.329 Y102.959 E.02179
G1 X80.175 Y103.433 E.02182
G1 X79.926 Y103.864 E.0218
G1 X79.593 Y104.234 E.0218
G1 X79.19 Y104.526 E.02179
G1 X78.736 Y104.729 E.02178
G1 X78.249 Y104.832 E.0218
G1 X77.751 Y104.832 E.02181
G1 X77.264 Y104.729 E.0218
G1 X76.81 Y104.526 E.02178
G1 X76.407 Y104.234 E.02179
G1 X76.074 Y103.864 E.0218
G1 X75.825 Y103.433 E.0218
G1 X75.671 Y102.959 E.02182
G1 X75.619 Y102.464 E.02179
G1 X75.671 Y101.969 E.02179
G1 X75.817 Y101.522 E.02059
M204 P1000
G1 X76.162 Y101.646 F9000
M204 P800
;TYPE:External perimeter
G1 F1200
G1 X76.372 Y101.282 E.0184
G1 X76.654 Y100.969 E.01845
G1 X76.994 Y100.722 E.0184
G1 X77.378 Y100.551 E.01841
G1 X77.79 Y100.463 E.01845
G1 X78.21 Y100.463 E.01839
G1 X78.622 Y100.551 E.01845
G1 X79.006 Y100.722 E.01841
G1 X79.346 Y100.969 E.0184
G1 X79.628 Y101.282 E.01845
G1 X79.838 Y101.646 E.0184
G1 X79.968 Y102.046 E.01842
G1 X80.012 Y102.464 E.01841
G1 X79.968 Y102.883 E.01845
G1 X79.838 Y103.283 E.01842
G1 X79.628 Y103.647 E.0184
G1 X79.346 Y103.96 E.01845
G1 X79.006 Y104.207 E.0184
G1 X78.622 Y104.378 E.01841
G1 X78.21 Y104.466 E.01845
G1 X77.79 Y104.466 E.01839
G1 X77.378 Y104.378 E.01845
G1 X76.994 Y104.207 E.01841
G1 X76.654 Y103.96 E.0184
G1 X76.372 Y103.647 E.01845
G1 X76.162 Y103.283 E.0184
G1 X76.032 Y102.883 E.01842
G1 X75.988 Y102.464 E.01845
G1 X76.032 Y102.046 E.01841
G1 X76.143 Y101.703 E.01579
M204 P1000
G1 X75.927 Y101.322 F9000
G1 E-2.24 F4200
;WIPE_START
G1 F7200
G1 X76.372 Y101.282 E-.26559
G1 X76.654 Y100.969 E-.23347
G1 X76.994 Y100.722 E-.23289
G1 X77.37 Y100.555 E-.22805
;WIPE_END
G1 Z.45 F720
G1 X80.479 Y87.29 F9000
G1 Z.25 F720
G1 E3.2 F2400
M204 P800
;TYPE:Perimeter
G1 F1200
G1 X80.689 Y87.893 E.02796
G1 X80.749 Y88.464 E.02514
G1 X80.689 Y89.036 E.02518
G1 X80.511 Y89.583 E.02519
G1 X80.224 Y90.08 E.02513
G1 X79.839 Y90.507 E.02518
G1 X79.375 Y90.845 E.02514
G1 X78.849 Y91.079 E.02521
G1 X78.287 Y91.198 E.02516
G1 X77.713 Y91.198 E.02514
G1 X77.151 Y91.079 E.02516
G1 X76.625 Y90.845 E.02521
G1 X76.161 Y90.507 E.02514
G1 X75.776 Y90.08 E.02518
G1 X75.489 Y89.583 E.02513
G1 X75.311 Y89.036 E.02519
G1 X75.251 Y88.464 E.02518
G1 X75.311 Y87.893 E.02514
G1 X75.489 Y87.346 E.02519
G1 X75.776 Y86.848 E.02517
G1 X76.161 Y86.421 E.02518
G1 X76.625 Y86.084 E.02511
G1 X77.151 Y85.85 E.02521
G1 X77.713 Y85.731 E.02516
G1 X78.287 Y85.731 E.02514
G1 X78.849 Y85.85 E.02516
G1 X79.375 Y86.084 E.02521
G1 X79.839 Y86.421 E.02511
G1 X80.224 Y86.848 E.02518
G1 X80.449 Y87.238 E.01972
M204 P1000
G1 X80.158 Y87.468 F9000
M204 P800
G1 F1200
G1 X80.329 Y87.969 E.02318
G1 X80.381 Y88.464 E.02179
G1 X80.329 Y88.959 E.02179
G1 X80.175 Y89.433 E.02182
G1 X79.926 Y89.864 E.0218
G1 X79.593 Y90.234 E.0218
G1 X79.19 Y90.526 E.02179
G1 X78.736 Y90.729 E.02178
G1 X78.249 Y90.832 E.0218
G1 X77.751 Y90.832 E.02181
G1 X77.264 Y90.729 E.0218
G1 X76.81 Y90.526 E.02178
G1 X76.407 Y90.234 E.02179
G1 X76.074 Y89.864 E.0218
G1 X75.825 Y89.433 E.0218
G1 X75.671 Y88.959 E.02182
G1 X75.619 Y88.464 E.02179
G1 X75.671 Y87.969 E.02179
G1 X75.825 Y87.496 E.02178
G1 X76.074 Y87.065 E.0218
G1 X76.407 Y86.695 E.0218
G1 X76.81 Y86.403 E.02179
G1 X77.264 Y86.2 E.02178
G1 X77.751 Y86.097 E.0218
G1 X78.249 Y86.097 E.02181
G1 X78.736 Y86.2 E.0218
G1 X79.19 Y86.403 E.02178
G1 X79.593 Y86.695 E.02179
G1 X79.926 Y87.065 E.0218
G1 X80.128 Y87.416 E.01773
M204 P1000
G1 X79.838 Y87.646 F9000
M204 P800
;TYPE:External perimeter
G1 F1200
G1 X79.968 Y88.046 E.01842
G1 X80.012 Y88.464 E.01841
G1 X79.968 Y88.883 E.01845
G1 X79.838 Y89.283 E.01842
G1 X79.628 Y89.647 E.0184
G1 X79.346 Y89.96 E.01845
G1 X79.006 Y90.207 E.0184
G1 X78.622 Y90.378 E.01841
G1 X78.21 Y90.466 E.01845
G1 X77.79 Y90.466 E.01839
G1 X77.378 Y90.378 E.01845
G1 X76.994 Y90.207 E.01841
G1 X76.654 Y89.96 E.0184
G1 X76.372 Y89.647 E.01845
G1 X76.162 Y89.283 E.0184
G1 X76.032 Y88.883 E.01842
G1 X75.988 Y88.464 E.01845
G1 X76.032 Y88.046 E.01841
G1 X76.162 Y87.646 E.01842
G1 X76.372 Y87.282 E.0184
G1 X76.654 Y86.969 E.01845
G1 X76.994 Y86.722 E.0184
G1 X77.378 Y86.551 E.01841
G1 X77.79 Y86.463 E.01845
G1 X78.21 Y86.463 E.01839
G1 X78.622 Y86.551 E.01845
G1 X79.006 Y86.722 E.01841
G1 X79.346 Y86.969 E.0184
G1 X79.628 Y87.282 E.01845
G1 X79.808 Y87.594 E.01577
M204 P1000
G1 X80.236 Y87.688 F9000
G1 E-2.24 F4200
;WIPE_START
G1 F7200
G1 X79.968 Y88.046 E-.26571
G1 X80.012 Y88.464 E-.23292
G1 X79.968 Y88.883 E-.23347
G1 X79.841 Y89.274 E-.2279
;WIPE_END
G1 Z.45 F720
G1 X82.476 Y84.678 F9000
G1 Z.25 F720
G1 E3.2 F2400
M204 P800
;TYPE:Perimeter
G1 F1200
G1 X82.476 Y115.06 E1.3304
G1 X81.104 Y113.289 E.0981
G1 X74.914 Y104.78 E.46076
G1 X74.482 Y104.031 E.03786
G1 X74.233 Y103.265 E.03527
G1 X74.143 Y102.404 E.03791
G1 X74.143 Y88.524 E.60779
G1 X74.234 Y87.654 E.0383
G1 X78.374 Y74.105 E.62038
G1 X79.174 Y71.644 E.11332
M73 P2 R31
G1 X80.412 Y69.499 E.10845
G1 X82.07 Y67.657 E.10852
G1 X84.074 Y66.201 E.10847
G1 X86.338 Y65.193 E.10852
G1 X88.76 Y64.678 E.10843
G1 X91.259 Y64.683 E.10943
G1 X93.662 Y65.193 E.10757
G1 X95.926 Y66.201 E.10852
G1 X97.93 Y67.657 E.10847
G1 X99.588 Y69.499 E.10852
G1 X100.826 Y71.644 E.10845
G1 X101.626 Y74.105 E.11332
G1 X105.766 Y87.654 E.62038
G1 X105.857 Y88.524 E.0383
G1 X105.857 Y102.404 E.60779
G1 X105.767 Y103.265 E.03791
G1 X105.518 Y104.031 E.03527
G1 X105.086 Y104.78 E.03786
G1 X98.896 Y113.289 E.46076
G1 X97.524 Y115.06 E.0981
G1 X97.524 Y84.678 E1.3304
G1 X99.02 Y83.018 E.09785
G1 X100.185 Y80.999 E.10207
G1 X100.905 Y78.782 E.10207
G1 X101.149 Y76.464 E.10206
G1 X100.905 Y74.146 E.10206
G1 X100.185 Y71.93 E.10203
G1 X99.02 Y69.911 E.10207
G1 X97.46 Y68.179 E.10207
G1 X95.574 Y66.809 E.10208
G1 X93.714 Y65.981 E.08915
G1 X93.445 Y65.861 E.0129
G1 X91.165 Y65.376 E.10207
G1 X88.835 Y65.376 E.10203
G1 X86.555 Y65.861 E.10207
G1 X84.426 Y66.809 E.10205
G1 X82.54 Y68.179 E.10208
G1 X80.98 Y69.911 E.10207
G1 X79.815 Y71.93 E.10207
G1 X79.095 Y74.146 E.10203
G1 X78.851 Y76.464 E.10206
