; generated by PrusaSlicer 2.5.0+linux-x64-GTK3 on 2023-03-10 at 14:50:44 UTC

; 
;

; 
;

; 
;

; 

; external perimeters extrusion width = 0.45mm
; perimeters extrusion width = 0.45mm
; infill extrusion width = 0.45mm
; solid infill extrusion width = 0.45mm
; top infill extrusion width = 0.40mm
; first layer extrusion width = 0.42mm

M73 P0 R21
M201 X2500 Y2500 Z400 E5000 ; sets maximum accelerations, mm/sec^2
M203 X180 Y180 Z12 E80 ; sets maximum feedrates, mm / sec
M204 P1250 R1250 T2500 ; sets acceleration (P, T) and retract acceleration (R), mm/sec^2
M205 X8.00 Y8.00 Z2.00 E10.00 ; sets the jerk limits, mm/sec
M205 S0 T0 ; sets the minimum extruding and travel feed rate, mm/sec
M107
;TYPE:Custom
M862.3 P "MINI" ; printer model check
G90 ; use absolute coordinates
M83 ; extruder relative mode
M104 S170 ; set extruder temp for bed leveling
M140 S60 ; set bed temp
M109 R170 ; wait for bed leveling temp
M190 S60 ; wait for bed temp
M204 T1250 ; set travel acceleration
G28 ; home all without mesh bed level
G29 ; mesh bed leveling 
M204 T2500 ; restore travel acceleration
M104 S215 ; set extruder temp
G92 E0
G1 Y-2 X179 F2400
G1 Z3 F720
M109 S215 ; wait for extruder temp

; intro line
G1 X170 F1000
G1 Z0.2 F720
G1 X110 E8 F900
G1 X40 E10 F700
G92 E0

M221 S95 ; set flow
G21 ; set units to millimeters
G90 ; use absolute coordinates
M83 ; use relative distances for extrusion
M900 K0.05 ; Filament gcode LA 1.5
M900 K30 ; Filament gcode LA 1.0
M107
;LAYER_CHANGE
;Z:0.2
;HEIGHT:0.2
;BEFORE_LAYER_CHANGE
G92 E0.0
;0.2


G1 E-3.2 F4200
M73 P1 R21
G1 Z.2 F720
;AFTER_LAYER_CHANGE
;0.2
G1 Z.4
G1 X70.251 Y83.503 F9000
G1 Z.2 F720
G1 E3.2 F2400
M204 P800
;TYPE:Skirt/Brim
;WIDTH:0.42
G1 F1200
G1 X71.71 Y82.616 E.05247
G1 X73.135 Y82.097 E.0466
G1 X74.255 Y81.886 E.03502
G1 X75.016 Y81.832 E.02343
G1 X105.176 Y81.839 E.92674
G1 X106.678 Y82.05 E.04661
G1 X107.945 Y82.462 E.04092
G1 X109.283 Y83.174 E.04659
G1 X110.333 Y83.993 E.04092
G1 X111.348 Y85.121 E.04661
G1 X112.053 Y86.25 E.0409
G1 X112.621 Y87.656 E.04659
G1 X112.931 Y89.273 E.05061
G1 X112.938 Y90.666 E.04279
G1 X112.674 Y92.159 E.0466
G1 X112.219 Y93.411 E.04092
G1 X111.46 Y94.724 E.04661
G1 X110.605 Y95.744 E.0409
G1 X109.443 Y96.719 E.04661
G1 X108.29 Y97.384 E.0409
G1 X106.865 Y97.903 E.0466
G1 X105.745 Y98.114 E.03502
G1 X104.984 Y98.168 E.02343
G1 X75.016 Y98.168 E.92084
G1 X73.881 Y98.062 E.03502
G1 X72.772 Y97.799 E.03503
G1 X71.71 Y97.384 E.03502
G1 X70.717 Y96.826 E.03502
G1 X69.81 Y96.135 E.03503
G1 X69.009 Y95.325 E.03502
G1 X68.226 Y94.248 E.0409
G1 X67.703 Y93.235 E.03504
G1 X67.326 Y92.159 E.03502
G1 X67.062 Y90.666 E.0466
G1 X67.102 Y88.958 E.05248
G1 X67.496 Y87.296 E.05249
G1 X68.195 Y85.806 E.05059
G1 X69.009 Y84.675 E.04279
G1 X70.208 Y83.545 E.05064
M204 P1000
G1 X70.465 Y83.816 F9000
M204 P800
G1 F1200
G1 X71.863 Y82.96 E.0504
G1 X73.239 Y82.459 E.04499
G1 X75.016 Y82.21 E.05513
G1 X105.15 Y82.215 E.92594
G1 X106.6 Y82.419 E.04499
G1 X107.791 Y82.806 E.03849
G1 X109.084 Y83.493 E.04498
G1 X110.071 Y84.265 E.03849
G1 X111.051 Y85.353 E.04499
G1 X111.714 Y86.415 E.03848
G1 X112.263 Y87.772 E.04498
G1 X112.556 Y89.313 E.04819
G1 X112.563 Y90.626 E.04036
G1 X112.309 Y92.068 E.04498
G1 X111.88 Y93.245 E.03849
G1 X111.148 Y94.513 E.04499
G1 X110.343 Y95.473 E.03848
G1 X109.221 Y96.414 E.045
G1 X108.137 Y97.04 E.03848
G1 X106.761 Y97.541 E.04499
G1 X104.984 Y97.79 E.05513
G1 X74.308 Y97.741 E.9426
G1 X73.239 Y97.541 E.03341
M73 P2 R21
G1 X72.209 Y97.194 E.03341
G1 X70.916 Y96.507 E.04498
G1 X70.052 Y95.846 E.03342
G1 X69.289 Y95.072 E.0334
G1 X68.553 Y94.059 E.03848
G1 X68.052 Y93.093 E.03342
G1 X67.691 Y92.068 E.0334
G1 X67.437 Y90.626 E.04498
G1 X67.477 Y88.998 E.05006
G1 X67.854 Y87.413 E.05006
G1 X68.522 Y85.994 E.04817
G1 X69.289 Y84.928 E.04037
G1 X70.421 Y83.858 E.04787
M204 P1000
; printing object  id:0 copy 0
G1 E-2.24 F4200
;WIPE_START
G1 F7200
G1 X71.818 Y82.988 E-.912
;WIPE_END
G1 E-.048 F4200
G1 Z.4 F720
G1 X77.248 Y86.131 F9000
G1 Z.2 F720
G1 E3.2 F2400
M204 P800
;TYPE:Perimeter
;WIDTH:0.419999
G1 F1200
G1 X77.166 Y86.084 E.00289
G1 X102.723 Y86.084 E.78527
G1 X102.201 Y86.449 E.01957
G1 X100.423 Y89.529 E.10926
G1 X100.308 Y89.858 E.01072
G1 X100.308 Y90.142 E.00873
G1 X100.423 Y90.471 E.01072
G1 X102.201 Y93.551 E.10926
G1 X102.834 Y93.916 E.02246
G1 X77.277 Y93.916 E.78529
G1 X77.799 Y93.551 E.01959
G1 X79.577 Y90.471 E.10926
G1 X79.692 Y90.142 E.01072
M73 P2 R20
G1 X79.692 Y89.858 E.00873
G1 X79.577 Y89.529 E.01072
G1 X77.799 Y86.449 E.10926
G1 X77.3 Y86.161 E.01772
M204 P1000
G1 X77.15 Y86.407 F9000
M204 P800
;WIDTH:0.510364
G1 F1200
G1 X77.146 Y86.404 E.00018
;WIDTH:0.555557
G1 X76.983 Y86.287 E.00839
G1 X74.664 Y86.302 E.09686
;WIDTH:0.52526
G1 X74.231 Y86.318 E.01705
;WIDTH:0.506205
G1 X73.427 Y86.312 E.03034
;WIDTH:0.544564
G1 X73.265 Y86.336 E.00669
;WIDTH:0.582922
G1 X73.103 Y86.36 E.0072
G1 X73.252 Y86.26 E.00788
;WIDTH:0.544564
G1 X73.4 Y86.159 E.00732
;WIDTH:0.506205
G1 X74.199 Y85.868 E.03211
;WIDTH:0.52526
G1 X74.64 Y85.821 E.0174
;WIDTH:0.555545
G1 X75.08 Y85.775 E.0185
G1 X76.983 Y85.775 E.07949
G1 X77.325 Y85.752 E.01434
;WIDTH:0.510363
G1 X77.668 Y85.729 E.01307
;WIDTH:0.465181
G1 X78.01 Y85.707 E.01181
;WIDTH:0.419999
G1 X101.99 Y85.707 E.73683
;WIDTH:0.465128
G1 X102.332 Y85.73 E.01181
;WIDTH:0.510257
G1 X102.675 Y85.752 E.01307
;WIDTH:0.555372
G1 X103.017 Y85.775 E.01433
G1 X104.923 Y85.775 E.07958
G1 X105.541 Y85.828 E.02592
;WIDTH:0.526379
G1 X106.395 Y86.075 E.035
;WIDTH:0.570312
G1 X106.874 Y86.355 E.02384
G1 X106.573 Y86.298 E.01316
;WIDTH:0.534938
G1 X106.338 Y86.302 E.00941
;WIDTH:0.526379
G1 X105.475 Y86.302 E.03402
;WIDTH:0.555385
G1 X103.017 Y86.287 E.10263
;WIDTH:0.562125
G1 X102.907 Y86.294 E.00466
G1 X102.781 Y86.408 E.00723
;WIDTH:0.51475
G1 X102.654 Y86.523 E.00657
;WIDTH:0.467375
G1 X102.527 Y86.638 E.00591
;WIDTH:0.419999
G1 X100.75 Y89.717 E.10926
G1 X100.674 Y90 E.009
G1 X100.75 Y90.283 E.009
G1 X102.527 Y93.362 E.10926
;WIDTH:0.465186
G1 X102.691 Y93.479 E.00691
;WIDTH:0.510372
G1 X102.854 Y93.596 E.00765
;WIDTH:0.555556
G1 X103.017 Y93.713 E.00839
G1 X105.343 Y93.697 E.09716
;WIDTH:0.524747
G1 X105.784 Y93.682 E.01732
;WIDTH:0.52977
G1 X106.107 Y93.691 E.01284
;WIDTH:0.565602
G1 X106.431 Y93.701 E.01378
;WIDTH:0.601434
G1 X106.754 Y93.71 E.01473
G1 X106.63 Y93.79 E.00674
;WIDTH:0.565602
G1 X106.505 Y93.87 E.00631
;WIDTH:0.52977
G1 X106.381 Y93.951 E.00588
;WIDTH:0.493938
G1 X105.815 Y94.131 E.02181
;WIDTH:0.524747
G1 X105.368 Y94.178 E.01767
;WIDTH:0.555558
G1 X104.92 Y94.225 E.0188
G1 X103.017 Y94.225 E.07949
G1 X102.675 Y94.248 E.01434
;WIDTH:0.510372
G1 X102.332 Y94.271 E.01307
;WIDTH:0.465186
G1 X101.99 Y94.293 E.01181
;WIDTH:0.419999
G1 X78.01 Y94.293 E.73683
;WIDTH:0.465186
G1 X77.668 Y94.271 E.01181
;WIDTH:0.510372
G1 X77.325 Y94.248 E.01307
;WIDTH:0.555558
G1 X76.983 Y94.225 E.01434
G1 X75.097 Y94.225 E.07876
G1 X74.613 Y94.175 E.02033
;WIDTH:0.524724
G1 X74.165 Y94.128 E.01771
;WIDTH:0.493889
G1 X73.631 Y93.955 E.02061
;WIDTH:0.536963
G1 X73.429 Y93.824 E.00969
;WIDTH:0.580036
G1 X73.227 Y93.693 E.01054
G1 X73.451 Y93.688 E.0098
;WIDTH:0.536963
G1 X73.674 Y93.682 E.00901
;WIDTH:0.493889
G1 X74.216 Y93.682 E.01989
;WIDTH:0.524724
G1 X74.657 Y93.697 E.01732
;WIDTH:0.555558
G1 X76.983 Y93.713 E.09718
;WIDTH:0.562299
G1 X77.093 Y93.707 E.00466
G1 X77.219 Y93.592 E.00723
;WIDTH:0.514866
G1 X77.346 Y93.477 E.00657
;WIDTH:0.467433
G1 X77.473 Y93.362 E.00591
;WIDTH:0.419999
G1 X79.25 Y90.283 E.10926
G1 X79.326 Y90 E.009
G1 X79.25 Y89.717 E.009
G1 X77.473 Y86.638 E.10926
;WIDTH:0.465182
G1 X77.309 Y86.521 E.00691
;WIDTH:0.510364
G1 X77.199 Y86.442 E.00518
M204 P1000
G1 E-2.24 F4200
;WIPE_START
G1 F7200
G1 X77.146 Y86.404 E-.03587
G1 X76.983 Y86.287 E-.11127
G1 X75.603 Y86.296 E-.76486
;WIPE_END
G1 E-.048 F4200
G1 Z.4 F720
G1 X71.018 Y90.134 F9000
G1 Z.2 F720
G1 E3.2 F2400
M204 P800
;WIDTH:0.580072
G1 F1200
G1 X71.134 Y90.325 E.0098
;WIDTH:0.538136
G1 X71.25 Y90.516 E.00903
;WIDTH:0.4962
G1 X71.528 Y90.997 E.02052
;WIDTH:0.545105
G1 X71.786 Y91.494 E.0229
;WIDTH:0.554771
G1 X72.35 Y92.45 E.04631
;WIDTH:0.525618
G1 X72.631 Y92.938 E.02214
;WIDTH:0.528907
G1 X72.89 Y93.389 E.02061
;WIDTH:0.570326
G1 X73.126 Y93.645 E.01496
G1 X72.787 Y93.479 E.01623
;WIDTH:0.528907
G1 X72.358 Y93.144 E.02156
;WIDTH:0.525618
G1 X71.946 Y92.713 E.02346
;WIDTH:0.554771
G1 X71.611 Y92.224 E.0247
G1 X71.333 Y91.705 E.02456
;WIDTH:0.545105
G1 X71.113 Y91.173 E.02355
;WIDTH:0.4962
G1 X70.994 Y90.614 E.02111
;WIDTH:0.538136
G1 X71.006 Y90.374 E.00971
;WIDTH:0.580072
G1 X71.015 Y90.194 E.0079
M204 P1000
G1 E-2.24 F4200
;WIPE_START
G1 F7200
G1 X71.134 Y90.325 E-.09827
G1 X71.25 Y90.516 E-.12403
G1 X71.528 Y90.997 E-.3079
G1 X71.786 Y91.494 E-.31013
G1 X71.852 Y91.605 E-.07167
;WIPE_END
G1 E-.048 F4200
G1 Z.4 F720
G1 X73.008 Y86.421 F9000
G1 Z.2 F720
G1 E3.2 F2400
M204 P800
;WIDTH:0.59273
G1 F1200
G1 X72.875 Y86.602 E.01008
;WIDTH:0.563692
G1 X72.63 Y87.046 E.02151
;WIDTH:0.543761
G1 X71.779 Y88.52 E.06947
G1 X71.535 Y88.99 E.02161
;WIDTH:0.502912
G1 X71.123 Y89.696 E.03065
;WIDTH:0.536636
G1 X71.066 Y89.859 E.00695
;WIDTH:0.57036
G1 X71.009 Y90.022 E.00742
G1 X70.989 Y89.863 E.00691
;WIDTH:0.541629
G1 X70.969 Y89.703 E.00653
;WIDTH:0.512898
G1 X70.975 Y89.642 E.00235
;WIDTH:0.502912
G1 X71.124 Y88.798 E.03213
;WIDTH:0.54371
G1 X71.345 Y88.269 E.02339
G1 X71.8 Y87.493 E.0367
G1 X72.392 Y86.839 E.03602
;WIDTH:0.563692
G1 X72.798 Y86.535 E.02151
;WIDTH:0.59273
G1 X72.956 Y86.449 E.00804
M204 P1000
G1 E-2.24 F4200
;WIPE_START
G1 F7200
G1 X72.875 Y86.602 E-.0956
G1 X72.63 Y87.046 E-.28092
G1 X72.147 Y87.883 E-.53548
;WIPE_END
G1 E-.048 F4200
G1 Z.4 F720
G1 X76.983 Y86.732 F9000
G1 Z.2 F720
G1 E3.2 F2400
M204 P800
;TYPE:External perimeter
;WIDTH:0.419999
G1 F1200
G1 X77.146 Y86.826 E.00579
G1 X78.924 Y89.906 E.10926
G1 X78.939 Y90.06 E.00477
G1 X78.924 Y90.094 E.00115
G1 X77.146 Y93.174 E.10926
G1 X76.983 Y93.268 E.00579
M73 P3 R20
G1 X73.427 Y93.268 E.10926
G1 X73.339 Y93.246 E.0028
G1 X73.004 Y92.723 E.01908
G1 X71.486 Y90.094 E.09326
G1 X71.479 Y89.919 E.00539
G1 X73.264 Y86.826 E.10972
G1 X73.409 Y86.733 E.0053
G1 X76.923 Y86.732 E.10798
M204 P1000
G1 X77.126 Y86.61 F9000
G1 E-2.24 F4200
;WIPE_START
G1 F7200
G1 X77.146 Y86.826 E-.13431
G1 X77.848 Y88.042 E-.77769
;WIPE_END
G1 E-.048 F4200
G1 Z.4 F720
G1 X108.993 Y90.113 F9000
G1 Z.2 F720
G1 E3.2 F2400
M204 P800
;TYPE:Perimeter
;WIDTH:0.59278
G1 F1200
G1 X109.001 Y90.234 E.00544
;WIDTH:0.564606
G1 X109.009 Y90.355 E.00516
;WIDTH:0.536431
G1 X108.876 Y91.202 E.03448
;WIDTH:0.545104
G1 X108.653 Y91.737 E.02373
;WIDTH:0.554769
G1 X108.37 Y92.254 E.02459
G1 X108.033 Y92.739 E.02461
;WIDTH:0.525617
G1 X107.628 Y93.154 E.02279
;WIDTH:0.556608
G1 X107.292 Y93.379 E.01697
;WIDTH:0.587598
G1 X106.955 Y93.605 E.018
G1 X107.117 Y93.393 E.01183
;WIDTH:0.544568
G1 X107.376 Y92.926 E.02184
;WIDTH:0.525617
G1 X107.65 Y92.45 E.0216
;WIDTH:0.554769
G1 X108.214 Y91.494 E.04631
;WIDTH:0.54513
G1 X108.465 Y91.01 E.0223
G1 X108.729 Y90.561 E.02131
;WIDTH:0.59278
G1 X108.963 Y90.164 E.02064
M204 P1000
G1 E-2.24 F4200
;WIPE_START
G1 F7200
G1 X109.001 Y90.234 E-.04391
G1 X109.009 Y90.355 E-.06724
G1 X108.876 Y91.202 E-.47509
G1 X108.653 Y91.737 E-.32141
G1 X108.649 Y91.744 E-.00436
;WIPE_END
G1 E-.048 F4200
G1 Z.4 F720
G1 X106.97 Y86.412 F9000
G1 Z.2 F720
G1 E3.2 F2400
M204 P800
;WIDTH:0.580022
G1 F1200
G1 X107.091 Y86.468 E.00585
;WIDTH:0.552492
G1 X107.213 Y86.524 E.00555
;WIDTH:0.524961
G1 X107.871 Y87.063 E.03342
;WIDTH:0.524656
G1 X108.132 Y87.424 E.01749
;WIDTH:0.554317
G1 X108.393 Y87.785 E.01857
G1 X108.667 Y88.296 E.02414
;WIDTH:0.545041
G1 X108.886 Y88.837 E.02389
;WIDTH:0.508381
G1 X109.023 Y89.643 E.031
;WIDTH:0.545678
G1 X109.01 Y89.821 E.00733
;WIDTH:0.582974
G1 X108.998 Y90 E.00788
G1 X108.938 Y89.848 E.0072
;WIDTH:0.545678
G1 X108.879 Y89.695 E.0067
;WIDTH:0.508381
G1 X108.466 Y88.99 E.031
;WIDTH:0.545041
G1 X108.214 Y88.507 E.02228
;WIDTH:0.554317
G1 X107.722 Y87.674 E.04031
;WIDTH:0.524656
G1 X107.497 Y87.315 E.01662
;WIDTH:0.537508
G1 X107.234 Y86.863 E.02108
;WIDTH:0.580022
G1 X107 Y86.463 E.02027
M204 P1000
G1 E-2.24 F4200
;WIPE_START
G1 F7200
G1 X107.091 Y86.468 E-.05059
G1 X107.213 Y86.524 E-.07413
G1 X107.871 Y87.063 E-.4715
G1 X108.132 Y87.424 E-.24693
G1 X108.205 Y87.525 E-.06885
;WIPE_END
G1 E-.048 F4200
G1 Z.4 F720
G1 X103.017 Y86.732 F9000
G1 Z.2 F720
G1 E3.2 F2400
M204 P800
;TYPE:External perimeter
;WIDTH:0.419999
G1 F1200
G1 X106.573 Y86.732 E.10926
G1 X106.728 Y86.814 E.00539
G1 X108.514 Y89.906 E.10972
G1 X108.522 Y90.078 E.0053
G1 X106.736 Y93.174 E.10982
G1 X106.625 Y93.261 E.00434
G1 X103.017 Y93.268 E.11086
G1 X102.854 Y93.174 E.00579
G1 X101.076 Y90.094 E.10926
G1 X101.051 Y90 E.003
G1 X101.076 Y89.906 E.003
G1 X102.854 Y86.826 E.10926
G1 X102.965 Y86.762 E.00395
M204 P1000
G1 X103.09 Y86.339 F9000
G1 E-2.24 F4200
;WIPE_START
G1 F7200
G1 X104.611 Y86.748 E-.912
;WIPE_END
G1 E-.048 F4200
G1 Z.4 F720
G1 X74.397 Y85.421 F9000
G1 Z.2 F720
G1 E3.2 F2400
M204 P800
G1 F1200
G1 X75.049 Y85.33 E.02022
G1 X104.96 Y85.33 E.91908
G1 X105.604 Y85.398 E.01989
G1 X106.546 Y85.668 E.03012
G1 X107.408 Y86.127 E.03001
G1 X108.156 Y86.755 E.03001
G1 X108.756 Y87.522 E.02994
G1 X109.064 Y88.1 E.02009
G1 X109.286 Y88.709 E.01994
G1 X109.456 Y89.677 E.0302
G1 X109.456 Y90.323 E.01984
G1 X109.286 Y91.291 E.0302
G1 X109.064 Y91.901 E.01994
G1 X108.758 Y92.476 E.02001
G1 X108.375 Y93.004 E.02004
G1 X107.924 Y93.47 E.01994
G1 X107.128 Y94.048 E.03021
G1 X106.546 Y94.332 E.01993
G1 X105.928 Y94.533 E.01994
G1 X104.951 Y94.67 E.03032
G1 X75.048 Y94.67 E.91883
G1 X74.071 Y94.533 E.03032
G1 X73.457 Y94.333 E.01984
G1 X72.589 Y93.872 E.03021
G1 X72.078 Y93.472 E.01993
G1 X71.625 Y93.004 E.02003
G1 X71.242 Y92.476 E.02004
G1 X70.936 Y91.901 E.02001
G1 X70.713 Y91.288 E.02004
G1 X70.578 Y90.653 E.01994
G1 X70.544 Y89.674 E.03011
G1 X70.714 Y88.709 E.0301
G1 X70.935 Y88.102 E.01984
G1 X71.425 Y87.254 E.03011
G1 X72.081 Y86.525 E.0301
G1 X72.592 Y86.126 E.01993
G1 X73.154 Y85.802 E.01994
G1 X74.075 Y85.467 E.03011
G1 X74.338 Y85.43 E.00816
M204 P1000
G1 X74.66 Y85.723 F9000
G1 E-2.24 F4200
;WIPE_START
G1 F7200
G1 X75.049 Y85.33 E-.39784
G1 X75.977 Y85.33 E-.51416
;WIPE_END
G1 E-.048 F4200
G1 Z.4 F720
G1 X106.955 Y93.605 F9000
G1 Z.2 F720
G1 E3.2 F2400
M204 P800
;TYPE:Perimeter
;WIDTH:0.601434
G1 F1200
G1 X106.754 Y93.71 E.01029
M204 P1000
G1 E-2.24 F4200
;WIPE_START
G1 F7200
G1 X106.955 Y93.605 E-.12535
;WIPE_END
G1 E-.83465 F4200
G1 Z.4 F720
G1 X101.94 Y86.674 F9000
G1 Z.2 F720
G1 E3.2 F2400
M204 P800
;TYPE:Solid infill
;WIDTH:0.421695
G1 F1200
G1 X101.633 Y86.367 E.01341
G1 X101.098 Y86.367 E.01653
G1 X101.62 Y86.89 E.02281
G1 X101.424 Y87.229 E.0121
G1 X100.562 Y86.367 E.03763
G1 X100.026 Y86.367 E.01653
G1 X101.228 Y87.569 E.05246
G1 X101.032 Y87.908 E.0121
G1 X99.491 Y86.367 E.06728
G1 X98.955 Y86.367 E.01653
G1 X100.836 Y88.248 E.08211
G1 X100.64 Y88.588 E.0121
G1 X98.419 Y86.367 E.09693
G1 X97.884 Y86.367 E.01653
G1 X100.444 Y88.927 E.11175
G1 X100.248 Y89.267 E.0121
G1 X97.348 Y86.367 E.12658
G1 X96.812 Y86.367 E.01653
G1 X100.073 Y89.628 E.14234
G1 X100.028 Y89.815 E.00594
G1 X100.022 Y90.113 E.0092
G1 X96.277 Y86.367 E.1635
G1 X95.741 Y86.367 E.01653
G1 X100.44 Y91.066 E.20511
G1 X101.171 Y92.333 E.04517
G1 X95.205 Y86.367 E.26043
G1 X94.67 Y86.367 E.01653
M73 P4 R20
G1 X101.922 Y93.633 E.31687
G1 X101.4 Y93.633 E.01611
G1 X94.134 Y86.367 E.31718
G1 X93.598 Y86.367 E.01653
G1 X100.864 Y93.633 E.31718
G1 X100.329 Y93.633 E.01653
G1 X93.062 Y86.367 E.31718
G1 X92.527 Y86.367 E.01653
G1 X99.793 Y93.633 E.31718
G1 X99.257 Y93.633 E.01653
G1 X91.991 Y86.367 E.31718
G1 X91.455 Y86.367 E.01653
G1 X98.722 Y93.633 E.31718
G1 X98.186 Y93.633 E.01653
G1 X90.92 Y86.367 E.31718
G1 X90.384 Y86.367 E.01653
G1 X97.65 Y93.633 E.31718
G1 X97.115 Y93.633 E.01653
G1 X89.848 Y86.367 E.31718
G1 X89.313 Y86.367 E.01653
G1 X96.579 Y93.633 E.31718
G1 X96.043 Y93.633 E.01653
G1 X88.777 Y86.367 E.31718
G1 X88.241 Y86.367 E.01653
G1 X95.508 Y93.633 E.31718
G1 X94.972 Y93.633 E.01653
