; generated by PrusaSlicer 2.6.0-alpha0 on 2023-03-02 at 16:19:30 UTC

; 
;

; 
;

; 
;

; 

; external perimeters extrusion width = 0.45mm
; perimeters extrusion width = 0.45mm
; infill extrusion width = 0.45mm
; solid infill extrusion width = 0.45mm
; top infill extrusion width = 0.40mm
; first layer extrusion width = 0.42mm

M73 P0 R146
M201 X2500 Y2500 Z400 E5000 ; sets maximum accelerations, mm/sec^2
M203 X180 Y180 Z12 E80 ; sets maximum feedrates, mm / sec
M204 P1250 R1250 T2500 ; sets acceleration (P, T) and retract acceleration (R), mm/sec^2
M205 X8.00 Y8.00 Z2.00 E10.00 ; sets the jerk limits, mm/sec
M205 S0 T0 ; sets the minimum extruding and travel feed rate, mm/sec
M107
;TYPE:Custom
M862.3 P "MINI" ; printer model check
G90 ; use absolute coordinates
M83 ; extruder relative mode
M104 S170 ; set extruder temp for bed leveling
M140 S60 ; set bed temp
M109 R170 ; wait for bed leveling temp
M190 S60 ; wait for bed temp
M204 T1250 ; set travel acceleration
G28 ; home all without mesh bed level
G29 ; mesh bed leveling 
M204 T2500 ; restore travel acceleration
M104 S215 ; set extruder temp
G92 E0
G1 Y-2 X179 F2400
G1 Z3 F720
M109 S215 ; wait for extruder temp

; intro line
G1 X170 F1000
G1 Z0.2 F720
G1 X110 E8 F900
G1 X40 E10 F700
G92 E0

M221 S95 ; set flow
G21 ; set units to millimeters
G90 ; use absolute coordinates
M83 ; use relative distances for extrusion
M900 K0.05 ; Filament gcode LA 1.5
M900 K30 ; Filament gcode LA 1.0
M107
;LAYER_CHANGE
;Z:0.25
;HEIGHT:0.25
;BEFORE_LAYER_CHANGE
G92 E0.0
;0.25


G1 E-3.2 F4200
G1 Z.2 F720
G1 Z.25
;AFTER_LAYER_CHANGE
;0.25
G1 Z.45
G1 X47.875 Y75.846 F9000
G1 Z.25 F720
G1 E3.2 F2400
M204 P800
;TYPE:Skirt/Brim
;WIDTH:0.42
G1 F1200
G1 X49.567 Y75.134 E.08038
G1 X130.46 Y75.134 E3.54224
G1 X131.763 Y75.525 E.05957
G1 X132.636 Y76.57 E.05963
G1 X132.826 Y77.5 E.04157
G1 X132.826 Y102.5 E1.09473
G1 X132.434 Y103.804 E.05963
G1 X131.389 Y104.676 E.0596
G1 X130.46 Y104.866 E.04152
G1 X49.567 Y104.866 E3.54224
G1 X48.263 Y104.475 E.05961
G1 X47.243 Y102.949 E.08038
G1 X47.174 Y102.343 E.02671
G1 X47.185 Y77.428 E1.09101
G1 X47.243 Y77.051 E.0167
G1 X47.847 Y75.899 E.05696
M204 P1000
; printing object 0 id:0 copy 0
G1 E-2.24 F4200
;WIPE_START
G1 F7200
G1 X49.43 Y75.195 E-.96
;WIPE_END
G1 Z.45 F720
G1 X62.756 Y88.55 F9000
G1 Z.25 F720
G1 E3.2 F2400
M204 P800
;TYPE:Perimeter
G1 F1200
G1 X62.955 Y87.792 E.03432
G1 X63.223 Y87.094 E.03274
G1 X63.563 Y86.428 E.03274
G1 X63.97 Y85.801 E.03273
G1 X64.441 Y85.22 E.03275
G1 X64.97 Y84.691 E.03276
G1 X65.551 Y84.22 E.03275
G1 X66.178 Y83.813 E.03273
G1 X66.844 Y83.473 E.03274
G1 X67.542 Y83.205 E.03274
G1 X68.265 Y83.012 E.03277
G1 X69.003 Y82.895 E.03272
G1 X69.72 Y82.857 E.03144
G1 X109.78 Y82.857 E1.7542
G1 X110.497 Y82.895 E.03144
G1 X111.235 Y83.012 E.03272
G1 X111.958 Y83.205 E.03277
G1 X112.656 Y83.473 E.03274
G1 X113.322 Y83.813 E.03274
M73 P0 R145
G1 X113.949 Y84.22 E.03273
G1 X114.53 Y84.691 E.03275
G1 X115.059 Y85.22 E.03276
G1 X115.53 Y85.801 E.03275
G1 X115.937 Y86.428 E.03273
G1 X116.277 Y87.094 E.03274
G1 X116.545 Y87.792 E.03274
G1 X116.738 Y88.515 E.03277
G1 X116.855 Y89.253 E.03272
G1 X116.894 Y90 E.03276
G1 X116.855 Y90.747 E.03276
G1 X116.738 Y91.485 E.03272
G1 X116.545 Y92.208 E.03277
G1 X116.277 Y92.906 E.03274
G1 X115.937 Y93.572 E.03274
G1 X115.53 Y94.199 E.03273
G1 X115.059 Y94.78 E.03275
G1 X114.53 Y95.309 E.03276
G1 X113.949 Y95.78 E.03275
G1 X113.322 Y96.187 E.03273
G1 X112.656 Y96.527 E.03274
G1 X111.958 Y96.795 E.03274
G1 X111.235 Y96.988 E.03277
G1 X110.497 Y97.105 E.03272
G1 X109.78 Y97.143 E.03144
G1 X69.72 Y97.143 E1.7542
G1 X69.003 Y97.105 E.03144
G1 X68.265 Y96.988 E.03272
G1 X67.542 Y96.795 E.03277
G1 X66.844 Y96.527 E.03274
G1 X66.178 Y96.187 E.03274
G1 X65.551 Y95.78 E.03273
G1 X64.97 Y95.309 E.03275
G1 X64.441 Y94.78 E.03276
G1 X63.97 Y94.199 E.03275
G1 X63.563 Y93.572 E.03273
G1 X63.223 Y92.906 E.03274
G1 X62.955 Y92.208 E.03274
G1 X62.762 Y91.485 E.03277
G1 X62.645 Y90.747 E.03272
G1 X62.606 Y90 E.03276
G1 X62.645 Y89.253 E.03276
G1 X62.747 Y88.609 E.02855
M204 P1000
G1 X63.118 Y88.608 F9000
M204 P800
G1 F1200
G1 X63.304 Y87.906 E.0318
G1 X63.558 Y87.243 E.03109
G1 X63.881 Y86.611 E.03108
G1 X64.267 Y86.016 E.03106
G1 X64.713 Y85.465 E.03104
G1 X65.215 Y84.963 E.03109
G1 X65.766 Y84.517 E.03104
G1 X66.361 Y84.131 E.03106
G1 X66.993 Y83.809 E.03106
G1 X67.656 Y83.554 E.03111
G1 X68.341 Y83.371 E.03105
G1 X69.042 Y83.26 E.03108
G1 X69.73 Y83.224 E.03017
G1 X109.77 Y83.224 E1.75332
G1 X110.458 Y83.26 E.03017
G1 X111.159 Y83.371 E.03108
G1 X111.844 Y83.554 E.03105
G1 X112.507 Y83.809 E.03111
G1 X113.139 Y84.131 E.03106
G1 X113.734 Y84.517 E.03106
G1 X114.285 Y84.963 E.03104
G1 X114.787 Y85.465 E.03109
G1 X115.233 Y86.016 E.03104
G1 X115.619 Y86.611 E.03106
G1 X115.942 Y87.243 E.03108
G1 X116.196 Y87.906 E.03109
G1 X116.379 Y88.591 E.03105
G1 X116.49 Y89.292 E.03108
G1 X116.527 Y90 E.03105
G1 X116.49 Y90.708 E.03105
G1 X116.379 Y91.409 E.03108
G1 X116.196 Y92.094 E.03105
G1 X115.942 Y92.757 E.03109
G1 X115.619 Y93.389 E.03108
G1 X115.233 Y93.984 E.03106
G1 X114.787 Y94.535 E.03104
G1 X114.285 Y95.037 E.03109
G1 X113.734 Y95.483 E.03104
G1 X113.139 Y95.869 E.03106
G1 X112.507 Y96.192 E.03108
G1 X111.844 Y96.446 E.03109
G1 X111.159 Y96.629 E.03105
G1 X110.458 Y96.74 E.03108
G1 X109.77 Y96.776 E.03017
G1 X69.73 Y96.776 E1.75332
G1 X69.042 Y96.74 E.03017
G1 X68.341 Y96.629 E.03108
G1 X67.656 Y96.446 E.03105
G1 X66.993 Y96.192 E.03109
G1 X66.361 Y95.869 E.03108
G1 X65.766 Y95.483 E.03106
G1 X65.215 Y95.037 E.03104
G1 X64.713 Y94.535 E.03109
G1 X64.267 Y93.984 E.03104
G1 X63.881 Y93.389 E.03106
G1 X63.558 Y92.757 E.03108
G1 X63.304 Y92.094 E.03109
G1 X63.121 Y91.409 E.03105
G1 X63.01 Y90.708 E.03108
G1 X62.973 Y90 E.03105
G1 X63.01 Y89.292 E.03105
G1 X63.109 Y88.668 E.02767
M204 P1000
G1 X63.48 Y88.667 F9000
M204 P800
;TYPE:External perimeter
G1 F1200
G1 X63.653 Y88.019 E.02937
G1 X63.894 Y87.393 E.02937
G1 X64.198 Y86.795 E.02938
G1 X64.564 Y86.232 E.0294
G1 X64.986 Y85.711 E.02936
G1 X65.46 Y85.236 E.02938
G1 X65.982 Y84.814 E.02939
G1 X66.545 Y84.448 E.0294
G1 X67.143 Y84.144 E.02938
G1 X67.769 Y83.903 E.02937
G1 X68.417 Y83.73 E.02937
G1 X69.08 Y83.625 E.02939
G1 X69.739 Y83.59 E.0289
G1 X109.761 Y83.59 E1.75253
G1 X110.42 Y83.625 E.0289
G1 X111.083 Y83.73 E.02939
G1 X111.731 Y83.903 E.02937
G1 X112.357 Y84.144 E.02937
G1 X112.955 Y84.448 E.02938
G1 X113.518 Y84.814 E.0294
G1 X114.04 Y85.236 E.02939
G1 X114.514 Y85.711 E.02938
G1 X114.936 Y86.232 E.02936
G1 X115.302 Y86.795 E.0294
G1 X115.606 Y87.393 E.02938
G1 X115.847 Y88.019 E.02937
G1 X116.02 Y88.667 E.02937
G1 X116.125 Y89.33 E.02939
G1 X116.161 Y90 E.02938
G1 X116.125 Y90.67 E.02938
G1 X116.02 Y91.333 E.02939
G1 X115.847 Y91.981 E.02937
G1 X115.606 Y92.607 E.02937
G1 X115.302 Y93.205 E.02938
G1 X114.936 Y93.768 E.0294
G1 X114.514 Y94.29 E.02939
G1 X114.04 Y94.764 E.02935
G1 X113.518 Y95.186 E.02939
G1 X112.955 Y95.552 E.0294
G1 X112.357 Y95.856 E.02938
G1 X111.731 Y96.097 E.02937
G1 X111.083 Y96.27 E.02937
G1 X110.42 Y96.375 E.02939
G1 X109.761 Y96.41 E.0289
G1 X69.739 Y96.41 E1.75253
G1 X69.08 Y96.375 E.0289
G1 X68.417 Y96.27 E.02939
G1 X67.769 Y96.097 E.02937
G1 X67.143 Y95.856 E.02937
G1 X66.545 Y95.552 E.02938
G1 X65.982 Y95.186 E.0294
G1 X65.46 Y94.764 E.02939
G1 X64.986 Y94.29 E.02935
G1 X64.564 Y93.768 E.02939
G1 X64.198 Y93.205 E.0294
G1 X63.894 Y92.607 E.02938
G1 X63.653 Y91.981 E.02937
G1 X63.48 Y91.333 E.02937
G1 X63.375 Y90.67 E.02939
G1 X63.339 Y90 E.02938
G1 X63.375 Y89.33 E.02938
G1 X63.47 Y88.726 E.02677
M204 P1000
G1 X63.182 Y88.399 F9000
G1 E-2.24 F4200
;WIPE_START
G1 F7200
G1 X63.653 Y88.019 E-.40471
G1 X63.894 Y87.393 E-.37173
G1 X64.044 Y87.098 E-.18356
;WIPE_END
G1 Z.45 F720
G1 X50.845 Y78.643 F9000
G1 Z.25 F720
G1 E3.2 F2400
M204 P800
;TYPE:Perimeter
G1 F1200
G1 X129.155 Y78.643 E3.42914
G1 X129.155 Y101.357 E.99463
G1 X50.845 Y101.357 E3.42914
G1 X50.845 Y78.703 E.992
M204 P1000
G1 X50.479 Y78.276 F9000
M204 P800
G1 F1200
G1 X129.521 Y78.276 E3.46119
G1 X129.521 Y101.724 E1.02677
G1 X50.479 Y101.724 E3.46119
G1 X50.479 Y78.336 E1.02414
M204 P1000
G1 X50.112 Y77.91 F9000
M204 P800
;TYPE:External perimeter
G1 F1200
G1 X129.888 Y77.91 E3.49333
G1 X129.888 Y102.09 E1.05882
G1 X50.112 Y102.09 E3.49333
G1 X50.112 Y77.97 E1.0562
M204 P1000
G1 X50.51 Y77.949 F9000
G1 E-2.24 F4200
;WIPE_START
G1 F7200
G1 X51.844 Y77.969 E-.96
;WIPE_END
G1 Z.45 F720
G1 X128.303 Y78.753 F9000
G1 Z.25 F720
G1 E3.2 F2400
M204 P800
;TYPE:Solid infill
;WIDTH:0.420536
G1 F1200
G1 X128.88 Y79.329 E.03575
G1 X128.88 Y79.848 E.02276
G1 X127.949 Y78.917 E.05774
G1 X127.43 Y78.917 E.02276
G1 X128.88 Y80.367 E.08993
G1 X128.88 Y80.886 E.02276
G1 X126.912 Y78.917 E.12208
G1 X126.393 Y78.917 E.02276
G1 X128.88 Y81.405 E.15427
G1 X128.88 Y81.924 E.02276
G1 X125.874 Y78.917 E.18646
G1 X125.355 Y78.917 E.02276
G1 X128.88 Y82.443 E.21864
G1 X128.88 Y82.961 E.02272
G1 X124.836 Y78.917 E.2508
G1 X124.317 Y78.917 E.02276
G1 X128.88 Y83.48 E.28299
G1 X128.88 Y83.999 E.02276
G1 X123.798 Y78.917 E.31518
G1 X123.28 Y78.917 E.02272
G1 X128.88 Y84.518 E.34733
G1 X128.88 Y85.037 E.02276
G1 X122.761 Y78.917 E.37952
G1 X122.242 Y78.917 E.02276
G1 X128.88 Y85.556 E.41171
G1 X128.88 Y86.075 E.02276
G1 X121.723 Y78.917 E.44389
G1 X121.204 Y78.917 E.02276
G1 X128.88 Y86.593 E.47605
G1 X128.88 Y87.112 E.02276
G1 X120.685 Y78.917 E.50824
G1 X120.166 Y78.917 E.02276
G1 X128.88 Y87.631 E.54043
G1 X128.88 Y88.15 E.02276
G1 X119.648 Y78.917 E.57258
G1 X119.129 Y78.917 E.02276
G1 X128.88 Y88.669 E.60477
G1 X128.88 Y89.188 E.02276
G1 X118.61 Y78.917 E.63696
G1 X118.091 Y78.917 E.02276
G1 X128.88 Y89.707 E.66914
G1 X128.88 Y90.225 E.02272
M73 P1 R145
G1 X117.572 Y78.917 E.7013
G1 X117.053 Y78.917 E.02276
G1 X128.88 Y90.744 E.73349
G1 X128.88 Y91.263 E.02276
G1 X116.534 Y78.917 E.76567
G1 X116.016 Y78.917 E.02272
G1 X128.88 Y91.782 E.79783
G1 X128.88 Y92.301 E.02276
M73 P1 R144
G1 X115.497 Y78.917 E.83002
G1 X114.978 Y78.917 E.02276
G1 X128.88 Y92.82 E.86221
G1 X128.88 Y93.339 E.02276
G1 X114.459 Y78.917 E.89439
G1 X113.94 Y78.917 E.02276
G1 X128.88 Y93.857 E.92655
G1 X128.88 Y94.376 E.02276
G1 X113.421 Y78.917 E.95874
G1 X112.903 Y78.917 E.02272
G1 X128.88 Y94.895 E.99089
G1 X128.88 Y95.414 E.02276
G1 X112.384 Y78.917 E1.02308
G1 X111.865 Y78.917 E.02276
G1 X128.88 Y95.933 E1.05527
G1 X128.88 Y96.452 E.02276
G1 X111.346 Y78.917 E1.08746
G1 X110.827 Y78.917 E.02276
G1 X128.88 Y96.971 E1.11964
G1 X128.88 Y97.489 E.02272
G1 X110.308 Y78.917 E1.1518
G1 X109.789 Y78.917 E.02276
G1 X128.88 Y98.008 E1.18399
G1 X128.88 Y98.527 E.02276
G1 X109.271 Y78.917 E1.21614
G1 X108.752 Y78.917 E.02276
G1 X113.356 Y83.522 E.28556
G1 X114.111 Y83.998 E.03914
G1 X114.715 Y84.486 E.03405
G1 X115.264 Y85.035 E.03405
G1 X115.752 Y85.639 E.03405
G1 X116.228 Y86.394 E.03914
G1 X128.88 Y99.046 E.78465
G1 X128.88 Y99.565 E.02276
G1 X116.671 Y87.356 E.75718
G1 X116.806 Y87.707 E.01649
G1 X116.917 Y88.12 E.01875
G1 X128.88 Y100.084 E.74195
G1 X128.88 Y100.603 E.02276
G1 X117.058 Y88.781 E.73318
G1 X117.137 Y89.378 E.02641
G1 X128.841 Y101.083 E.72589
G1 X128.322 Y101.083 E.02276
G1 X117.165 Y89.926 E.69194
G1 X117.147 Y90.426 E.02194
G1 X127.804 Y101.083 E.66093
G1 X127.285 Y101.083 E.02276
G1 X117.108 Y90.906 E.63116
G1 X117.037 Y91.354 E.01989
G1 X126.766 Y101.083 E.60337
G1 X126.247 Y101.083 E.02276
G1 X116.944 Y91.779 E.57698
G1 X116.834 Y92.188 E.01857
G1 X125.728 Y101.083 E.55162
G1 X125.209 Y101.083 E.02276
G1 X116.699 Y92.572 E.5278
G1 X116.555 Y92.947 E.01762
G1 X124.691 Y101.083 E.50458
G1 X124.172 Y101.083 E.02276
G1 X116.386 Y93.297 E.48287
G1 X116.211 Y93.64 E.01689
G1 X123.653 Y101.083 E.46157
G1 X123.134 Y101.083 E.02276
G1 X116.012 Y93.961 E.44169
G1 X115.808 Y94.275 E.01642
G1 X122.615 Y101.083 E.42219
G1 X122.096 Y101.083 E.02276
G1 X115.583 Y94.57 E.40392
G1 X115.351 Y94.856 E.01615
G1 X121.577 Y101.083 E.38616
G1 X121.059 Y101.083 E.02272
G1 X115.102 Y95.126 E.36944
G1 X114.843 Y95.386 E.01609
G1 X120.54 Y101.083 E.35332
G1 X120.021 Y101.083 E.02276
G1 X114.569 Y95.631 E.33812
G1 X114.283 Y95.863 E.01615
G1 X119.502 Y101.083 E.3237
G1 X118.983 Y101.083 E.02276
G1 X113.985 Y96.084 E.31
G1 X113.67 Y96.289 E.01648
G1 X118.464 Y101.083 E.29731
G1 X117.945 Y101.083 E.02276
G1 X113.346 Y96.483 E.28525
G1 X113.002 Y96.658 E.01693
G1 X117.427 Y101.083 E.27443
G1 X116.908 Y101.083 E.02276
G1 X112.649 Y96.824 E.26413
G1 X112.274 Y96.968 E.01762
G1 X116.389 Y101.083 E.2552
G1 X115.87 Y101.083 E.02276
G1 X111.886 Y97.098 E.24711
G1 X111.477 Y97.208 E.01857
G1 X115.351 Y101.083 E.24029
G1 X114.832 Y101.083 E.02276
G1 X111.046 Y97.296 E.23483
G1 X110.598 Y97.367 E.01989
G1 X114.313 Y101.083 E.23043
G1 X113.795 Y101.083 E.02272
G1 X110.112 Y97.4 E.22841
G1 X109.611 Y97.417 E.02198
G1 X113.276 Y101.083 E.22733
G1 X112.757 Y101.083 E.02276
G1 X109.092 Y97.417 E.22733
G1 X108.573 Y97.417 E.02276
G1 X112.238 Y101.083 E.22733
G1 X111.719 Y101.083 E.02276
G1 X108.054 Y97.417 E.22733
G1 X107.535 Y97.417 E.02276
G1 X111.2 Y101.083 E.22733
G1 X110.681 Y101.083 E.02276
G1 X107.016 Y97.417 E.22733
G1 X106.497 Y97.417 E.02276
G1 X110.163 Y101.083 E.22736
G1 X109.644 Y101.083 E.02276
G1 X105.979 Y97.417 E.22733
G1 X105.46 Y97.417 E.02276
G1 X109.125 Y101.083 E.22733
G1 X108.606 Y101.083 E.02276
G1 X104.941 Y97.417 E.22733
G1 X104.422 Y97.417 E.02276
G1 X108.087 Y101.083 E.22733
G1 X107.568 Y101.083 E.02276
G1 X103.903 Y97.417 E.22733
G1 X103.384 Y97.417 E.02276
G1 X107.049 Y101.083 E.22733
G1 X106.531 Y101.083 E.02272
G1 X102.865 Y97.417 E.22736
G1 X102.347 Y97.417 E.02272
G1 X106.012 Y101.083 E.22733
G1 X105.493 Y101.083 E.02276
G1 X101.828 Y97.417 E.22733
G1 X101.309 Y97.417 E.02276
G1 X104.974 Y101.083 E.22733
G1 X104.455 Y101.083 E.02276
G1 X100.79 Y97.417 E.22733
G1 X100.271 Y97.417 E.02276
G1 X103.936 Y101.083 E.22733
G1 X103.417 Y101.083 E.02276
G1 X99.752 Y97.417 E.22733
G1 X99.233 Y97.417 E.02276
G1 X102.899 Y101.083 E.22736
G1 X102.38 Y101.083 E.02276
G1 X98.715 Y97.417 E.22733
G1 X98.196 Y97.417 E.02276
G1 X101.861 Y101.083 E.22733
G1 X101.342 Y101.083 E.02276
G1 X97.677 Y97.417 E.22733
G1 X97.158 Y97.417 E.02276
G1 X100.823 Y101.083 E.22733
G1 X100.304 Y101.083 E.02276
G1 X96.639 Y97.417 E.22733
G1 X96.12 Y97.417 E.02276
G1 X99.785 Y101.083 E.22733
G1 X99.267 Y101.083 E.02272
G1 X95.602 Y97.417 E.22733
G1 X95.083 Y97.417 E.02276
G1 X98.748 Y101.083 E.22733
G1 X98.229 Y101.083 E.02276
G1 X94.564 Y97.417 E.22733
G1 X94.045 Y97.417 E.02276
G1 X97.71 Y101.083 E.22733
G1 X97.191 Y101.083 E.02276
G1 X93.526 Y97.417 E.22733
G1 X93.007 Y97.417 E.02276
G1 X96.672 Y101.083 E.22733
G1 X96.153 Y101.083 E.02276
G1 X92.488 Y97.417 E.22733
G1 X91.97 Y97.417 E.02272
G1 X95.635 Y101.083 E.22733
G1 X95.116 Y101.083 E.02276
G1 X91.451 Y97.417 E.22733
G1 X90.932 Y97.417 E.02276
G1 X94.597 Y101.083 E.22733
G1 X94.078 Y101.083 E.02276
G1 X90.413 Y97.417 E.22733
G1 X89.894 Y97.417 E.02276
G1 X93.559 Y101.083 E.22733
G1 X93.04 Y101.083 E.02276
G1 X89.375 Y97.417 E.22733
G1 X88.856 Y97.417 E.02276
G1 X92.521 Y101.083 E.22733
G1 X92.003 Y101.083 E.02272
G1 X88.338 Y97.417 E.22733
G1 X87.819 Y97.417 E.02276
G1 X91.484 Y101.083 E.22733
G1 X90.965 Y101.083 E.02276
G1 X87.3 Y97.417 E.22733
G1 X86.781 Y97.417 E.02276
G1 X90.446 Y101.083 E.22733
G1 X89.927 Y101.083 E.02276
G1 X86.262 Y97.417 E.22733
G1 X85.743 Y97.417 E.02276
G1 X89.408 Y101.083 E.22733
G1 X88.89 Y101.083 E.02272
G1 X85.224 Y97.417 E.22736
G1 X84.706 Y97.417 E.02272
G1 X88.371 Y101.083 E.22733
G1 X87.852 Y101.083 E.02276
G1 X84.187 Y97.417 E.22733
G1 X83.668 Y97.417 E.02276
G1 X87.333 Y101.083 E.22733
G1 X86.814 Y101.083 E.02276
G1 X83.149 Y97.417 E.22733
G1 X82.63 Y97.417 E.02276
G1 X86.295 Y101.083 E.22733
G1 X85.776 Y101.083 E.02276
G1 X82.111 Y97.417 E.22733
G1 X81.592 Y97.417 E.02276
G1 X85.258 Y101.083 E.22736
G1 X84.739 Y101.083 E.02276
G1 X81.074 Y97.417 E.22733
G1 X80.555 Y97.417 E.02276
G1 X84.22 Y101.083 E.22733
G1 X83.701 Y101.083 E.02276
G1 X80.036 Y97.417 E.22733
G1 X79.517 Y97.417 E.02276
G1 X83.182 Y101.083 E.22733
G1 X82.663 Y101.083 E.02276
