; generated by PrusaSlicer 2.5.0+linux-x64-GTK3 on 2023-03-10 at 14:44:48 UTC

; 
;

; 
;

; 
;

; 

; external perimeters extrusion width = 0.45mm
; perimeters extrusion width = 0.45mm
; infill extrusion width = 0.45mm
; solid infill extrusion width = 0.45mm
; top infill extrusion width = 0.40mm
; first layer extrusion width = 0.42mm

M73 P0 R37
M201 X2500 Y2500 Z400 E5000 ; sets maximum accelerations, mm/sec^2
M203 X180 Y180 Z12 E80 ; sets maximum feedrates, mm / sec
M204 P1250 R1250 T2500 ; sets acceleration (P, T) and retract acceleration (R), mm/sec^2
M205 X8.00 Y8.00 Z2.00 E10.00 ; sets the jerk limits, mm/sec
M205 S0 T0 ; sets the minimum extruding and travel feed rate, mm/sec
M107
;TYPE:Custom
M862.3 P "MINI" ; printer model check
G90 ; use absolute coordinates
M83 ; extruder relative mode
M104 S170 ; set extruder temp for bed leveling
M140 S60 ; set bed temp
M109 R170 ; wait for bed leveling temp
M190 S60 ; wait for bed temp
M204 T1250 ; set travel acceleration
G28 ; home all without mesh bed level
G29 ; mesh bed leveling 
M204 T2500 ; restore travel acceleration
M104 S215 ; set extruder temp
G92 E0
G1 Y-2 X179 F2400
G1 Z3 F720
M109 S215 ; wait for extruder temp

; intro line
G1 X170 F1000
G1 Z0.2 F720
G1 X110 E8 F900
G1 X40 E10 F700
G92 E0

M221 S95 ; set flow
G21 ; set units to millimeters
G90 ; use absolute coordinates
M83 ; use relative distances for extrusion
M900 K0.05 ; Filament gcode LA 1.5
M900 K30 ; Filament gcode LA 1.0
M107
;LAYER_CHANGE
;Z:0.2
;HEIGHT:0.2
;BEFORE_LAYER_CHANGE
G92 E0.0
;0.2


G1 E-3.2 F4200
G1 Z.2 F720
;AFTER_LAYER_CHANGE
;0.2
G1 Z.4
G1 X75.516 Y74.339 F9000
G1 Z.2 F720
G1 E3.2 F2400
M204 P800
;TYPE:Skirt/Brim
;WIDTH:0.42
G1 F1200
G1 X76.063 Y73.783 E.02397
G1 X78.598 Y71.91 E.09683
G1 X81.756 Y70.27 E.10938
G1 X84.384 Y69.362 E.08541
G1 X88.257 Y68.688 E.12081
G1 X91.408 Y68.663 E.09683
G1 X94.928 Y69.192 E.10938
G1 X97.933 Y70.142 E.09683
G1 X101.117 Y71.734 E.10938
G1 X103.395 Y73.326 E.08541
G1 X106.217 Y76.063 E.1208
G1 X108.09 Y78.598 E.09683
G1 X109.876 Y82.1 E.1208
G1 X110.728 Y84.746 E.08541
G1 X111.312 Y88.257 E.10938
G1 X111.363 Y91.036 E.08541
G1 X110.808 Y94.928 E.1208
G1 X109.858 Y97.933 E.09683
G1 X108.266 Y101.117 E.10938
G1 X106.674 Y103.395 E.08541
G1 X103.937 Y106.217 E.1208
G1 X101.402 Y108.09 E.09683
G1 X97.9 Y109.876 E.1208
G1 X95.254 Y110.728 E.08541
G1 X91.743 Y111.312 E.10938
G1 X88.964 Y111.363 E.08541
G1 X85.072 Y110.808 E.1208
G1 X82.067 Y109.858 E.09683
G1 X78.564 Y108.074 E.12081
G1 X76.319 Y106.434 E.08541
G1 X73.783 Y103.937 E.10938
G1 X71.91 Y101.402 E.09683
G1 X70.124 Y97.9 E.1208
G1 X69.272 Y95.254 E.08541
G1 X68.688 Y91.743 E.10938
G1 X68.637 Y88.964 E.08541
G1 X69.192 Y85.072 E.1208
G1 X70.142 Y82.067 E.09683
G1 X71.926 Y78.564 E.12081
G1 X73.566 Y76.319 E.08541
M73 P1 R37
G1 X75.473 Y74.381 E.08356
M204 P1000
; printing object  id:0 copy 0
G1 E-2.24 F4200
;WIPE_START
G1 F7200
G1 X76.063 Y73.783 E-.46564
G1 X76.711 Y73.304 E-.44636
;WIPE_END
G1 E-.048 F4200
G1 Z.4 F720
G1 X83.776 Y74.488 F9000
G1 Z.2 F720
G1 E3.2 F2400
M204 P800
;TYPE:Perimeter
;WIDTH:0.419999
G1 F1200
G1 X84.418 Y74.237 E.02119
G1 X85.265 Y73.968 E.02732
G1 X85.801 Y73.819 E.01707
G1 X86.103 Y73.655 E.01055
G1 X86.16 Y73.523 E.00443
G1 X88.151 Y73.192 E.06201
G1 X88.204 Y73.279 E.00314
G1 X88.569 Y73.335 E.01135
G1 X89.781 Y73.279 E.03727
G1 X90.99 Y73.303 E.03716
G1 X91.33 Y73.247 E.01059
G1 X91.426 Y73.141 E.00439
G1 X93.455 Y73.446 E.06303
G1 X93.479 Y73.545 E.00313
G1 X93.782 Y73.695 E.0104
G1 X95.167 Y74.096 E.04432
G1 X96.086 Y74.428 E.03001
G1 X96.458 Y74.483 E.01155
G1 X96.578 Y74.413 E.00428
G1 X98.367 Y75.307 E.06146
G1 X98.358 Y75.412 E.00326
G1 X98.496 Y75.579 E.00668
G1 X98.661 Y75.706 E.00638
G1 X99.108 Y75.975 E.01604
G1 X100.005 Y76.601 E.03363
G1 X100.587 Y77.066 E.02288
G1 X100.938 Y77.242 E.01206
G1 X101.076 Y77.211 E.00434
G1 X102.499 Y78.612 E.06135
G1 X102.457 Y78.708 E.00322
G1 X102.537 Y78.91 E.00668
G1 X102.647 Y79.072 E.006
G1 X103.132 Y79.647 E.02313
G1 X103.781 Y80.528 E.03363
G1 X104.093 Y81.011 E.01765
G1 X104.344 Y81.246 E.01057
G1 X104.486 Y81.26 E.00439
G1 X105.409 Y83.037 E.06154
G1 X105.341 Y83.115 E.00318
G1 X105.405 Y83.502 E.01206
G1 X105.763 Y84.418 E.03021
G1 X106.033 Y85.266 E.02733
G1 X106.181 Y85.801 E.01706
G1 X106.345 Y86.103 E.01055
G1 X106.477 Y86.16 E.00443
G1 X106.808 Y88.151 E.06201
G1 X106.721 Y88.204 E.00314
G1 X106.665 Y88.569 E.01135
G1 X106.721 Y89.781 E.03727
G1 X106.697 Y90.99 E.03716
G1 X106.753 Y91.33 E.01059
G1 X106.859 Y91.426 E.00439
G1 X106.554 Y93.455 E.06303
G1 X106.455 Y93.479 E.00313
G1 X106.305 Y93.782 E.0104
G1 X105.904 Y95.167 E.04432
G1 X105.572 Y96.086 E.03001
G1 X105.517 Y96.458 E.01155
G1 X105.587 Y96.578 E.00428
G1 X104.693 Y98.367 E.06146
G1 X104.588 Y98.358 E.00326
G1 X104.421 Y98.496 E.00668
G1 X104.294 Y98.661 E.00638
G1 X104.025 Y99.108 E.01604
G1 X103.399 Y100.005 E.03362
G1 X102.934 Y100.587 E.02288
G1 X102.758 Y100.938 E.01206
G1 X102.789 Y101.076 E.00434
G1 X101.388 Y102.499 E.06135
G1 X101.292 Y102.457 E.00322
G1 X101.09 Y102.537 E.00668
G1 X100.928 Y102.647 E.006
G1 X100.353 Y103.132 E.02313
G1 X99.472 Y103.781 E.03363
G1 X98.989 Y104.093 E.01765
G1 X98.754 Y104.344 E.01057
G1 X98.74 Y104.486 E.00439
G1 X96.963 Y105.409 E.06154
G1 X96.885 Y105.341 E.00318
G1 X96.498 Y105.405 E.01206
G1 X95.582 Y105.763 E.03021
G1 X94.251 Y106.166 E.04272
G1 X93.897 Y106.345 E.01219
G1 X93.84 Y106.477 E.00443
G1 X91.849 Y106.808 E.06201
G1 X91.796 Y106.721 E.00314
G1 X91.431 Y106.665 E.01135
G1 X90.219 Y106.721 E.03727
G1 X89.01 Y106.697 E.03716
G1 X88.67 Y106.753 E.01059
G1 X88.574 Y106.859 E.00439
G1 X86.545 Y106.554 E.06303
G1 X86.521 Y106.455 E.00313
G1 X86.218 Y106.305 E.0104
G1 X84.833 Y105.904 E.04432
G1 X83.914 Y105.572 E.03001
G1 X83.542 Y105.517 E.01155
G1 X83.422 Y105.587 E.00428
G1 X81.633 Y104.693 E.06146
G1 X81.642 Y104.588 E.00326
G1 X81.504 Y104.421 E.00668
G1 X81.339 Y104.294 E.00638
G1 X80.892 Y104.025 E.01604
G1 X79.995 Y103.399 E.03362
G1 X79.413 Y102.934 E.02288
G1 X79.062 Y102.758 E.01206
G1 X78.924 Y102.789 E.00434
G1 X77.501 Y101.388 E.06135
G1 X77.543 Y101.292 E.00322
G1 X77.463 Y101.09 E.00668
G1 X77.353 Y100.928 E.006
G1 X76.868 Y100.353 E.02313
G1 X76.219 Y99.472 E.03363
G1 X75.915 Y99 E.01724
G1 X75.656 Y98.754 E.01097
G1 X75.514 Y98.74 E.00439
G1 X74.591 Y96.963 E.06154
G1 X74.659 Y96.885 E.00318
G1 X74.595 Y96.498 E.01206
G1 X74.237 Y95.582 E.03021
G1 X73.968 Y94.735 E.02732
G1 X73.819 Y94.2 E.01706
G1 X73.655 Y93.897 E.01057
G1 X73.523 Y93.84 E.00443
G1 X73.192 Y91.849 E.06201
G1 X73.279 Y91.796 E.00314
G1 X73.335 Y91.431 E.01135
G1 X73.279 Y90.219 E.03727
G1 X73.303 Y89.01 E.03716
G1 X73.247 Y88.67 E.01059
G1 X73.141 Y88.574 E.00439
G1 X73.446 Y86.545 E.06303
G1 X73.545 Y86.521 E.00313
G1 X73.694 Y86.222 E.01029
G1 X74.096 Y84.833 E.04443
G1 X74.428 Y83.914 E.03001
G1 X74.483 Y83.542 E.01155
G1 X74.413 Y83.422 E.00428
G1 X75.307 Y81.633 E.06146
G1 X75.412 Y81.642 E.00326
G1 X75.579 Y81.504 E.00668
G1 X75.706 Y81.339 E.00638
G1 X75.975 Y80.892 E.01604
G1 X76.601 Y79.995 E.03362
G1 X77.066 Y79.413 E.02288
G1 X77.242 Y79.062 E.01206
G1 X77.211 Y78.924 E.00434
G1 X78.612 Y77.501 E.06135
G1 X78.708 Y77.543 E.00322
G1 X78.91 Y77.463 E.00668
G1 X79.072 Y77.353 E.006
G1 X79.647 Y76.868 E.02313
G1 X80.528 Y76.219 E.03363
G1 X81.011 Y75.907 E.01765
G1 X81.246 Y75.656 E.01057
G1 X81.26 Y75.514 E.00439
G1 X83.037 Y74.591 E.06154
G1 X83.115 Y74.659 E.00318
G1 X83.502 Y74.595 E.01206
G1 X83.72 Y74.51 E.00718
M204 P1000
G1 X83.638 Y74.137 F9000
M204 P800
G1 F1200
G1 X84.292 Y73.881 E.02156
G1 X85.645 Y73.472 E.04343
G1 X85.865 Y73.362 E.00756
G1 X85.947 Y73.176 E.00623
G1 X88.253 Y72.792 E.07184
G1 X88.333 Y72.924 E.00475
G1 X88.552 Y72.958 E.00681
G1 X89.776 Y72.902 E.03765
G1 X90.998 Y72.926 E.03754
G1 X91.202 Y72.892 E.00635
G1 X91.334 Y72.746 E.00607
G1 X93.669 Y73.097 E.07254
G1 X93.705 Y73.243 E.00462
G1 X93.887 Y73.333 E.00624
G1 X95.284 Y73.737 E.04469
G1 X96.214 Y74.074 E.03039
G1 X96.437 Y74.106 E.00693
G1 X96.608 Y74.006 E.00609
G1 X98.688 Y75.046 E.07145
G1 X98.674 Y75.207 E.00497
G1 X98.856 Y75.383 E.00778
G1 X99.313 Y75.659 E.01642
G1 X100.231 Y76.299 E.03438
G1 X100.807 Y76.759 E.02265
G1 X101.033 Y76.877 E.00784
G1 X101.229 Y76.833 E.00618
G1 X102.885 Y78.463 E.07138
G1 X102.822 Y78.61 E.00493
G1 X102.935 Y78.829 E.00756
G1 X103.429 Y79.414 E.02351
G1 X104.092 Y80.315 E.03439
G1 X104.376 Y80.757 E.01615
G1 X104.547 Y80.929 E.00744
G1 X104.749 Y80.948 E.00623
G1 X105.822 Y83.013 E.07151
G1 X105.718 Y83.133 E.00486
G1 X105.756 Y83.365 E.00724
G1 X106.119 Y84.292 E.03059
G1 X106.528 Y85.645 E.04343
G1 X106.638 Y85.865 E.00756
G1 X106.824 Y85.947 E.00623
G1 X107.208 Y88.253 E.07184
G1 X107.076 Y88.333 E.00475
G1 X107.042 Y88.552 E.00681
G1 X107.098 Y89.776 E.03765
G1 X107.074 Y90.998 E.03754
G1 X107.108 Y91.202 E.00635
G1 X107.254 Y91.334 E.00607
G1 X106.903 Y93.669 E.07254
G1 X106.757 Y93.705 E.00462
G1 X106.667 Y93.887 E.00624
G1 X106.263 Y95.284 E.04469
G1 X105.966 Y96.106 E.02685
G1 X105.894 Y96.437 E.01043
G1 X105.994 Y96.608 E.00609
G1 X104.954 Y98.688 E.07145
G1 X104.793 Y98.674 E.00497
G1 X104.617 Y98.856 E.00778
G1 X104.341 Y99.313 E.01642
G1 X103.701 Y100.231 E.03438
G1 X103.229 Y100.823 E.02326
G1 X103.123 Y101.033 E.00724
G1 X103.167 Y101.229 E.00618
G1 X101.537 Y102.885 E.07138
G1 X101.39 Y102.822 E.00493
G1 X101.171 Y102.935 E.00756
G1 X100.586 Y103.429 E.02351
G1 X99.685 Y104.092 E.03439
G1 X99.243 Y104.376 E.01615
G1 X99.071 Y104.547 E.00744
G1 X99.052 Y104.749 E.00623
G1 X96.987 Y105.822 E.07151
G1 X96.867 Y105.718 E.00486
G1 X96.635 Y105.756 E.00724
G1 X95.499 Y106.185 E.03731
G1 X94.428 Y106.511 E.0344
G1 X94.135 Y106.638 E.00981
G1 X94.053 Y106.824 E.00623
G1 X91.747 Y107.208 E.07184
G1 X91.667 Y107.076 E.00475
G1 X91.448 Y107.042 E.00681
G1 X90.224 Y107.098 E.03765
G1 X89.119 Y107.077 E.03395
G1 X88.798 Y107.108 E.00991
G1 X88.666 Y107.254 E.00607
G1 X86.331 Y106.903 E.07254
G1 X86.295 Y106.757 E.00462
G1 X86.113 Y106.667 E.00624
G1 X84.716 Y106.263 E.04469
G1 X83.906 Y105.97 E.02645
G1 X83.563 Y105.894 E.01082
G1 X83.392 Y105.994 E.00609
G1 X81.312 Y104.954 E.07145
G1 X81.326 Y104.793 E.00497
G1 X81.144 Y104.617 E.00778
G1 X80.687 Y104.341 E.01642
G1 X79.769 Y103.701 E.03438
G1 X79.194 Y103.242 E.02262
G1 X78.967 Y103.123 E.00787
G1 X78.771 Y103.167 E.00618
G1 X77.115 Y101.537 E.07138
G1 X77.178 Y101.39 E.00493
G1 X77.065 Y101.171 E.00756
G1 X76.571 Y100.586 E.02351
G1 X75.908 Y99.685 E.03439
G1 X75.624 Y99.243 E.01615
G1 X75.453 Y99.071 E.00744
G1 X75.251 Y99.052 E.00623
G1 X74.178 Y96.987 E.07151
G1 X74.282 Y96.867 E.00486
G1 X74.244 Y96.635 E.00724
G1 X73.881 Y95.708 E.03059
G1 X73.472 Y94.355 E.04343
G1 X73.362 Y94.135 E.00756
G1 X73.176 Y94.053 E.00623
G1 X72.792 Y91.747 E.07184
G1 X72.924 Y91.667 E.00475
G1 X72.958 Y91.448 E.00681
G1 X72.902 Y90.224 E.03765
G1 X72.923 Y89.156 E.03281
G1 X72.892 Y88.798 E.01104
G1 X72.746 Y88.666 E.00607
G1 X73.097 Y86.331 E.07254
G1 X73.243 Y86.295 E.00462
G1 X73.333 Y86.115 E.00617
G1 X73.737 Y84.716 E.04476
G1 X74.074 Y83.786 E.03039
G1 X74.106 Y83.563 E.00693
G1 X74.006 Y83.392 E.00609
G1 X75.046 Y81.312 E.07145
G1 X75.207 Y81.326 E.00497
G1 X75.383 Y81.144 E.00778
G1 X75.659 Y80.687 E.01642
G1 X76.299 Y79.769 E.03438
G1 X76.771 Y79.177 E.02326
G1 X76.877 Y78.967 E.00724
G1 X76.833 Y78.771 E.00618
G1 X78.463 Y77.115 E.07138
G1 X78.61 Y77.178 E.00493
G1 X78.829 Y77.065 E.00756
G1 X79.414 Y76.571 E.02351
G1 X80.315 Y75.908 E.03439
G1 X80.757 Y75.624 E.01615
G1 X80.929 Y75.453 E.00744
G1 X80.948 Y75.251 E.00623
G1 X83.013 Y74.178 E.07151
G1 X83.133 Y74.282 E.00486
G1 X83.365 Y74.244 E.00724
G1 X83.583 Y74.159 E.00718
M204 P1000
G1 X83.501 Y73.786 F9000
M204 P800
;TYPE:External perimeter
G1 F1200
G1 X84.166 Y73.526 E.02194
G1 X85.628 Y73.069 E.04706
G1 X85.693 Y72.836 E.00742
G1 X88.354 Y72.393 E.08292
G1 X88.462 Y72.57 E.00636
G1 X88.535 Y72.581 E.00227
G1 X89.771 Y72.525 E.03803
G1 X91.073 Y72.538 E.04001
G1 X91.207 Y72.345 E.00721
G1 X93.883 Y72.748 E.08314
G1 X93.931 Y72.941 E.00612
G1 X93.991 Y72.971 E.00208
G1 X95.619 Y73.457 E.0522
G1 X96.417 Y73.73 E.0259
G1 X96.604 Y73.582 E.00732
G1 X99.01 Y74.785 E.08264
G1 X98.99 Y75.001 E.00669
G1 X99.873 Y75.59 E.03261
G1 X101.128 Y76.512 E.04785
G1 X101.354 Y76.427 E.00742
G1 X103.271 Y78.314 E.08267
G1 X103.186 Y78.513 E.00665
G1 X103.224 Y78.586 E.00252
G1 X103.725 Y79.18 E.02389
G1 X104.403 Y80.101 E.03514
G1 X104.75 Y80.611 E.01896
G1 X104.993 Y80.599 E.00745
G1 X106.234 Y82.99 E.08276
G1 X106.094 Y83.15 E.00654
G1 X106.107 Y83.228 E.00241
G1 X106.474 Y84.166 E.03097
G1 X106.931 Y85.628 E.04706
G1 X107.164 Y85.693 E.00742
G1 X107.607 Y88.354 E.08291
G1 X107.43 Y88.462 E.00636
G1 X107.419 Y88.535 E.00227
G1 X107.465 Y89.539 E.0309
G1 X107.462 Y91.073 E.04713
G1 X107.655 Y91.207 E.0072
G1 X107.252 Y93.883 E.08314
G1 X107.059 Y93.931 E.00612
G1 X107.029 Y93.991 E.00208
G1 X106.532 Y95.648 E.05313
G1 X106.27 Y96.417 E.02497
G1 X106.418 Y96.604 E.00732
G1 X105.215 Y99.01 E.08264
G1 X104.999 Y98.99 E.00669
G1 X104.94 Y99.051 E.00259
G1 X104.657 Y99.519 E.0168
G1 X104.213 Y100.156 E.02388
G1 X103.488 Y101.128 E.03726
G1 X103.573 Y101.354 E.00742
G1 X101.686 Y103.271 E.08267
G1 X101.487 Y103.186 E.00665
G1 X101.414 Y103.224 E.00252
G1 X100.82 Y103.725 E.02389
G1 X99.899 Y104.403 E.03514
G1 X99.389 Y104.75 E.01896
G1 X99.401 Y104.993 E.00745
G1 X97.01 Y106.234 E.08276
G1 X96.85 Y106.094 E.00654
G1 X96.772 Y106.107 E.00241
G1 X95.834 Y106.474 E.03097
G1 X94.372 Y106.931 E.04706
G1 X94.307 Y107.164 E.00742
G1 X91.646 Y107.607 E.08291
G1 X91.538 Y107.43 E.00636
G1 X91.468 Y107.419 E.00219
G1 X90.46 Y107.465 E.03099
G1 X88.927 Y107.462 E.04711
G1 X88.793 Y107.655 E.0072
G1 X86.117 Y107.252 E.08314
G1 X86.069 Y107.059 E.00612
G1 X86.009 Y107.029 E.00208
G1 X84.382 Y106.543 E.05215
G1 X83.583 Y106.27 E.02595
G1 X83.396 Y106.418 E.00732
G1 X80.99 Y105.215 E.08264
G1 X81.01 Y104.999 E.00669
G1 X80.949 Y104.94 E.00259
G1 X80.292 Y104.525 E.02388
G1 X78.872 Y103.488 E.05403
G1 X78.646 Y103.573 E.00742
G1 X76.729 Y101.686 E.08267
G1 X76.814 Y101.487 E.00665
G1 X76.776 Y101.414 E.00252
G1 X76.275 Y100.82 E.02389
G1 X75.597 Y99.899 E.03514
G1 X75.25 Y99.389 E.01896
G1 X75.007 Y99.401 E.00745
G1 X73.766 Y97.01 E.08276
G1 X73.906 Y96.85 E.00654
G1 X73.893 Y96.772 E.00241
G1 X73.526 Y95.834 E.03097
G1 X73.069 Y94.372 E.04706
G1 X72.836 Y94.307 E.00742
G1 X72.393 Y91.646 E.08292
G1 X72.57 Y91.538 E.00636
G1 X72.581 Y91.465 E.00227
G1 X72.525 Y90.229 E.03803
G1 X72.538 Y88.927 E.04
G1 X72.345 Y88.793 E.0072
G1 X72.748 Y86.117 E.08314
G1 X72.941 Y86.069 E.00612
G1 X72.971 Y86.009 E.00206
G1 X73.457 Y84.383 E.05215
G1 X73.73 Y83.583 E.02597
G1 X73.582 Y83.396 E.00732
G1 X74.785 Y80.99 E.08264
G1 X75.001 Y81.01 E.00669
G1 X75.06 Y80.949 E.00259
G1 X75.343 Y80.481 E.0168
G1 X75.706 Y79.96 E.01955
G1 X76.512 Y78.872 E.04159
G1 X76.427 Y78.646 E.00742
G1 X78.314 Y76.729 E.08267
G1 X78.513 Y76.814 E.00665
G1 X78.586 Y76.776 E.00252
G1 X79.18 Y76.275 E.02389
G1 X80.101 Y75.597 E.03514
G1 X80.611 Y75.25 E.01896
G1 X80.599 Y75.007 E.00745
G1 X82.99 Y73.766 E.08276
G1 X83.15 Y73.906 E.00654
G1 X83.445 Y73.808 E.00955
M204 P1000
G1 X83.776 Y74.076 F9000
G1 E-2.24 F4200
;WIPE_START
G1 F7200
G1 X84.166 Y73.526 E-.42901
G1 X84.998 Y73.266 E-.48299
;WIPE_END
G1 E-.048 F4200
G1 Z.4 F720
G1 X88.748 Y93.853 F9000
G1 Z.2 F720
G1 E3.2 F2400
M204 P800
;TYPE:Perimeter
G1 F1200
G1 X88.483 Y93.867 E.00816
G1 X88.144 Y93.748 E.01104
G1 X87.868 Y93.503 E.01134
G1 X87.737 Y93.232 E.00924
G1 X87.375 Y92.973 E.01371
G1 X87.249 Y92.828 E.00589
G1 X86.958 Y92.751 E.00924
G1 X86.694 Y92.556 E.01008
G1 X86.498 Y92.248 E.01121
G1 X86.44 Y92.016 E.00734
G1 X86.45 Y91.952 E.00202
G1 X86.247 Y91.78 E.00818
G1 X86.086 Y91.479 E.01047
G1 X86.046 Y91.112 E.01136
G1 X86.091 Y90.893 E.00685
G1 X86.138 Y90.808 E.003
G1 X86.046 Y90.316 E.01535
G1 X86.046 Y89.811 E.01552
G1 X86.1 Y89.282 E.01633
G1 X86.138 Y89.192 E.003
G1 X86.047 Y88.898 E.00947
G1 X86.08 Y88.54 E.01104
G1 X86.247 Y88.22 E.0111
