; generated by PrusaSlicer 2.6.0-alpha0 on 2023-02-28 at 19:38:22 UTC

; 
;

; 
;

; 
;

; 

; external perimeters extrusion width = 0.45mm
; perimeters extrusion width = 0.45mm
; infill extrusion width = 0.45mm
; solid infill extrusion width = 0.45mm
; top infill extrusion width = 0.40mm
; first layer extrusion width = 0.42mm

M73 P0 R141
M201 X2500 Y2500 Z400 E5000 ; sets maximum accelerations, mm/sec^2
M203 X180 Y180 Z12 E80 ; sets maximum feedrates, mm / sec
M204 P1250 R1250 T2500 ; sets acceleration (P, T) and retract acceleration (R), mm/sec^2
M205 X8.00 Y8.00 Z2.00 E10.00 ; sets the jerk limits, mm/sec
M205 S0 T0 ; sets the minimum extruding and travel feed rate, mm/sec
M107
;TYPE:Custom
M862.3 P "MINI" ; printer model check
G90 ; use absolute coordinates
M83 ; extruder relative mode
M104 S170 ; set extruder temp for bed leveling
M140 S60 ; set bed temp
M109 R170 ; wait for bed leveling temp
M190 S60 ; wait for bed temp
M204 T1250 ; set travel acceleration
G28 ; home all without mesh bed level
G29 ; mesh bed leveling 
M204 T2500 ; restore travel acceleration
M104 S215 ; set extruder temp
G92 E0
G1 Y-2 X179 F2400
G1 Z3 F720
M109 S215 ; wait for extruder temp

; intro line
G1 X170 F1000
G1 Z0.2 F720
G1 X110 E8 F900
G1 X40 E10 F700
G92 E0

M221 S95 ; set flow
G21 ; set units to millimeters
G90 ; use absolute coordinates
M83 ; use relative distances for extrusion
M900 K0.05 ; Filament gcode LA 1.5
M900 K30 ; Filament gcode LA 1.0
M107
;LAYER_CHANGE
;Z:0.25
;HEIGHT:0.25
;BEFORE_LAYER_CHANGE
G92 E0.0
;0.25


G1 E-3.2 F4200
G1 Z.2 F720
G1 Z.25
;AFTER_LAYER_CHANGE
;0.25
G1 Z.45
G1 X69.915 Y34.805 F9000
G1 Z.25 F720
G1 E3.2 F2400
M204 P800
;TYPE:Skirt/Brim
;WIDTH:0.42
G1 F1200
G1 X71.041 Y34.041 E.05959
G1 X71.75 Y33.933 E.0314
G1 X108.25 Y33.933 E1.59831
G1 X109.554 Y34.324 E.05961
G1 X110.426 Y35.369 E.0596
G1 X110.605 Y36.064 E.03143
G1 X121.105 Y141.074 E4.62124
G1 X121.049 Y142.076 E.04395
G1 X120.784 Y143.057 E.0445
G1 X120.582 Y143.511 E.02176
G1 X120.032 Y144.36 E.0443
G1 X119.313 Y145.082 E.04462
G1 X118.464 Y145.635 E.04437
G1 X117.986 Y145.848 E.02292
G1 X117.497 Y146.005 E.02249
G1 X116.954 Y146.067 E.02393
G1 X63.046 Y146.067 E2.36059
G1 X62.504 Y146.005 E.02389
G1 X62.013 Y145.848 E.02257
G1 X61.536 Y145.635 E.02288
G1 X60.687 Y145.082 E.04437
G1 X60.317 Y144.749 E.0218
G1 X59.679 Y143.963 E.04433
G1 X59.216 Y143.057 E.04455
G1 X59.054 Y142.56 E.02289
G1 X58.951 Y142.076 E.02167
G1 X58.895 Y141.074 E.04395
G1 X69.395 Y36.064 E4.62124
G1 X69.892 Y34.861 E.057
M204 P1000
; printing object 0 id:0 copy 0
M73 P0 R140
G1 E-2.24 F4200
;WIPE_START
G1 F7200
G1 X71.041 Y34.041 E-.78226
G1 X71.358 Y33.993 E-.17774
;WIPE_END
G1 Z.45 F720
G1 X92.934 Y80.587 F9000
G1 Z.25 F720
G1 E3.2 F2400
M204 P800
;TYPE:Perimeter
G1 F1200
G1 X94.175 Y79.685 E.06718
G1 X95.636 Y79.034 E.07004
G1 X97.201 Y78.702 E.07006
G1 X100.799 Y78.702 E.15755
G1 X102.364 Y79.034 E.07006
G1 X103.825 Y79.685 E.07004
G1 X105.118 Y80.625 E.07
G1 X106.188 Y81.813 E.07001
G1 X106.988 Y83.198 E.07004
G1 X107.469 Y84.679 E.06819
G1 X113.74 Y119.797 E1.56212
G1 X113.899 Y121.309 E.06657
G1 X113.732 Y122.899 E.07001
G1 X113.238 Y124.42 E.07003
G1 X112.438 Y125.805 E.07004
G1 X111.368 Y126.993 E.07001
G1 X110.075 Y127.933 E.07
G1 X108.614 Y128.584 E.07004
G1 X107.049 Y128.916 E.07006
G1 X105.451 Y128.916 E.06998
G1 X103.886 Y128.584 E.07006
G1 X102.425 Y127.933 E.07004
G1 X101.132 Y126.993 E.07
G1 X100.126 Y125.876 E.06583
G1 X91.799 Y115.783 E.57297
G1 X91.012 Y114.42 E.06892
G1 X90.518 Y112.899 E.07003
G1 X90.357 Y111.369 E.06737
G1 X90.357 Y86.249 E1.09999
G1 X90.518 Y84.719 E.06737
G1 X91.012 Y83.198 E.07003
G1 X91.797 Y81.838 E.06876
G1 X92.886 Y80.622 E.07148
M204 P1000
G1 X93.154 Y80.88 F9000
M204 P800
G1 F1200
G1 X94.36 Y80.004 E.06527
G1 X95.75 Y79.385 E.06663
G1 X97.239 Y79.068 E.06666
G1 X100.761 Y79.068 E.15423
G1 X102.25 Y79.385 E.06666
G1 X103.64 Y80.004 E.06663
G1 X104.872 Y80.898 E.06666
G1 X105.89 Y82.03 E.06667
G1 X106.651 Y83.348 E.06664
G1 X107.113 Y84.769 E.06543
G1 X113.377 Y119.849 E1.56042
G1 X113.531 Y121.309 E.06429
G1 X113.372 Y122.823 E.06666
G1 X112.901 Y124.27 E.06664
G1 X112.14 Y125.588 E.06664
G1 X111.122 Y126.72 E.06667
G1 X109.89 Y127.614 E.06666
G1 X108.5 Y128.233 E.06663
G1 X107.011 Y128.55 E.06666
G1 X105.489 Y128.55 E.06665
G1 X104 Y128.233 E.06666
G1 X102.61 Y127.614 E.06663
G1 X101.378 Y126.72 E.06666
G1 X100.403 Y125.637 E.06381
G1 X92.101 Y115.574 E.57126
G1 X91.349 Y114.27 E.06592
G1 X90.878 Y112.823 E.06664
G1 X90.724 Y111.35 E.06485
G1 X90.724 Y86.268 E1.09832
G1 X90.878 Y84.795 E.06485
G1 X91.349 Y83.348 E.06664
G1 X92.096 Y82.054 E.06543
G1 X93.11 Y80.919 E.06665
M204 P1000
G1 X93.375 Y81.172 F9000
M204 P800
;TYPE:External perimeter
G1 F1200
G1 X94.544 Y80.323 E.06327
G1 X95.864 Y79.735 E.06328
G1 X97.278 Y79.435 E.0633
G1 X100.722 Y79.435 E.15081
G1 X102.136 Y79.735 E.0633
G1 X103.456 Y80.323 E.06328
G1 X104.625 Y81.172 E.06327
G1 X105.592 Y82.246 E.06328
G1 X106.315 Y83.498 E.06331
G1 X106.757 Y84.858 E.06262
G1 X113.014 Y119.9 E1.55873
G1 X113.162 Y121.309 E.06204
G1 X113.011 Y122.746 E.06327
G1 X112.565 Y124.12 E.06326
G1 X111.842 Y125.372 E.06331
G1 X110.875 Y126.446 E.06328
G1 X109.706 Y127.295 E.06327
G1 X108.386 Y127.883 E.06328
G1 X106.972 Y128.183 E.0633
G1 X105.528 Y128.183 E.06323
G1 X104.114 Y127.883 E.0633
G1 X102.794 Y127.295 E.06328
G1 X101.625 Y126.446 E.06327
G1 X100.681 Y125.397 E.0618
G1 X92.403 Y115.364 E.56957
G1 X91.685 Y114.121 E.06286
G1 X91.239 Y112.746 E.0633
G1 X91.09 Y111.33 E.06235
G1 X91.09 Y86.288 E1.09657
G1 X91.239 Y84.872 E.06235
G1 X91.685 Y83.498 E.06326
G1 X92.394 Y82.27 E.06209
G1 X93.335 Y81.217 E.06184
M204 P1000
G1 X93.291 Y80.781 F9000
G1 E-2.24 F4200
;WIPE_START
G1 F7200
G1 X94.544 Y80.323 E-.83326
G1 X94.753 Y80.23 E-.12674
;WIPE_END
G1 Z.45 F720
G1 X89.462 Y112.962 F9000
G1 Z.25 F720
G1 E3.2 F2400
M204 P800
;TYPE:Perimeter
G1 F1200
G1 X88.988 Y114.42 E.06713
G1 X88.201 Y115.783 E.06892
G1 X79.874 Y125.876 E.57297
G1 X78.868 Y126.993 E.06583
G1 X77.575 Y127.933 E.07
G1 X76.114 Y128.584 E.07004
G1 X74.55 Y128.916 E.07001
G1 X72.95 Y128.916 E.07006
G1 X71.386 Y128.584 E.07001
G1 X69.925 Y127.933 E.07004
G1 X68.632 Y126.993 E.07
G1 X67.562 Y125.805 E.07001
G1 X66.762 Y124.42 E.07004
G1 X66.268 Y122.899 E.07003
G1 X66.101 Y121.309 E.07001
G1 X66.26 Y119.797 E.06657
G1 X72.531 Y84.679 E1.56212
G1 X73.012 Y83.198 E.06819
G1 X73.812 Y81.813 E.07004
G1 X74.882 Y80.625 E.07001
G1 X76.175 Y79.685 E.07
G1 X77.636 Y79.034 E.07004
G1 X79.2 Y78.702 E.07001
G1 X82.799 Y78.702 E.1576
G1 X84.364 Y79.034 E.07006
G1 X85.825 Y79.685 E.07004
G1 X87.118 Y80.625 E.07
G1 X88.188 Y81.813 E.07001
G1 X88.988 Y83.198 E.07004
G1 X89.482 Y84.719 E.07003
G1 X89.643 Y86.249 E.06737
G1 X89.643 Y111.369 E1.09999
G1 X89.48 Y112.905 E.06764
M204 P1000
G1 X89.111 Y112.854 F9000
M204 P800
G1 F1200
G1 X88.651 Y114.27 E.0652
G1 X87.899 Y115.574 E.06592
G1 X79.597 Y125.637 E.57126
G1 X78.622 Y126.72 E.06381
G1 X77.39 Y127.614 E.06666
G1 X76 Y128.233 E.06663
G1 X74.511 Y128.55 E.06666
G1 X72.989 Y128.55 E.06665
G1 X71.5 Y128.233 E.06666
G1 X70.11 Y127.614 E.06663
G1 X68.878 Y126.72 E.06666
G1 X67.86 Y125.588 E.06667
G1 X67.099 Y124.27 E.06664
G1 X66.628 Y122.823 E.06664
G1 X66.469 Y121.309 E.06666
G1 X66.623 Y119.849 E.06429
G1 X72.887 Y84.769 E1.56042
G1 X73.349 Y83.348 E.06543
G1 X74.11 Y82.03 E.06664
G1 X75.128 Y80.898 E.06667
G1 X76.36 Y80.004 E.06666
G1 X77.75 Y79.385 E.06663
G1 X79.239 Y79.068 E.06666
G1 X82.761 Y79.068 E.15423
G1 X84.25 Y79.385 E.06666
G1 X85.64 Y80.004 E.06663
G1 X86.872 Y80.898 E.06666
G1 X87.89 Y82.03 E.06667
G1 X88.651 Y83.348 E.06664
G1 X89.122 Y84.795 E.06664
G1 X89.276 Y86.268 E.06485
G1 X89.276 Y111.35 E1.09832
G1 X89.124 Y112.796 E.06367
M204 P1000
G1 X88.761 Y112.746 F9000
M204 P800
;TYPE:External perimeter
G1 F1200
G1 X88.315 Y114.12 E.06326
G1 X87.597 Y115.364 E.0629
G1 X79.319 Y125.397 E.56957
G1 X78.375 Y126.446 E.0618
G1 X77.206 Y127.295 E.06327
G1 X75.886 Y127.883 E.06328
G1 X74.473 Y128.183 E.06325
G1 X73.027 Y128.183 E.06332
G1 X71.614 Y127.883 E.06325
G1 X70.294 Y127.295 E.06328
G1 X69.125 Y126.446 E.06327
G1 X68.158 Y125.372 E.06328
G1 X67.435 Y124.12 E.06331
G1 X66.989 Y122.746 E.06326
G1 X66.838 Y121.309 E.06327
G1 X66.986 Y119.9 E.06204
G1 X73.243 Y84.858 E1.55873
G1 X73.685 Y83.498 E.06262
G1 X74.408 Y82.246 E.06331
G1 X75.375 Y81.172 E.06328
G1 X76.544 Y80.323 E.06327
G1 X77.864 Y79.735 E.06328
G1 X79.277 Y79.435 E.06325
G1 X82.722 Y79.435 E.15085
G1 X84.136 Y79.735 E.0633
G1 X85.456 Y80.323 E.06328
G1 X86.625 Y81.172 E.06327
G1 X87.592 Y82.246 E.06328
G1 X88.315 Y83.498 E.06331
G1 X88.761 Y84.872 E.06326
G1 X88.91 Y86.288 E.06235
G1 X88.91 Y111.33 E1.09657
G1 X88.768 Y112.686 E.0597
M204 P1000
G1 X89.058 Y113.014 F9000
G1 E-2.24 F4200
;WIPE_START
G1 F7200
G1 X88.315 Y114.12 E-.83338
G1 X88.201 Y114.318 E-.12662
;WIPE_END
G1 Z.45 F720
G1 X106.393 Y72.442 F9000
G1 Z.25 F720
G1 E3.2 F2400
M204 P800
;TYPE:Perimeter
G1 F1200
G1 X106.393 Y37.442 E1.53262
G1 X107.107 Y37.442 E.03127
G1 X107.107 Y71.394 E1.48673
G1 X117.562 Y140.934 E3.07933
G1 X117.601 Y141.309 E.01651
G1 X117.571 Y141.59 E.01237
G1 X117.484 Y141.858 E.01234
G1 X117.343 Y142.103 E.01238
G1 X117.154 Y142.313 E.01237
G1 X117.084 Y142.364 E.00379
G1 X95.032 Y125.562 E1.214
G1 X93.825 Y124.685 E.06533
G1 X92.364 Y124.034 E.07004
G1 X90.799 Y123.702 E.07006
G1 X89.201 Y123.702 E.06998
G1 X87.636 Y124.034 E.07006
G1 X86.175 Y124.685 E.07004
G1 X84.968 Y125.562 E.06533
G1 X62.916 Y142.364 E1.214
G1 X62.846 Y142.313 E.00379
G1 X62.657 Y142.103 E.01237
G1 X62.516 Y141.858 E.01238
G1 X62.429 Y141.59 E.01234
G1 X62.399 Y141.309 E.01237
G1 X62.438 Y140.934 E.01651
G1 X72.893 Y71.394 E3.07933
G1 X72.893 Y37.442 E1.48673
G1 X73.607 Y37.442 E.03127
M73 P1 R140
G1 X73.607 Y72.442 E1.53262
G1 X106.333 Y72.442 E1.43305
M204 P1000
G1 X106.026 Y72.075 F9000
M204 P800
M73 P1 R139
G1 F1200
G1 X106.026 Y37.075 E1.53262
G1 X107.474 Y37.075 E.06341
G1 X107.474 Y71.367 E1.50162
G1 X117.925 Y140.887 E3.07844
G1 X117.969 Y141.309 E.01858
G1 X117.932 Y141.667 E.01576
G1 X117.821 Y142.008 E.0157
G1 X117.641 Y142.319 E.01573
G1 X117.4 Y142.587 E.01578
G1 X117.072 Y142.815 E.01749
G1 X94.813 Y125.856 E1.22537
G1 X93.64 Y125.004 E.06348
G1 X92.25 Y124.385 E.06663
G1 X90.761 Y124.068 E.06666
G1 X89.239 Y124.068 E.06665
G1 X87.75 Y124.385 E.06666
G1 X86.36 Y125.004 E.06663
G1 X85.187 Y125.856 E.06348
G1 X62.928 Y142.815 E1.22537
G1 X62.89 Y142.798 E.00182
G1 X62.6 Y142.587 E.0157
G1 X62.359 Y142.319 E.01578
G1 X62.179 Y142.008 E.01573
G1 X62.068 Y141.667 E.0157
G1 X62.031 Y141.309 E.01576
G1 X62.075 Y140.887 E.01858
G1 X72.526 Y71.367 E3.07844
G1 X72.526 Y37.075 E1.50162
G1 X73.974 Y37.075 E.06341
G1 X73.974 Y72.075 E1.53262
G1 X105.966 Y72.075 E1.40091
M204 P1000
G1 X105.66 Y71.709 F9000
M204 P800
;TYPE:External perimeter
G1 F1200
G1 X105.66 Y36.709 E1.53262
G1 X107.84 Y36.709 E.09546
G1 X107.84 Y71.34 E1.51647
G1 X118.289 Y140.841 E3.0776
G1 X118.338 Y141.309 E.02061
G1 X118.292 Y141.743 E.01911
G1 X118.157 Y142.158 E.01911
G1 X117.939 Y142.536 E.01911
G1 X117.647 Y142.861 E.01913
G1 X117.294 Y143.117 E.01909
G1 X117.023 Y143.238 E.013
G1 X94.594 Y126.15 E1.23472
G1 X93.456 Y125.323 E.0616
G1 X92.136 Y124.735 E.06328
G1 X90.722 Y124.435 E.0633
G1 X89.278 Y124.435 E.06323
G1 X87.864 Y124.735 E.0633
G1 X86.544 Y125.323 E.06328
G1 X85.406 Y126.15 E.0616
G1 X62.977 Y143.238 E1.23472
G1 X62.706 Y143.117 E.013
G1 X62.353 Y142.861 E.01909
G1 X62.061 Y142.536 E.01913
G1 X61.843 Y142.158 E.01911
G1 X61.708 Y141.743 E.01911
G1 X61.662 Y141.309 E.01911
G1 X61.711 Y140.841 E.02061
G1 X72.16 Y71.34 E3.0776
G1 X72.16 Y36.709 E1.51647
G1 X74.34 Y36.709 E.09546
G1 X74.34 Y71.709 E1.53262
G1 X105.6 Y71.709 E1.36885
M204 P1000
G1 X106.044 Y71.82 F9000
G1 X106.503 Y71.709
M204 P800
;TYPE:Solid infill
;WIDTH:0.420889
G1 F1200
G1 X106.943 Y72.15 E.02735
G1 X107.035 Y72.761 E.02712
G1 X106.667 Y72.393 E.02284
G1 X106.667 Y72.716 E.01418
G1 X106.471 Y72.716 E.0086
G1 X107.127 Y73.372 E.04072
G1 X107.219 Y73.983 E.02712
G1 X105.952 Y72.716 E.07865
G1 X105.432 Y72.716 E.02283
G1 X107.311 Y74.595 E.11664
G1 X107.402 Y75.206 E.02712
G1 X104.913 Y72.716 E.15454
G1 X104.394 Y72.716 E.02278
G1 X107.494 Y75.817 E.19247
G1 X107.586 Y76.428 E.02712
G1 X103.874 Y72.716 E.23043
G1 X103.355 Y72.716 E.02278
G1 X107.678 Y77.04 E.26839
G1 X107.77 Y77.651 E.02712
G1 X102.836 Y72.716 E.30632
G1 X102.316 Y72.716 E.02283
G1 X107.862 Y78.262 E.34428
G1 X107.954 Y78.873 E.02712
G1 X101.797 Y72.716 E.38221
G1 X101.278 Y72.716 E.02278
G1 X108.046 Y79.485 E.42017
G1 X108.138 Y80.096 E.02712
G1 X100.758 Y72.716 E.45813
G1 X100.239 Y72.716 E.02278
G1 X108.23 Y80.707 E.49606
G1 X108.321 Y81.318 E.02712
G1 X99.719 Y72.716 E.53399
G1 X99.2 Y72.716 E.02278
G1 X108.413 Y81.93 E.57195
G1 X108.505 Y82.541 E.02712
G1 X98.681 Y72.716 E.60988
G1 X98.161 Y72.716 E.02283
G1 X108.597 Y83.152 E.64784
G1 X108.689 Y83.763 E.02712
G1 X97.642 Y72.716 E.68577
G1 X97.123 Y72.716 E.02278
G1 X103.763 Y79.357 E.41223
G1 X103.963 Y79.446 E.00961
G1 X105.303 Y80.419 E.07269
G1 X106.412 Y81.651 E.07276
G1 X106.896 Y82.49 E.04252
G1 X108.781 Y84.375 E.11702
G1 X108.873 Y84.986 E.02712
G1 X107.369 Y83.482 E.09336
G1 X107.619 Y84.251 E.03549
G1 X108.965 Y85.597 E.08356
G1 X109.057 Y86.208 E.02712
G1 X107.796 Y84.948 E.07825
G1 X107.909 Y85.58 E.02818
G1 X109.148 Y86.82 E.07695
G1 X109.24 Y87.431 E.02712
G1 X108.022 Y86.212 E.07564
G1 X108.135 Y86.845 E.02823
G1 X109.332 Y88.042 E.07431
G1 X109.424 Y88.653 E.02712
G1 X108.248 Y87.477 E.073
G1 X108.361 Y88.109 E.02818
G1 X109.516 Y89.265 E.07173
G1 X109.608 Y89.876 E.02712
G1 X108.474 Y88.741 E.07043
G1 X108.586 Y89.374 E.02822
G1 X109.7 Y90.487 E.06912
G1 X109.792 Y91.098 E.02712
G1 X108.699 Y90.006 E.06782
G1 X108.812 Y90.638 E.02818
G1 X109.884 Y91.71 E.06655
G1 X109.975 Y92.321 E.02712
G1 X108.925 Y91.27 E.06521
G1 X109.038 Y91.903 E.02823
G1 X110.067 Y92.932 E.06388
G1 X110.159 Y93.543 E.02712
G1 X109.151 Y92.535 E.06257
G1 X109.264 Y93.167 E.02818
G1 X110.251 Y94.155 E.0613
G1 X110.343 Y94.766 E.02712
G1 X109.377 Y93.8 E.05997
G1 X109.49 Y94.432 E.02818
G1 X110.435 Y95.377 E.05866
G1 X110.527 Y95.988 E.02712
G1 X109.603 Y95.064 E.05736
G1 X109.715 Y95.696 E.02817
G1 X110.619 Y96.6 E.05612
G1 X110.711 Y97.211 E.02712
G1 X109.828 Y96.329 E.05478
G1 X109.941 Y96.961 E.02818
G1 X110.803 Y97.822 E.05348
G1 X110.894 Y98.433 E.02712
G1 X110.054 Y97.593 E.05215
G1 X110.167 Y98.225 E.02818
G1 X110.986 Y99.045 E.05087
G1 X111.078 Y99.656 E.02712
G1 X110.28 Y98.858 E.04954
G1 X110.393 Y99.49 E.02818
G1 X111.17 Y100.267 E.04823
G1 X111.262 Y100.878 E.02712
G1 X110.506 Y100.122 E.04693
G1 X110.619 Y100.754 E.02818
G1 X111.354 Y101.49 E.04566
G1 X111.446 Y102.101 E.02712
G1 X110.732 Y101.387 E.04432
G1 X110.845 Y102.019 E.02818
G1 X111.538 Y102.712 E.04302
G1 X111.63 Y103.323 E.02712
G1 X110.957 Y102.651 E.04175
G1 X111.07 Y103.283 E.02818
G1 X111.721 Y103.935 E.04044
G1 X111.813 Y104.546 E.02712
G1 X111.183 Y103.916 E.03911
G1 X111.296 Y104.548 E.02818
G1 X111.905 Y105.157 E.03781
G1 X111.997 Y105.768 E.02712
G1 X111.409 Y105.18 E.0365
G1 X111.522 Y105.812 E.02818
G1 X112.089 Y106.379 E.0352
G1 X112.181 Y106.991 E.02717
G1 X111.635 Y106.445 E.03389
G1 X111.748 Y107.077 E.02818
G1 X112.273 Y107.602 E.03259
G1 X112.365 Y108.213 E.02712
G1 X111.861 Y107.709 E.03129
G1 X111.974 Y108.341 E.02818
G1 X112.457 Y108.824 E.02998
G1 X112.548 Y109.436 E.02716
G1 X112.086 Y108.974 E.02868
G1 X112.199 Y109.606 E.02818
G1 X112.64 Y110.047 E.02738
G1 X112.732 Y110.658 E.02712
G1 X112.312 Y110.238 E.02607
G1 X112.425 Y110.87 E.02818
G1 X112.824 Y111.269 E.02477
G1 X112.916 Y111.881 E.02717
G1 X112.538 Y111.503 E.02347
G1 X112.651 Y112.135 E.02818
G1 X113.008 Y112.492 E.02216
G1 X113.1 Y113.103 E.02712
G1 X112.764 Y112.767 E.02086
G1 X112.877 Y113.399 E.02818
G1 X113.192 Y113.714 E.01955
G1 X113.284 Y114.326 E.02717
G1 X112.99 Y114.032 E.01825
G1 X113.103 Y114.664 E.02818
G1 X113.376 Y114.937 E.01695
G1 X113.467 Y115.548 E.02712
G1 X113.215 Y115.296 E.01564
