; generated by PrusaSlicer 2.5.0+linux-x64-GTK3 on 2023-03-09 at 12:26:57 UTC

; 
;

; 
;

; 
;

; 

; external perimeters extrusion width = 0.45mm
; perimeters extrusion width = 0.45mm
; infill extrusion width = 0.45mm
; solid infill extrusion width = 0.45mm
; top infill extrusion width = 0.40mm
; first layer extrusion width = 0.42mm

M73 P0 R178
M201 X2500 Y2500 Z400 E5000 ; sets maximum accelerations, mm/sec^2
M203 X180 Y180 Z12 E80 ; sets maximum feedrates, mm / sec
M204 P1250 R1250 T2500 ; sets acceleration (P, T) and retract acceleration (R), mm/sec^2
M205 X8.00 Y8.00 Z2.00 E10.00 ; sets the jerk limits, mm/sec
M205 S0 T0 ; sets the minimum extruding and travel feed rate, mm/sec
M107
;TYPE:Custom
M862.3 P "MINI" ; printer model check
G90 ; use absolute coordinates
M83 ; extruder relative mode
M104 S170 ; set extruder temp for bed leveling
M140 S60 ; set bed temp
M109 R170 ; wait for bed leveling temp
M190 S60 ; wait for bed temp
M204 T1250 ; set travel acceleration
G28 ; home all without mesh bed level
G29 ; mesh bed leveling 
M204 T2500 ; restore travel acceleration
M104 S215 ; set extruder temp
G92 E0
G1 Y-2 X179 F2400
G1 Z3 F720
M109 S215 ; wait for extruder temp

; intro line
G1 X170 F1000
G1 Z0.2 F720
G1 X110 E8 F900
G1 X40 E10 F700
G92 E0

M221 S95 ; set flow
G21 ; set units to millimeters
G90 ; use absolute coordinates
M83 ; use relative distances for extrusion
M900 K0.05 ; Filament gcode LA 1.5
M900 K30 ; Filament gcode LA 1.0
M107
;LAYER_CHANGE
;Z:0.2
;HEIGHT:0.2
;BEFORE_LAYER_CHANGE
G92 E0.0
;0.2


G1 E-3.2 F4200
M73 P0 R177
G1 Z.2 F720
;AFTER_LAYER_CHANGE
;0.2
G1 Z.4
G1 X76.326 Y76.326 F9000
G1 Z.2 F720
G1 E3.2 F2400
M204 P800
;TYPE:Skirt/Brim
;WIDTH:0.42
G1 F1200
G1 X123.856 Y28.797 E2.06538
G1 X124.724 Y28.244 E.03162
G1 X150.425 Y18.89 E.84041
G1 X151.787 Y18.811 E.04193
G1 X152.968 Y19.494 E.04193
G1 X153.53 Y20.497 E.03531
G1 X154.397 Y23.663 E.10086
G1 X155.185 Y26.943 E.10366
G1 X155.884 Y30.319 E.10594
G1 X156.463 Y33.642 E.10365
G1 X156.928 Y36.908 E.10135
G1 X157.299 Y40.26 E.10365
G1 X157.565 Y43.623 E.10365
G1 X161.495 Y133.207 E2.75531
G1 X160.801 Y134.992 E.05884
G1 X134.992 Y160.801 E1.12154
G1 X133.207 Y161.495 E.05884
G1 X43.623 Y157.565 E2.75531
G1 X40.26 Y157.299 E.10365
G1 X36.908 Y156.928 E.10365
G1 X33.568 Y156.452 E.10365
G1 X30.246 Y155.87 E.10365
G1 X26.943 Y155.185 E.10365
G1 X23.735 Y154.415 E.10136
G1 X20.497 Y153.53 E.10316
G1 X19.339 Y152.808 E.04193
G1 X18.77 Y151.568 E.04193
G1 X18.89 Y150.425 E.03531
G1 X28.244 Y124.724 E.84041
G1 X28.797 Y123.856 E.03162
G1 X76.284 Y76.369 E2.06353
M204 P1000
; printing object  id:0 copy 0
G1 E-2.24 F4200
;WIPE_START
G1 F7200
G1 X77.448 Y75.205 E-.912
;WIPE_END
G1 E-.048 F4200
G1 Z.4 F720
G1 X112.792 Y134.917 F9000
G1 Z.2 F720
G1 E3.2 F2400
M204 P800
;TYPE:Perimeter
;WIDTH:0.419999
G1 F1200
G1 X112.657 Y135.136 E.00792
G1 X112.626 Y135.608 E.01452
;WIDTH:0.469095
G1 X112.695 Y135.789 E.00673
;WIDTH:0.518191
G1 X112.764 Y135.97 E.0075
;WIDTH:0.567286
G1 X112.834 Y136.151 E.00828
G1 X133.682 Y156.999 E1.25981
G1 X133.311 Y157.37 E.02241
G1 X112.463 Y136.522 E1.25981
G1 X112.26 Y136.353 E.01127
;WIDTH:0.518191
G1 X112.057 Y136.185 E.01022
;WIDTH:0.469095
G1 X111.854 Y136.017 E.00916
;WIDTH:0.419999
G1 X111.297 Y135.46 E.02421
G1 X111.079 Y135.297 E.00835
G1 X110.783 Y135.196 E.0096
G1 X110.419 Y135.207 E.01119
G1 X110.088 Y135.355 E.01113
G1 X108.767 Y136.283 E.04961
G1 X106.041 Y138.074 E.10023
G1 X103.259 Y139.778 E.10023
G1 X100.426 Y141.395 E.10023
G1 X97.543 Y142.921 E.10023
G1 X94.614 Y144.356 E.10023
G1 X91.641 Y145.698 E.10023
G1 X88.627 Y146.947 E.10023
G1 X85.576 Y148.1 E.10023
G1 X82.49 Y149.156 E.10023
G1 X79.372 Y150.115 E.10023
G1 X76.225 Y150.976 E.10023
G1 X73.054 Y151.738 E.10023
G1 X69.859 Y152.399 E.10023
G1 X66.646 Y152.96 E.10023
G1 X63.417 Y153.42 E.10023
G1 X60.174 Y153.778 E.10023
G1 X56.923 Y154.033 E.10023
G1 X53.683 Y154.186 E.09967
G1 X50.403 Y154.238 E.1008
G1 X47.141 Y154.187 E.10023
G1 X43.883 Y154.033 E.10023
G1 X40.631 Y153.778 E.10023
G1 X37.389 Y153.42 E.10023
G1 X36.177 Y153.247 E.03759
;WIDTH:0.464851
G1 X36.082 Y153.211 E.00352
;WIDTH:0.509703
G1 X35.986 Y153.175 E.00389
;WIDTH:0.554555
G1 X35.89 Y153.138 E.00427
;WIDTH:0.599407
G1 X35.794 Y153.102 E.00464
G1 X34.982 Y153.009 E.03708
;WIDTH:0.555046
G1 X34.17 Y152.916 E.03412
;WIDTH:0.510685
G1 X33.611 Y152.838 E.02152
;WIDTH:0.471659
G1 X33.059 Y152.761 E.01947
;WIDTH:0.432632
G1 X32.507 Y152.685 E.0177
;WIDTH:0.393605
G1 X32.371 Y152.664 E.00391
;WIDTH:0.394158
G1 X31.594 Y152.525 E.0226
;WIDTH:0.419999
G1 X27.751 Y151.738 E.12053
G1 X24.579 Y150.976 E.10024
G1 X22.65 Y150.448 E.06146
G1 X31.311 Y126.651 E.77814
G1 X33.599 Y126.506 E.07042
G1 X35.189 Y126.368 E.04906
G1 X38.318 Y126.022 E.09674
G1 X39.923 Y125.807 E.04974
G1 X43.032 Y125.314 E.09674
G1 X44.625 Y125.023 E.04974
G1 X47.729 Y124.38 E.09742
G1 X49.285 Y124.019 E.04906
G1 X52.355 Y123.231 E.09742
G1 X53.892 Y122.797 E.04906
G1 X56.922 Y121.865 E.09741
G1 X58.437 Y121.359 E.04907
G1 X61.399 Y120.292 E.09674
G1 X62.888 Y119.717 E.04906
G1 X65.817 Y118.504 E.09742
G1 X67.278 Y117.858 E.04906
G1 X70.167 Y116.499 E.0981
G1 X71.595 Y115.785 E.04906
G1 X74.403 Y114.297 E.09765
G1 X77.157 Y112.726 E.09742
G1 X78.525 Y111.903 E.04906
G1 X81.201 Y110.204 E.09742
G1 X83.818 Y108.426 E.0972
G1 X86.383 Y106.562 E.09742
G1 X87.67 Y105.58 E.04974
G1 X90.127 Y103.612 E.09674
G1 X92.544 Y101.548 E.09764
G1 X93.75 Y100.468 E.04974
G1 X96.066 Y98.292 E.09765
G1 X98.308 Y96.05 E.09742
G1 X100.473 Y93.744 E.0972
G1 X102.57 Y91.366 E.09742
G1 X103.612 Y90.127 E.04975
G1 X105.58 Y87.67 E.09674
G1 X106.569 Y86.373 E.05011
G1 X108.413 Y83.836 E.09638
G1 X110.446 Y80.827 E.11158
G1 X111.077 Y79.848 E.03581
G1 X112.734 Y77.144 E.09742
G1 X114.301 Y74.396 E.0972
G1 X115.795 Y71.575 E.0981
G1 X116.509 Y70.147 E.04906
G1 X117.849 Y67.298 E.09674
G1 X119.12 Y64.361 E.09833
G1 X119.719 Y62.881 E.04906
G1 X120.832 Y59.936 E.09673
G1 X121.361 Y58.43 E.04906
G1 X121.871 Y56.901 E.04951
G1 X122.797 Y53.892 E.09674
G1 X123.231 Y52.355 E.04906
G1 X124.025 Y49.263 E.0981
G1 X124.385 Y47.708 E.04906
G1 X125.023 Y44.625 E.09674
G1 X125.314 Y43.032 E.04974
G1 X125.807 Y39.923 E.09673
G1 X126.022 Y38.318 E.04975
G1 X126.37 Y35.167 E.09742
G1 X126.507 Y33.577 E.04904
G1 X126.651 Y31.311 E.06976
G1 X150.448 Y22.65 E.77814
G1 X150.976 Y24.579 E.06146
G1 X151.738 Y27.751 E.10024
G1 X152.57 Y31.82 E.12759
;WIDTH:0.393604
G1 X152.685 Y32.507 E.01991
;WIDTH:0.432632
G1 X152.761 Y33.059 E.0177
;WIDTH:0.471659
G1 X152.838 Y33.611 E.01947
;WIDTH:0.510686
G1 X152.916 Y34.17 E.02152
;WIDTH:0.555047
G1 X153.009 Y34.982 E.03412
;WIDTH:0.599408
G1 X153.102 Y35.794 E.03708
G1 X153.138 Y35.89 E.00464
;WIDTH:0.554556
G1 X153.175 Y35.986 E.00427
;WIDTH:0.509704
G1 X153.211 Y36.082 E.00389
;WIDTH:0.464852
G1 X153.247 Y36.177 E.00352
;WIDTH:0.419999
G1 X153.42 Y37.389 E.03759
G1 X153.778 Y40.631 E.10023
G1 X154.033 Y43.883 E.10023
G1 X154.187 Y47.141 E.10023
G1 X154.238 Y50.403 E.10023
G1 X154.187 Y53.664 E.10023
G1 X154.033 Y56.923 E.10023
G1 X153.778 Y60.174 E.10023
G1 X153.42 Y63.417 E.10023
G1 X152.96 Y66.646 E.10023
G1 X152.399 Y69.859 E.10023
G1 X151.738 Y73.054 E.10023
G1 X150.976 Y76.226 E.10023
G1 X150.115 Y79.372 E.10023
G1 X149.156 Y82.49 E.10023
G1 X148.1 Y85.576 E.10023
G1 X146.947 Y88.627 E.10023
G1 X145.698 Y91.641 E.10023
G1 X144.356 Y94.614 E.10023
G1 X142.921 Y97.543 E.10023
G1 X141.395 Y100.426 E.10023
G1 X139.778 Y103.259 E.10023
G1 X138.074 Y106.041 E.10023
G1 X136.283 Y108.767 E.10023
G1 X135.276 Y110.222 E.05435
G1 X135.185 Y110.581 E.01139
G1 X135.231 Y110.926 E.0107
G1 X135.46 Y111.297 E.01338
G1 X136.017 Y111.854 E.02421
;WIDTH:0.469095
G1 X136.185 Y112.057 E.00916
;WIDTH:0.518191
G1 X136.353 Y112.26 E.01022
;WIDTH:0.567286
G1 X136.522 Y112.463 E.01127
G1 X157.37 Y133.311 E1.25981
G1 X156.999 Y133.682 E.02241
G1 X136.151 Y112.834 E1.25981
G1 X135.97 Y112.764 E.00828
;WIDTH:0.518191
G1 X135.789 Y112.695 E.0075
;WIDTH:0.469095
G1 X135.608 Y112.626 E.00673
;WIDTH:0.419999
G1 X135.136 Y112.657 E.01452
G1 X134.766 Y112.886 E.01338
G1 X112.886 Y134.766 E.95079
G1 X112.824 Y134.866 E.00362
M204 P1000
G1 X113.106 Y135.108 F9000
M204 P800
G1 F1200
G1 X113.015 Y135.255 E.0053
G1 X112.997 Y135.538 E.00871
G1 X113.152 Y135.832 E.01024
G1 X134.319 Y156.999 E.9198
G1 X133.311 Y158.007 E.04381
G1 X111.587 Y136.283 E.94401
G1 X110.899 Y135.629 E.02918
G1 X110.722 Y135.568 E.00576
G1 X110.503 Y135.575 E.00672
G1 X110.305 Y135.663 E.00668
G1 X108.979 Y136.595 E.04979
G1 X106.243 Y138.392 E.10059
G1 X103.451 Y140.103 E.1006
G1 X100.607 Y141.725 E.1006
G1 X97.714 Y143.257 E.10059
G1 X94.774 Y144.697 E.10059
G1 X91.79 Y146.044 E.1006
G1 X88.766 Y147.297 E.10059
G1 X85.703 Y148.455 E.1006
G1 X82.606 Y149.515 E.10059
G1 X79.477 Y150.478 E.10059
G1 X76.319 Y151.341 E.1006
G1 X73.136 Y152.106 E.10059
G1 X69.93 Y152.77 E.1006
G1 X66.705 Y153.332 E.1006
G1 X63.464 Y153.794 E.10059
G1 X60.21 Y154.153 E.1006
G1 X56.946 Y154.41 E.10059
G1 X53.694 Y154.563 E.10003
G1 X50.403 Y154.615 E.10116
G1 X47.129 Y154.564 E.10059
G1 X43.859 Y154.41 E.1006
G1 X40.595 Y154.153 E.10059
M73 P0 R176
G1 X37.341 Y153.794 E.1006
G1 X34.1 Y153.332 E.10059
G1 X30.875 Y152.77 E.1006
G1 X27.669 Y152.106 E.1006
G1 X24.486 Y151.341 E.1006
G1 X22.156 Y150.704 E.07422
G1 X31.041 Y126.291 E.79829
G1 X33.566 Y126.13 E.07774
G1 X35.148 Y125.993 E.04878
G1 X38.277 Y125.647 E.09674
G1 X39.851 Y125.436 E.04879
G1 X42.973 Y124.942 E.09715
G1 X44.535 Y124.657 E.04879
G1 X47.631 Y124.016 E.09715
G1 X49.178 Y123.657 E.04878
G1 X52.253 Y122.868 E.09756
G1 X53.781 Y122.437 E.04879
G1 X56.803 Y121.507 E.09714
G1 X58.309 Y121.004 E.04879
G1 X61.284 Y119.933 E.09715
G1 X62.764 Y119.36 E.04879
G1 X65.685 Y118.15 E.09715
G1 X67.137 Y117.508 E.04879
G1 X69.998 Y116.162 E.09714
G1 X71.418 Y115.452 E.04879
G1 X74.201 Y113.978 E.09674
G1 X76.962 Y112.403 E.09769
G1 X78.323 Y111.584 E.04879
G1 X80.992 Y109.89 E.09714
G1 X81.754 Y109.381 E.02817
G1 X83.614 Y108.108 E.06926
G1 X86.172 Y106.249 E.09715
G1 X87.434 Y105.286 E.04879
G1 X89.891 Y103.317 E.09674
G1 X92.299 Y101.261 E.09728
G1 X93.482 Y100.202 E.04879
G1 X95.799 Y98.026 E.0977
G1 X98.025 Y95.799 E.09674
G1 X99.128 Y94.644 E.04906
G1 X100.205 Y93.478 E.04879
G1 X102.296 Y91.107 E.09714
G1 X103.317 Y89.891 E.04879
G1 X105.294 Y87.424 E.09715
G1 X106.264 Y86.152 E.04915
G1 X108.108 Y83.614 E.09638
G1 X109.564 Y81.471 E.07962
G1 X110.756 Y79.651 E.06686
G1 X112.408 Y76.955 E.09715
G1 X113.203 Y75.586 E.04865
G1 X113.979 Y74.201 E.04878
G1 X115.458 Y71.406 E.09714
G1 X116.167 Y69.986 E.04879
G1 X117.508 Y67.137 E.09674
G1 X118.765 Y64.232 E.09729
G1 X119.362 Y62.76 E.04879
G1 X120.479 Y59.803 E.09714
G1 X121.009 Y58.296 E.04906
G1 X121.511 Y56.79 E.04878
G1 X122.44 Y53.768 E.09715
G1 X122.871 Y52.24 E.04879
G1 X123.657 Y49.178 E.09715
G1 X124.016 Y47.631 E.04878
G1 X124.657 Y44.535 E.09715
G1 X124.942 Y42.973 E.04879
G1 X125.436 Y39.851 E.09714
G1 X125.647 Y38.277 E.04879
G1 X125.994 Y35.134 E.09715
G1 X126.131 Y33.553 E.04877
G1 X126.291 Y31.041 E.07734
G1 X150.704 Y22.156 E.79829
G1 X151.341 Y24.486 E.07422
G1 X152.106 Y27.669 E.1006
G1 X152.77 Y30.875 E.1006
G1 X153.332 Y34.1 E.1006
G1 X153.794 Y37.341 E.10059
G1 X154.153 Y40.595 E.1006
G1 X154.41 Y43.859 E.10059
G1 X154.564 Y47.129 E.1006
G1 X154.615 Y50.403 E.10059
G1 X154.564 Y53.676 E.10059
G1 X154.41 Y56.946 E.1006
G1 X154.153 Y60.21 E.10059
G1 X153.794 Y63.464 E.1006
G1 X153.332 Y66.705 E.10059
G1 X152.77 Y69.93 E.10059
G1 X152.106 Y73.136 E.1006
G1 X151.341 Y76.319 E.1006
G1 X150.478 Y79.477 E.1006
G1 X149.515 Y82.606 E.10059
G1 X148.455 Y85.703 E.10059
G1 X147.297 Y88.766 E.1006
G1 X146.044 Y91.79 E.10059
G1 X144.697 Y94.774 E.1006
G1 X143.257 Y97.714 E.1006
G1 X141.725 Y100.607 E.10059
G1 X140.103 Y103.451 E.1006
G1 X138.392 Y106.243 E.10059
G1 X136.595 Y108.979 E.10059
G1 X135.644 Y110.334 E.05088
G1 X135.561 Y110.6 E.00856
G1 X135.589 Y110.807 E.00642
G1 X135.726 Y111.03 E.00803
G1 X158.007 Y133.311 E.96822
G1 X156.999 Y134.319 E.04381
G1 X135.832 Y113.152 E.9198
G1 X135.538 Y112.997 E.01024
G1 X135.255 Y113.015 E.00871
G1 X135.032 Y113.152 E.00803
G1 X113.137 Y135.057 E.95165
M204 P1000
G1 X113.419 Y135.299 F9000
M204 P800
;TYPE:External perimeter
G1 F1200
G1 X113.367 Y135.467 E.00542
G1 X113.419 Y135.566 E.00341
G1 X134.852 Y156.999 E.93138
G1 X133.311 Y158.541 E.06699
G1 X110.763 Y135.993 E.9798
G1 X110.66 Y135.94 E.00355
G1 X110.522 Y135.972 E.00438
G1 X109.191 Y136.907 E.04997
G1 X106.445 Y138.711 E.10096
G1 X103.643 Y140.428 E.10096
G1 X100.789 Y142.056 E.10096
G1 X97.886 Y143.593 E.10096
G1 X94.935 Y145.038 E.10096
G1 X91.94 Y146.391 E.10096
G1 X88.905 Y147.648 E.10096
G1 X85.831 Y148.809 E.10096
G1 X82.723 Y149.874 E.10096
G1 X79.582 Y150.84 E.10096
G1 X76.413 Y151.707 E.10096
G1 X73.218 Y152.474 E.10096
G1 X70.001 Y153.14 E.10096
G1 X66.764 Y153.705 E.10096
G1 X63.511 Y154.168 E.10095
G1 X60.245 Y154.528 E.10096
G1 X56.97 Y154.786 E.10096
G1 X53.706 Y154.94 E.10039
G1 X50.403 Y154.993 E.10153
G1 X47.117 Y154.941 E.10096
G1 X43.835 Y154.786 E.10096
G1 X40.56 Y154.528 E.10096
G1 X37.294 Y154.168 E.10096
G1 X34.041 Y153.705 E.10096
G1 X30.804 Y153.14 E.10096
G1 X27.587 Y152.474 E.10096
G1 X24.392 Y151.707 E.10097
G1 X21.661 Y150.96 E.08698
G1 X30.771 Y125.93 E.81845
G1 X33.533 Y125.754 E.08505
G1 X35.106 Y125.618 E.04851
G1 X38.236 Y125.272 E.09674
G1 X39.8 Y125.062 E.04852
G1 X42.914 Y124.569 E.09687
G1 X44.467 Y124.286 E.04851
G1 X47.555 Y123.646 E.09687
G1 X49.093 Y123.29 E.04851
G1 X52.151 Y122.505 E.09701
G1 X53.67 Y122.076 E.04851
G1 X56.684 Y121.149 E.09687
G1 X58.181 Y120.649 E.04851
G1 X61.148 Y119.581 E.09687
G1 X62.62 Y119.012 E.04851
G1 X65.533 Y117.805 E.09687
G1 X66.977 Y117.167 E.04852
G1 X69.829 Y115.824 E.09687
G1 X71.242 Y115.118 E.04852
G1 X74.024 Y113.645 E.09674
G1 X76.768 Y112.08 E.09706
G1 X78.121 Y111.266 E.04852
G1 X80.782 Y109.577 E.09687
G1 X82.092 Y108.702 E.04838
G1 X83.39 Y107.804 E.0485
G1 X85.943 Y105.949 E.09697
M73 P1 R176
G1 X87.198 Y104.992 E.04852
G1 X89.655 Y103.023 E.09674
G1 X92.054 Y100.975 E.09692
G1 X93.23 Y99.921 E.04852
G1 X95.533 Y97.759 E.09706
G1 X97.759 Y95.533 E.09674
G1 X98.849 Y94.39 E.04851
G1 X99.922 Y93.229 E.0486
G1 X102.007 Y90.864 E.09687
G1 X103.023 Y89.655 E.04852
G1 X104.994 Y87.195 E.09687
G1 X105.959 Y85.93 E.04888
G1 X107.804 Y83.39 E.09647
G1 X109.253 Y81.259 E.07916
G1 X110.434 Y79.454 E.06631
G1 X112.082 Y76.766 E.09687
G1 X112.872 Y75.404 E.04838
G1 X113.645 Y74.024 E.0486
G1 X115.12 Y71.238 E.09687
G1 X115.826 Y69.825 E.04852
G1 X117.167 Y66.977 E.09674
G1 X118.419 Y64.082 E.09692
G1 X119.012 Y62.619 E.04852
G1 X120.127 Y59.669 E.09687
G1 X120.65 Y58.18 E.04851
G1 X121.15 Y56.679 E.0486
G1 X122.077 Y53.666 E.09687
G1 X122.506 Y52.146 E.04851
G1 X123.29 Y49.093 E.09688
G1 X123.646 Y47.555 E.04851
G1 X124.286 Y44.467 E.09687
G1 X124.569 Y42.914 E.04851
G1 X125.062 Y39.803 E.09679
G1 X125.272 Y38.236 E.0486
G1 X125.618 Y35.102 E.09687
G1 X125.755 Y33.529 E.04851
G1 X125.93 Y30.771 E.08491
G1 X150.96 Y21.661 E.81845
G1 X151.707 Y24.392 E.08698
G1 X152.474 Y27.587 E.10097
G1 X153.14 Y30.804 E.10096
G1 X153.705 Y34.041 E.10096
G1 X154.168 Y37.294 E.10095
G1 X154.528 Y40.56 E.10096
G1 X154.786 Y43.835 E.10096
G1 X154.941 Y47.117 E.10096
G1 X154.993 Y50.403 E.10096
G1 X154.941 Y53.688 E.10096
G1 X154.786 Y56.97 E.10096
G1 X154.528 Y60.245 E.10096
G1 X154.168 Y63.511 E.10096
G1 X153.705 Y66.764 E.10096
G1 X153.14 Y70.001 E.10096
G1 X152.474 Y73.218 E.10096
G1 X151.707 Y76.413 E.10096
G1 X150.84 Y79.582 E.10096
G1 X149.874 Y82.723 E.10096
G1 X148.809 Y85.831 E.10096
G1 X147.648 Y88.905 E.10096
G1 X146.391 Y91.94 E.10096
G1 X145.038 Y94.935 E.10096
G1 X143.593 Y97.886 E.10096
G1 X142.056 Y100.789 E.10096
G1 X140.428 Y103.643 E.10096
G1 X138.711 Y106.445 E.10096
G1 X136.907 Y109.191 E.10096
G1 X136.08 Y110.367 E.04418
G1 X135.938 Y110.62 E.00892
G1 X135.993 Y110.763 E.00471
G1 X158.541 Y133.311 E.9798
G1 X156.999 Y134.852 E.06699
G1 X135.566 Y113.419 E.93138
G1 X135.467 Y113.367 E.00341
