; generated by PrusaSlicer 2.6.0-alpha0 on 2023-02-28 at 19:38:42 UTC

; 
;

; 
;

; 
;

; 

; external perimeters extrusion width = 0.45mm
; perimeters extrusion width = 0.45mm
; infill extrusion width = 0.45mm
; solid infill extrusion width = 0.45mm
; top infill extrusion width = 0.40mm
; first layer extrusion width = 0.42mm

M73 P0 R10
M201 X2500 Y2500 Z400 E5000 ; sets maximum accelerations, mm/sec^2
M203 X180 Y180 Z12 E80 ; sets maximum feedrates, mm / sec
M204 P1250 R1250 T2500 ; sets acceleration (P, T) and retract acceleration (R), mm/sec^2
M205 X8.00 Y8.00 Z2.00 E10.00 ; sets the jerk limits, mm/sec
M205 S0 T0 ; sets the minimum extruding and travel feed rate, mm/sec
M107
;TYPE:Custom
M862.3 P "MINI" ; printer model check
G90 ; use absolute coordinates
M83 ; extruder relative mode
M104 S170 ; set extruder temp for bed leveling
M140 S60 ; set bed temp
M109 R170 ; wait for bed leveling temp
M190 S60 ; wait for bed temp
M204 T1250 ; set travel acceleration
G28 ; home all without mesh bed level
G29 ; mesh bed leveling 
M204 T2500 ; restore travel acceleration
M104 S215 ; set extruder temp
G92 E0
G1 Y-2 X179 F2400
G1 Z3 F720
M109 S215 ; wait for extruder temp

; intro line
G1 X170 F1000
G1 Z0.2 F720
G1 X110 E8 F900
G1 X40 E10 F700
G92 E0

M221 S95 ; set flow
G21 ; set units to millimeters
G90 ; use absolute coordinates
M83 ; use relative distances for extrusion
M900 K0.05 ; Filament gcode LA 1.5
M900 K30 ; Filament gcode LA 1.0
M107
;LAYER_CHANGE
;Z:0.25
;HEIGHT:0.25
;BEFORE_LAYER_CHANGE
G92 E0.0
;0.25


M73 P1 R10
G1 E-3.2 F4200
M73 P2 R10
G1 Z.2 F720
G1 Z.25
;AFTER_LAYER_CHANGE
;0.25
G1 Z.45
G1 X63.459 Y84.362 F9000
G1 Z.25 F720
G1 E3.2 F2400
M204 P800
;TYPE:Skirt/Brim
;WIDTH:0.42
G1 F1200
G1 X64.709 Y83.749 E.06096
G1 X66.059 Y83.409 E.06096
G1 X66.551 Y83.357 E.02166
G1 X113.45 Y83.357 E2.05367
G1 X113.941 Y83.409 E.02162
G1 X114.821 Y83.596 E.03939
G1 X116.113 Y84.114 E.06095
G1 X117.268 Y84.89 E.06093
G1 X118.237 Y85.889 E.06094
G1 X118.978 Y87.068 E.06098
G1 X119.457 Y88.375 E.06096
G1 X119.653 Y89.753 E.06095
G1 X119.653 Y90.247 E.02163
G1 X119.457 Y91.625 E.06095
G1 X118.978 Y92.932 E.06096
G1 X118.528 Y93.711 E.03939
M73 P3 R10
G1 X117.636 Y94.779 E.06093
G1 X117.268 Y95.11 E.02167
G1 X116.112 Y95.886 E.06097
G1 X114.821 Y96.404 E.06091
G1 X113.941 Y96.591 E.03939
G1 X113.45 Y96.643 E.02162
G1 X66.551 Y96.643 E2.05367
G1 X65.179 Y96.404 E.06098
G1 X63.888 Y95.886 E.06091
G1 X63.459 Y95.638 E.0217
G1 X62.364 Y94.779 E.06094
G1 X61.472 Y93.711 E.06093
G1 X61.022 Y92.932 E.03939
G1 X60.814 Y92.459 E.02263
G1 X60.441 Y91.141 E.05998
G1 X60.347 Y89.753 E.06092
G1 X60.441 Y88.859 E.03936
G1 X60.821 Y87.52 E.06095
G1 X61.472 Y86.289 E.06098
G1 X62.364 Y85.221 E.06093
G1 X63.412 Y84.399 E.05832
M204 P1000
; printing object 0 id:0 copy 0
G1 E-2.24 F4200
;WIPE_START
G1 F7200
G1 X64.709 Y83.749 E-.80396
G1 X64.982 Y83.68 E-.15604
;WIPE_END
G1 Z.45 F720
G1 X115.532 Y91.056 F9000
G1 Z.25 F720
G1 E3.2 F2400
M204 P800
;TYPE:Perimeter
G1 F1200
G1 X115.224 Y91.616 E.02799
G1 X114.839 Y92.043 E.02518
G1 X114.374 Y92.381 E.02517
G1 X113.849 Y92.614 E.02515
G1 X113.287 Y92.734 E.02516
G1 X112.713 Y92.734 E.02514
G1 X112.151 Y92.614 E.02516
G1 X111.626 Y92.381 E.02515
G1 X111.161 Y92.043 E.02517
G1 X110.776 Y91.616 E.02518
G1 X110.489 Y91.118 E.02517
G1 X110.311 Y90.572 E.02515
G1 X110.251 Y90 E.02518
G1 X110.311 Y89.429 E.02514
G1 X110.489 Y88.882 E.02519
G1 X110.776 Y88.384 E.02517
G1 X111.161 Y87.957 E.02518
G1 X111.626 Y87.619 E.02517
G1 X112.151 Y87.386 E.02515
G1 X112.713 Y87.266 E.02516
G1 X113.287 Y87.266 E.02514
G1 X113.849 Y87.386 E.02516
G1 X114.374 Y87.619 E.02515
G1 X114.839 Y87.957 E.02517
G1 X115.224 Y88.384 E.02518
G1 X115.511 Y88.882 E.02517
G1 X115.689 Y89.428 E.02515
G1 X115.749 Y90 E.02518
G1 X115.689 Y90.572 E.02518
G1 X115.55 Y90.999 E.01966
M204 P1000
G1 X115.185 Y90.937 F9000
M204 P800
G1 F1200
G1 X114.926 Y91.399 E.02319
G1 X114.593 Y91.769 E.0218
G1 X114.19 Y92.062 E.02182
G1 X113.736 Y92.264 E.02176
G1 X113.249 Y92.368 E.02181
G1 X112.751 Y92.368 E.02181
G1 X112.264 Y92.264 E.02181
G1 X111.81 Y92.062 E.02176
G1 X111.407 Y91.769 E.02182
G1 X111.074 Y91.399 E.0218
G1 X110.825 Y90.968 E.0218
G1 X110.671 Y90.495 E.02178
G1 X110.619 Y90 E.02179
G1 X110.671 Y89.505 E.02179
G1 X110.825 Y89.032 E.02178
G1 X111.074 Y88.601 E.0218
G1 X111.407 Y88.231 E.0218
G1 X111.81 Y87.938 E.02182
G1 X112.264 Y87.736 E.02176
G1 X112.751 Y87.632 E.02181
G1 X113.249 Y87.632 E.02181
G1 X113.736 Y87.736 E.02181
G1 X114.19 Y87.938 E.02176
G1 X114.593 Y88.231 E.02182
G1 X114.926 Y88.601 E.0218
G1 X115.175 Y89.032 E.0218
G1 X115.329 Y89.505 E.02178
G1 X115.381 Y90 E.02179
G1 X115.329 Y90.495 E.02179
G1 X115.204 Y90.88 E.01773
M204 P1000
G1 X114.838 Y90.818 F9000
M204 P800
;TYPE:External perimeter
G1 F1200
G1 X114.628 Y91.183 E.01844
G1 X114.346 Y91.495 E.01842
G1 X114.006 Y91.743 E.01843
G1 X113.622 Y91.914 E.01841
G1 X113.21 Y92.001 E.01844
G1 X112.79 Y92.001 E.01839
G1 X112.378 Y91.914 E.01844
G1 X111.994 Y91.743 E.01841
G1 X111.654 Y91.495 E.01843
G1 X111.372 Y91.183 E.01842
G1 X111.162 Y90.818 E.01844
G1 X111.032 Y90.418 E.01842
G1 X110.988 Y90 E.01841
G1 X111.032 Y89.582 E.01841
G1 X111.162 Y89.182 E.01842
G1 X111.372 Y88.817 E.01844
G1 X111.654 Y88.505 E.01842
G1 X111.994 Y88.257 E.01843
G1 X112.378 Y88.086 E.01841
G1 X112.79 Y87.999 E.01844
G1 X113.21 Y87.999 E.01839
G1 X113.622 Y88.086 E.01844
G1 X114.006 Y88.257 E.01841
G1 X114.346 Y88.505 E.01843
G1 X114.628 Y88.817 E.01842
G1 X114.838 Y89.182 E.01844
G1 X114.968 Y89.582 E.01842
G1 X115.012 Y90 E.01841
G1 X114.968 Y90.418 E.01841
G1 X114.857 Y90.761 E.01579
M204 P1000
M73 P4 R10
G1 X115.073 Y91.142 F9000
G1 E-2.24 F4200
;WIPE_START
G1 F7200
G1 X114.628 Y91.183 E-.26607
G1 X114.346 Y91.495 E-.23306
G1 X114.006 Y91.743 E-.23321
G1 X113.631 Y91.91 E-.22766
;WIPE_END
G1 Z.45 F720
G1 X64.743 Y91.559 F9000
G1 Z.25 F720
G1 E3.2 F2400
M204 P800
;TYPE:Perimeter
G1 F1200
G1 X64.485 Y91.112 E.0226
G1 X64.307 Y90.535 E.02644
G1 X64.251 Y90 E.02356
G1 X64.311 Y89.428 E.02518
G1 X64.489 Y88.882 E.02515
G1 X64.776 Y88.384 E.02517
G1 X65.161 Y87.957 E.02518
G1 X65.626 Y87.619 E.02517
G1 X66.151 Y87.386 E.02515
G1 X66.713 Y87.266 E.02516
G1 X67.287 Y87.266 E.02514
G1 X67.849 Y87.386 E.02516
G1 X68.375 Y87.619 E.02519
G1 X68.839 Y87.957 E.02514
G1 X69.224 Y88.384 E.02518
G1 X69.511 Y88.882 E.02517
G1 X69.689 Y89.428 E.02515
G1 X69.749 Y90 E.02518
G1 X69.689 Y90.572 E.02518
G1 X69.511 Y91.118 E.02515
G1 X69.224 Y91.616 E.02517
G1 X68.839 Y92.043 E.02518
G1 X68.374 Y92.381 E.02517
G1 X67.849 Y92.614 E.02515
G1 X67.287 Y92.734 E.02516
G1 X66.713 Y92.734 E.02514
G1 X66.151 Y92.614 E.02516
G1 X65.626 Y92.381 E.02515
G1 X65.161 Y92.043 E.02517
G1 X64.773 Y91.611 E.02543
M204 P1000
G1 X65.058 Y91.371 F9000
M204 P800
G1 F1200
G1 X64.823 Y90.964 E.02058
G1 X64.668 Y90.461 E.02305
G1 X64.619 Y90 E.0203
G1 X64.671 Y89.505 E.02179
G1 X64.825 Y89.032 E.02178
G1 X65.074 Y88.601 E.0218
G1 X65.407 Y88.231 E.0218
G1 X65.81 Y87.938 E.02182
G1 X66.264 Y87.736 E.02176
G1 X66.751 Y87.632 E.02181
G1 X67.249 Y87.632 E.02181
G1 X67.736 Y87.736 E.02181
G1 X68.19 Y87.938 E.02176
G1 X68.593 Y88.231 E.02182
G1 X68.926 Y88.601 E.0218
G1 X69.175 Y89.032 E.0218
G1 X69.329 Y89.505 E.02178
G1 X69.381 Y90 E.02179
G1 X69.329 Y90.495 E.02179
G1 X69.175 Y90.968 E.02178
G1 X68.926 Y91.399 E.0218
G1 X68.593 Y91.769 E.0218
G1 X68.19 Y92.062 E.02182
G1 X67.736 Y92.264 E.02176
G1 X67.249 Y92.368 E.02181
G1 X66.751 Y92.368 E.02181
G1 X66.264 Y92.264 E.02181
G1 X65.81 Y92.062 E.02176
G1 X65.407 Y91.769 E.02182
G1 X65.092 Y91.42 E.02059
M204 P1000
G1 X65.372 Y91.183 F9000
M204 P800
;TYPE:External perimeter
G1 F1200
G1 X65.161 Y90.817 E.0185
G1 X65.028 Y90.388 E.01967
G1 X64.988 Y90 E.01708
G1 X65.032 Y89.582 E.01841
G1 X65.162 Y89.182 E.01842
G1 X65.372 Y88.817 E.01844
G1 X65.654 Y88.505 E.01842
G1 X65.994 Y88.257 E.01843
G1 X66.378 Y88.086 E.01841
G1 X66.79 Y87.999 E.01844
G1 X67.21 Y87.999 E.01839
G1 X67.622 Y88.086 E.01844
G1 X68.006 Y88.257 E.01841
G1 X68.346 Y88.505 E.01843
G1 X68.628 Y88.817 E.01842
G1 X68.838 Y89.182 E.01844
G1 X68.968 Y89.582 E.01842
G1 X69.012 Y90 E.01841
G1 X68.968 Y90.418 E.01841
G1 X68.838 Y90.818 E.01842
G1 X68.628 Y91.183 E.01844
G1 X68.346 Y91.495 E.01842
G1 X68.006 Y91.743 E.01843
G1 X67.622 Y91.914 E.01841
G1 X67.21 Y92.001 E.01844
G1 X66.79 Y92.001 E.01839
G1 X66.378 Y91.914 E.01844
G1 X65.994 Y91.743 E.01841
G1 X65.654 Y91.495 E.01843
G1 X65.412 Y91.227 E.01581
M204 P1000
G1 X64.974 Y91.225 F9000
G1 E-2.24 F4200
;WIPE_START
G1 F7200
G1 X65.161 Y90.817 E-.2664
G1 X65.028 Y90.388 E-.2489
G1 X64.988 Y90 E-.21616
G1 X65.031 Y89.59 E-.22854
;WIPE_END
G1 Z.45 F720
G1 X113.974 Y87.003 F9000
G1 Z.25 F720
G1 E3.2 F2400
M204 P800
;TYPE:Perimeter
G1 F1200
G1 X114.576 Y87.271 E.02886
G1 X115.108 Y87.658 E.02881
G1 X115.549 Y88.148 E.02887
G1 X115.879 Y88.718 E.02884
G1 X116.082 Y89.345 E.02886
G1 X116.151 Y90 E.02884
G1 X116.082 Y90.655 E.02884
G1 X115.879 Y91.282 E.02886
G1 X115.549 Y91.852 E.02884
G1 X115.108 Y92.342 E.02887
G1 X114.576 Y92.729 E.02881
G1 X113.974 Y92.997 E.02886
G1 X113.329 Y93.134 E.02887
G1 X66.671 Y93.134 E2.04312
G1 X66.026 Y92.997 E.02887
G1 X65.424 Y92.729 E.02886
M73 P5 R10
G1 X64.892 Y92.342 E.02881
G1 X64.451 Y91.852 E.02887
G1 X64.121 Y91.282 E.02884
G1 X63.918 Y90.655 E.02886
G1 X63.849 Y90 E.02884
G1 X63.918 Y89.345 E.02884
G1 X64.121 Y88.718 E.02886
G1 X64.451 Y88.148 E.02884
G1 X64.892 Y87.658 E.02887
G1 X65.424 Y87.271 E.02881
G1 X66.026 Y87.003 E.02886
G1 X66.671 Y86.866 E.02887
G1 X113.329 Y86.866 E2.04312
G1 X113.915 Y86.991 E.02624
M204 P1000
G1 X114.088 Y86.653 F9000
M204 P800
G1 F1200
G1 X114.76 Y86.952 E.03221
G1 X115.355 Y87.385 E.03222
G1 X115.847 Y87.931 E.03218
G1 X116.215 Y88.569 E.03225
G1 X116.442 Y89.268 E.03218
G1 X116.519 Y90 E.03223
G1 X116.442 Y90.732 E.03223
G1 X116.215 Y91.431 E.03218
G1 X115.847 Y92.069 E.03225
G1 X115.355 Y92.615 E.03218
G1 X114.76 Y93.048 E.03222
G1 X114.088 Y93.347 E.03221
G1 X113.368 Y93.5 E.03223
G1 X66.632 Y93.5 E2.04653
G1 X65.912 Y93.347 E.03223
G1 X65.24 Y93.048 E.03221
G1 X64.645 Y92.615 E.03222
G1 X64.153 Y92.069 E.03218
G1 X63.785 Y91.431 E.03225
G1 X63.558 Y90.732 E.03218
G1 X63.481 Y90 E.03223
G1 X63.558 Y89.268 E.03223
G1 X63.785 Y88.569 E.03218
G1 X64.153 Y87.931 E.03225
G1 X64.645 Y87.385 E.03218
G1 X65.24 Y86.952 E.03222
G1 X65.912 Y86.653 E.03221
G1 X66.632 Y86.5 E.03223
G1 X113.368 Y86.5 E2.04653
G1 X114.029 Y86.64 E.02959
M204 P1000
M73 P6 R10
G1 X114.195 Y86.301 F9000
M204 P800
;TYPE:External perimeter
G1 F1200
G1 X114.944 Y86.633 E.03588
G1 X115.601 Y87.111 E.03558
G1 X116.145 Y87.715 E.03559
G1 X116.552 Y88.419 E.03561
G1 X116.803 Y89.192 E.03559
G1 X116.888 Y90 E.03558
G1 X116.803 Y90.808 E.03558
G1 X116.552 Y91.581 E.03559
G1 X116.145 Y92.285 E.03561
G1 X115.601 Y92.889 E.03559
G1 X114.944 Y93.367 E.03558
G1 X114.201 Y93.697 E.0356
G1 X113.406 Y93.866 E.03559
G1 X66.594 Y93.866 E2.04986
G1 X65.799 Y93.697 E.03559
G1 X65.056 Y93.367 E.0356
G1 X64.399 Y92.889 E.03558
G1 X63.855 Y92.285 E.03559
G1 X63.448 Y91.581 E.03561
G1 X63.197 Y90.808 E.03559
G1 X63.112 Y90 E.03558
G1 X63.197 Y89.192 E.03558
G1 X63.448 Y88.419 E.03559
G1 X63.855 Y87.715 E.03561
G1 X64.399 Y87.111 E.03559
G1 X65.056 Y86.633 E.03558
G1 X65.799 Y86.303 E.0356
G1 X66.594 Y86.134 E.03559
G1 X113.406 Y86.134 E2.04986
G1 X114.137 Y86.289 E.03272
M204 P1000
M73 P7 R10
G1 X114.292 Y86.689 F9000
G1 E-2.24 F4200
;WIPE_START
G1 F7200
G1 X114.944 Y86.633 E-.48615
G1 X115.601 Y87.111 E-.45025
G1 X115.63 Y87.143 E-.0236
;WIPE_END
G1 Z.45 F720
G1 X112.636 Y87.072 F9000
G1 Z.25 F720
G1 E3.2 F2400
M204 P800
;TYPE:Gap fill
;WIDTH:0.14149
G1 F1200
G1 X112.45 Y87.092 E.00196
M204 P1000
M204 P800
;WIDTH:0.17893
G1 X112.263 Y87.111 E.00281
M204 P1000
M204 P800
;WIDTH:0.21637
G1 X112.077 Y87.131 E.00364
M204 P1000
M204 P800
;WIDTH:0.221864
G1 X111.769 Y87.18 E.00627
M204 P1000
G1 X110.88 Y86.976 F9000
M204 P800
;TYPE:Solid infill
;WIDTH:0.421101
G1 F1200
G1 X111.37 Y87.466 E.03044
G1 X111.069 Y87.684 E.01632
G1 X110.525 Y87.141 E.03376
G1 X110.006 Y87.141 E.02279
G1 X110.806 Y87.941 E.04969
G1 X110.559 Y88.214 E.01617
G1 X109.486 Y87.141 E.06665
G1 X108.966 Y87.141 E.02284
G1 X110.368 Y88.542 E.08705
G1 X110.236 Y88.77 E.01157
G1 X110.197 Y88.891 E.00558
G1 X108.447 Y87.141 E.1087
G1 X107.927 Y87.141 E.02284
G1 X110.069 Y89.283 E.13305
G1 X110.041 Y89.371 E.00406
G1 X110.003 Y89.736 E.01612
G1 X107.407 Y87.141 E.16122
G1 X106.888 Y87.141 E.02279
G1 X110.002 Y90.255 E.19342
G1 X110.041 Y90.629 E.01652
G1 X110.13 Y90.903 E.01265
G1 X106.368 Y87.141 E.23367
G1 X105.848 Y87.141 E.02284
G1 X111.496 Y92.789 E.35082
G1 X111.485 Y92.859 E.00311
G1 X111.047 Y92.859 E.01924
G1 X105.329 Y87.141 E.35517
G1 X104.809 Y87.141 E.02284
G1 X110.527 Y92.859 E.35517
G1 X110.008 Y92.859 E.02279
G1 X104.29 Y87.141 E.35517
G1 X103.77 Y87.141 E.02284
G1 X109.488 Y92.859 E.35517
G1 X108.968 Y92.859 E.02284
G1 X103.25 Y87.141 E.35517
G1 X102.731 Y87.141 E.02279
G1 X108.449 Y92.859 E.35517
G1 X107.929 Y92.859 E.02284
G1 X102.211 Y87.141 E.35517
M73 P8 R10
G1 X101.691 Y87.141 E.02284
G1 X107.409 Y92.859 E.35517
G1 X106.89 Y92.859 E.02279
M73 P8 R9
G1 X101.172 Y87.141 E.35517
G1 X100.652 Y87.141 E.02284
G1 X106.37 Y92.859 E.35517
G1 X105.85 Y92.859 E.02284
G1 X100.132 Y87.141 E.35517
G1 X99.613 Y87.141 E.02279
G1 X105.331 Y92.859 E.35517
G1 X104.811 Y92.859 E.02284
G1 X99.093 Y87.141 E.35517
G1 X98.573 Y87.141 E.02284
G1 X104.291 Y92.859 E.35517
G1 X103.772 Y92.859 E.02279
G1 X98.054 Y87.141 E.35517
G1 X97.534 Y87.141 E.02284
G1 X103.252 Y92.859 E.35517
G1 X102.732 Y92.859 E.02284
G1 X97.014 Y87.141 E.35517
G1 X96.495 Y87.141 E.02279
G1 X102.213 Y92.859 E.35517
G1 X101.693 Y92.859 E.02284
G1 X95.975 Y87.141 E.35517
G1 X95.455 Y87.141 E.02284
G1 X101.173 Y92.859 E.35517
G1 X100.654 Y92.859 E.02279
G1 X94.936 Y87.141 E.35517
G1 X94.416 Y87.141 E.02284
M73 P9 R9
G1 X100.134 Y92.859 E.35517
G1 X99.614 Y92.859 E.02284
G1 X93.896 Y87.141 E.35517
G1 X93.377 Y87.141 E.02279
G1 X99.095 Y92.859 E.35517
G1 X98.575 Y92.859 E.02284
G1 X92.857 Y87.141 E.35517
G1 X92.337 Y87.141 E.02284
G1 X98.055 Y92.859 E.35517
G1 X97.536 Y92.859 E.02279
G1 X91.818 Y87.141 E.35517
G1 X91.298 Y87.141 E.02284
G1 X97.016 Y92.859 E.35517
G1 X96.497 Y92.859 E.02279
G1 X90.779 Y87.141 E.35517
G1 X90.259 Y87.141 E.02284
G1 X95.977 Y92.859 E.35517
G1 X95.457 Y92.859 E.02284
G1 X89.739 Y87.141 E.35517
G1 X89.22 Y87.141 E.02279
G1 X94.938 Y92.859 E.35517
G1 X94.418 Y92.859 E.02284
G1 X88.7 Y87.141 E.35517
G1 X88.18 Y87.141 E.02284
G1 X93.898 Y92.859 E.35517
G1 X93.379 Y92.859 E.02279
G1 X87.661 Y87.141 E.35517
G1 X87.141 Y87.141 E.02284
G1 X92.859 Y92.859 E.35517
G1 X92.339 Y92.859 E.02284
M73 P10 R9
G1 X86.621 Y87.141 E.35517
G1 X86.102 Y87.141 E.02279
G1 X91.82 Y92.859 E.35517
G1 X91.3 Y92.859 E.02284
G1 X85.582 Y87.141 E.35517
G1 X85.062 Y87.141 E.02284
G1 X90.78 Y92.859 E.35517
G1 X90.261 Y92.859 E.02279
G1 X84.543 Y87.141 E.35517
G1 X84.023 Y87.141 E.02284
G1 X89.741 Y92.859 E.35517
G1 X89.221 Y92.859 E.02284
G1 X83.503 Y87.141 E.35517
G1 X82.984 Y87.141 E.02279
G1 X88.702 Y92.859 E.35517
G1 X88.182 Y92.859 E.02284
G1 X82.464 Y87.141 E.35517
G1 X81.944 Y87.141 E.02284
G1 X87.662 Y92.859 E.35517
G1 X87.143 Y92.859 E.02279
G1 X81.425 Y87.141 E.35517
G1 X80.905 Y87.141 E.02284
G1 X86.623 Y92.859 E.35517
G1 X86.103 Y92.859 E.02284
G1 X80.385 Y87.141 E.35517
G1 X79.866 Y87.141 E.02279
G1 X85.584 Y92.859 E.35517
G1 X85.064 Y92.859 E.02284
G1 X79.346 Y87.141 E.35517
G1 X78.826 Y87.141 E.02284
M73 P11 R9
G1 X84.544 Y92.859 E.35517
G1 X84.025 Y92.859 E.02279
G1 X78.307 Y87.141 E.35517
G1 X77.787 Y87.141 E.02284
G1 X83.505 Y92.859 E.35517
G1 X82.986 Y92.859 E.02279
G1 X77.268 Y87.141 E.35517
G1 X76.748 Y87.141 E.02284
G1 X82.466 Y92.859 E.35517
G1 X81.946 Y92.859 E.02284
G1 X76.228 Y87.141 E.35517
G1 X75.709 Y87.141 E.02279
G1 X81.427 Y92.859 E.35517
G1 X80.907 Y92.859 E.02284
G1 X75.189 Y87.141 E.35517
G1 X74.669 Y87.141 E.02284
G1 X80.387 Y92.859 E.35517
G1 X79.868 Y92.859 E.02279
G1 X74.15 Y87.141 E.35517
