; generated by PrusaSlicer 2.6.0-alpha0 on 2023-02-28 at 19:38:45 UTC

; 
;

; 
;

; 
;

; 

; external perimeters extrusion width = 0.45mm
; perimeters extrusion width = 0.45mm
; infill extrusion width = 0.45mm
; solid infill extrusion width = 0.45mm
; top infill extrusion width = 0.40mm
; support material extrusion width = 0.35mm
; first layer extrusion width = 0.42mm

M73 P0 R174
M201 X2500 Y2500 Z400 E5000 ; sets maximum accelerations, mm/sec^2
M203 X180 Y180 Z12 E80 ; sets maximum feedrates, mm / sec
M204 P1250 R1250 T2500 ; sets acceleration (P, T) and retract acceleration (R), mm/sec^2
M205 X8.00 Y8.00 Z2.00 E10.00 ; sets the jerk limits, mm/sec
M205 S0 T0 ; sets the minimum extruding and travel feed rate, mm/sec
M107
;TYPE:Custom
M862.3 P "MINI" ; printer model check
G90 ; use absolute coordinates
M83 ; extruder relative mode
M104 S170 ; set extruder temp for bed leveling
M140 S60 ; set bed temp
M109 R170 ; wait for bed leveling temp
M190 S60 ; wait for bed temp
M204 T1250 ; set travel acceleration
G28 ; home all without mesh bed level
G29 ; mesh bed leveling 
M204 T2500 ; restore travel acceleration
M104 S215 ; set extruder temp
G92 E0
G1 Y-2 X179 F2400
G1 Z3 F720
M109 S215 ; wait for extruder temp

; intro line
G1 X170 F1000
G1 Z0.2 F720
G1 X110 E8 F900
G1 X40 E10 F700
G92 E0

M221 S95 ; set flow
G21 ; set units to millimeters
G90 ; use absolute coordinates
M83 ; use relative distances for extrusion
M900 K0.05 ; Filament gcode LA 1.5
M900 K30 ; Filament gcode LA 1.0
M107
;LAYER_CHANGE
;Z:0.25
;HEIGHT:0.25
;BEFORE_LAYER_CHANGE
G92 E0.0
;0.25


G1 E-3.2 F4200
G1 Z.2 F720
G1 Z.25
;AFTER_LAYER_CHANGE
;0.25
G1 Z.45
G1 X80.493 Y47.308 F9000
G1 Z.25 F720
G1 E3.2 F2400
M204 P800
;TYPE:Skirt/Brim
;WIDTH:0.42
G1 F1200
G1 X91.21 Y29.073 E.92619
G1 X92.208 Y28.148 E.05959
G1 X93.25 Y27.906 E.04684
G1 X96.551 Y27.925 E.14455
G1 X125.544 Y31.647 E1.28
G1 X126.787 Y32.201 E.05959
G1 X127.609 Y33.994 E.08637
G1 X127.609 Y99.865 E2.88444
G1 X127.198 Y101.198 E.06108
G1 X92.592 Y151.954 E2.69001
G1 X90.003 Y154.601 E.16214
G1 X88.329 Y155.294 E.07934
G1 X68.6 Y155.294 E.86392
G1 X66.927 Y154.601 E.0793
G1 X62.017 Y149.626 E.30608
G1 X57.255 Y142.45 E.37713
G1 X52.641 Y133.222 E.45178
G1 X52.391 Y132.164 E.0476
G1 X52.413 Y123.651 E.37278
G1 X57.405 Y86.953 E1.62178
G1 X57.71 Y86.073 E.04078
G1 X80.463 Y47.359 E1.96636
M204 P1000
; printing object 0 id:0 copy 0
G1 X125.243 Y49.109 F9000
M204 P800
;TYPE:Support material
G1 F1200
G1 X96.73 Y49.109 E1.24856
G1 X96.73 Y33.994 E.66187
G1 X125.243 Y33.994 E1.24856
G1 X125.243 Y49.054 E.65947
M204 P1000
G1 X124.6 Y48.944 F9000
M204 P800
G1 F1200
G1 X124.6 Y34.323 E.64024
G1 X124.193 Y34.323 E.01782
G1 X124.193 Y48.779 E.63302
G1 X123.786 Y48.779 E.01782
G1 X123.786 Y34.323 E.63302
G1 X123.379 Y34.323 E.01782
G1 X123.379 Y48.779 E.63302
G1 X122.971 Y48.779 E.01787
G1 X122.971 Y34.323 E.63302
G1 X122.564 Y34.323 E.01782
G1 X122.564 Y48.779 E.63302
G1 X122.157 Y48.779 E.01782
G1 X122.157 Y34.323 E.63302
G1 X121.75 Y34.323 E.01782
G1 X121.75 Y48.779 E.63302
G1 X121.343 Y48.779 E.01782
G1 X121.343 Y34.323 E.63302
G1 X120.936 Y34.323 E.01782
G1 X120.936 Y48.779 E.63302
G1 X120.529 Y48.779 E.01782
G1 X120.529 Y34.323 E.63302
G1 X120.122 Y34.323 E.01782
G1 X120.122 Y48.779 E.63302
G1 X119.715 Y48.779 E.01782
G1 X119.715 Y34.323 E.63302
G1 X119.308 Y34.323 E.01782
G1 X119.308 Y48.779 E.63302
G1 X118.901 Y48.779 E.01782
G1 X118.901 Y34.323 E.63302
G1 X118.494 Y34.323 E.01782
G1 X118.494 Y48.779 E.63302
G1 X118.087 Y48.779 E.01782
G1 X118.087 Y34.323 E.63302
G1 X117.68 Y34.323 E.01782
G1 X117.68 Y48.779 E.63302
G1 X117.273 Y48.779 E.01782
G1 X117.273 Y34.323 E.63302
G1 X116.866 Y34.323 E.01782
G1 X116.866 Y48.779 E.63302
G1 X116.459 Y48.779 E.01782
G1 X116.459 Y34.323 E.63302
G1 X116.052 Y34.323 E.01782
G1 X116.052 Y48.779 E.63302
G1 X115.644 Y48.779 E.01787
G1 X115.644 Y34.323 E.63302
G1 X115.237 Y34.323 E.01782
G1 X115.237 Y48.779 E.63302
G1 X114.83 Y48.779 E.01782
G1 X114.83 Y34.323 E.63302
G1 X114.423 Y34.323 E.01782
G1 X114.423 Y48.779 E.63302
G1 X114.016 Y48.779 E.01782
G1 X114.016 Y34.323 E.63302
G1 X113.609 Y34.323 E.01782
G1 X113.609 Y48.779 E.63302
G1 X113.202 Y48.779 E.01782
G1 X113.202 Y34.323 E.63302
G1 X112.795 Y34.323 E.01782
G1 X112.795 Y48.779 E.63302
G1 X112.388 Y48.779 E.01782
M73 P0 R173
G1 X112.388 Y34.323 E.63302
G1 X111.981 Y34.323 E.01782
G1 X111.981 Y48.779 E.63302
G1 X111.574 Y48.779 E.01782
G1 X111.574 Y34.323 E.63302
G1 X111.167 Y34.323 E.01782
G1 X111.167 Y48.779 E.63302
G1 X110.76 Y48.779 E.01782
G1 X110.76 Y34.323 E.63302
G1 X110.353 Y34.323 E.01782
G1 X110.353 Y48.779 E.63302
G1 X109.946 Y48.779 E.01782
G1 X109.946 Y34.323 E.63302
G1 X109.539 Y34.323 E.01782
G1 X109.539 Y48.779 E.63302
G1 X109.132 Y48.779 E.01782
G1 X109.132 Y34.323 E.63302
G1 X108.725 Y34.323 E.01782
G1 X108.725 Y48.779 E.63302
G1 X108.317 Y48.779 E.01787
G1 X108.317 Y34.323 E.63302
G1 X107.91 Y34.323 E.01782
G1 X107.91 Y48.779 E.63302
G1 X107.503 Y48.779 E.01782
G1 X107.503 Y34.323 E.63302
G1 X107.096 Y34.323 E.01782
G1 X107.096 Y48.779 E.63302
G1 X106.689 Y48.779 E.01782
G1 X106.689 Y34.323 E.63302
G1 X106.282 Y34.323 E.01782
G1 X106.282 Y48.779 E.63302
G1 X105.875 Y48.779 E.01782
G1 X105.875 Y34.323 E.63302
G1 X105.468 Y34.323 E.01782
G1 X105.468 Y48.779 E.63302
G1 X105.061 Y48.779 E.01782
G1 X105.061 Y34.323 E.63302
G1 X104.654 Y34.323 E.01782
G1 X104.654 Y48.779 E.63302
G1 X104.247 Y48.779 E.01782
G1 X104.247 Y34.323 E.63302
G1 X103.84 Y34.323 E.01782
G1 X103.84 Y48.779 E.63302
G1 X103.433 Y48.779 E.01782
G1 X103.433 Y34.323 E.63302
G1 X103.026 Y34.323 E.01782
G1 X103.026 Y48.779 E.63302
G1 X102.619 Y48.779 E.01782
G1 X102.619 Y34.323 E.63302
G1 X102.212 Y34.323 E.01782
G1 X102.212 Y48.779 E.63302
G1 X101.805 Y48.779 E.01782
G1 X101.805 Y34.323 E.63302
G1 X101.398 Y34.323 E.01782
G1 X101.398 Y48.779 E.63302
G1 X100.99 Y48.779 E.01787
G1 X100.99 Y34.323 E.63302
G1 X100.583 Y34.323 E.01782
G1 X100.583 Y48.779 E.63302
G1 X100.176 Y48.779 E.01782
G1 X100.176 Y34.323 E.63302
G1 X99.769 Y34.323 E.01782
G1 X99.769 Y48.779 E.63302
G1 X99.362 Y48.779 E.01782
G1 X99.362 Y34.323 E.63302
G1 X98.955 Y34.323 E.01782
G1 X98.955 Y48.779 E.63302
G1 X98.548 Y48.779 E.01782
G1 X98.548 Y34.323 E.63302
G1 X98.141 Y34.323 E.01782
G1 X98.141 Y48.779 E.63302
G1 X97.734 Y48.779 E.01782
G1 X97.734 Y34.323 E.63302
G1 X97.327 Y34.323 E.01782
G1 X97.327 Y48.944 E.64024
M204 P1000
G1 X125.243 Y99.865 F9000
M204 P800
G1 F1200
G1 X96.73 Y99.865 E1.24856
G1 X96.73 Y82.442 E.76294
G1 X125.243 Y82.442 E1.24856
G1 X125.243 Y99.81 E.76053
M204 P1000
G1 X124.6 Y99.7 F9000
M204 P800
G1 F1200
G1 X124.6 Y82.772 E.74126
G1 X124.193 Y82.772 E.01782
G1 X124.193 Y99.535 E.73404
G1 X123.786 Y99.535 E.01782
G1 X123.786 Y82.772 E.73404
G1 X123.379 Y82.772 E.01782
G1 X123.379 Y99.535 E.73404
G1 X122.971 Y99.535 E.01787
G1 X122.971 Y82.772 E.73404
G1 X122.564 Y82.772 E.01782
G1 X122.564 Y99.535 E.73404
G1 X122.157 Y99.535 E.01782
G1 X122.157 Y82.772 E.73404
G1 X121.75 Y82.772 E.01782
G1 X121.75 Y99.535 E.73404
G1 X121.343 Y99.535 E.01782
G1 X121.343 Y82.772 E.73404
G1 X120.936 Y82.772 E.01782
G1 X120.936 Y99.535 E.73404
G1 X120.529 Y99.535 E.01782
G1 X120.529 Y82.772 E.73404
G1 X120.122 Y82.772 E.01782
G1 X120.122 Y99.535 E.73404
G1 X119.715 Y99.535 E.01782
M73 P1 R173
G1 X119.715 Y82.772 E.73404
G1 X119.308 Y82.772 E.01782
G1 X119.308 Y99.535 E.73404
G1 X118.901 Y99.535 E.01782
G1 X118.901 Y82.772 E.73404
G1 X118.494 Y82.772 E.01782
G1 X118.494 Y99.535 E.73404
G1 X118.087 Y99.535 E.01782
G1 X118.087 Y82.772 E.73404
G1 X117.68 Y82.772 E.01782
G1 X117.68 Y99.535 E.73404
G1 X117.273 Y99.535 E.01782
G1 X117.273 Y82.772 E.73404
G1 X116.866 Y82.772 E.01782
G1 X116.866 Y99.535 E.73404
G1 X116.459 Y99.535 E.01782
G1 X116.459 Y82.772 E.73404
G1 X116.052 Y82.772 E.01782
G1 X116.052 Y99.535 E.73404
G1 X115.644 Y99.535 E.01787
G1 X115.644 Y82.772 E.73404
G1 X115.237 Y82.772 E.01782
G1 X115.237 Y99.535 E.73404
G1 X114.83 Y99.535 E.01782
G1 X114.83 Y82.772 E.73404
G1 X114.423 Y82.772 E.01782
G1 X114.423 Y99.535 E.73404
G1 X114.016 Y99.535 E.01782
G1 X114.016 Y82.772 E.73404
G1 X113.609 Y82.772 E.01782
G1 X113.609 Y99.535 E.73404
G1 X113.202 Y99.535 E.01782
G1 X113.202 Y82.772 E.73404
G1 X112.795 Y82.772 E.01782
M73 P1 R172
G1 X112.795 Y99.535 E.73404
G1 X112.388 Y99.535 E.01782
G1 X112.388 Y82.772 E.73404
G1 X111.981 Y82.772 E.01782
G1 X111.981 Y99.535 E.73404
G1 X111.574 Y99.535 E.01782
G1 X111.574 Y82.772 E.73404
G1 X111.167 Y82.772 E.01782
G1 X111.167 Y99.535 E.73404
G1 X110.76 Y99.535 E.01782
G1 X110.76 Y82.772 E.73404
G1 X110.353 Y82.772 E.01782
G1 X110.353 Y99.535 E.73404
G1 X109.946 Y99.535 E.01782
G1 X109.946 Y82.772 E.73404
G1 X109.539 Y82.772 E.01782
G1 X109.539 Y99.535 E.73404
G1 X109.132 Y99.535 E.01782
G1 X109.132 Y82.772 E.73404
G1 X108.725 Y82.772 E.01782
G1 X108.725 Y99.535 E.73404
G1 X108.317 Y99.535 E.01787
G1 X108.317 Y82.772 E.73404
G1 X107.91 Y82.772 E.01782
G1 X107.91 Y99.535 E.73404
G1 X107.503 Y99.535 E.01782
G1 X107.503 Y82.772 E.73404
G1 X107.096 Y82.772 E.01782
G1 X107.096 Y99.535 E.73404
G1 X106.689 Y99.535 E.01782
G1 X106.689 Y82.772 E.73404
G1 X106.282 Y82.772 E.01782
G1 X106.282 Y99.535 E.73404
G1 X105.875 Y99.535 E.01782
G1 X105.875 Y82.772 E.73404
G1 X105.468 Y82.772 E.01782
G1 X105.468 Y99.535 E.73404
G1 X105.061 Y99.535 E.01782
G1 X105.061 Y82.772 E.73404
G1 X104.654 Y82.772 E.01782
G1 X104.654 Y99.535 E.73404
G1 X104.247 Y99.535 E.01782
G1 X104.247 Y82.772 E.73404
G1 X103.84 Y82.772 E.01782
G1 X103.84 Y99.535 E.73404
G1 X103.433 Y99.535 E.01782
G1 X103.433 Y82.772 E.73404
G1 X103.026 Y82.772 E.01782
G1 X103.026 Y99.535 E.73404
G1 X102.619 Y99.535 E.01782
G1 X102.619 Y82.772 E.73404
G1 X102.212 Y82.772 E.01782
G1 X102.212 Y99.535 E.73404
G1 X101.805 Y99.535 E.01782
G1 X101.805 Y82.772 E.73404
G1 X101.398 Y82.772 E.01782
G1 X101.398 Y99.535 E.73404
G1 X100.99 Y99.535 E.01787
G1 X100.99 Y82.772 E.73404
G1 X100.583 Y82.772 E.01782
G1 X100.583 Y99.535 E.73404
G1 X100.176 Y99.535 E.01782
G1 X100.176 Y82.772 E.73404
G1 X99.769 Y82.772 E.01782
G1 X99.769 Y99.535 E.73404
G1 X99.362 Y99.535 E.01782
G1 X99.362 Y82.772 E.73404
G1 X98.955 Y82.772 E.01782
G1 X98.955 Y99.535 E.73404
G1 X98.548 Y99.535 E.01782
G1 X98.548 Y82.772 E.73404
G1 X98.141 Y82.772 E.01782
G1 X98.141 Y99.535 E.73404
G1 X97.734 Y99.535 E.01782
G1 X97.734 Y82.772 E.73404
G1 X97.327 Y82.772 E.01782
G1 X97.327 Y99.7 E.74126
M204 P1000
G1 X79.102 Y136.39 F9000
M204 P800
G1 F1200
G1 X79.784 Y136.693 E.03268
G1 X80.387 Y137.131 E.03264
G1 X80.886 Y137.686 E.03268
G1 X81.259 Y138.331 E.03263
G1 X81.489 Y139.041 E.03268
G1 X81.567 Y139.782 E.03263
G1 X81.489 Y140.524 E.03267
G1 X81.259 Y141.233 E.03264
G1 X80.886 Y141.879 E.03266
G1 X80.387 Y142.433 E.03265
G1 X79.784 Y142.872 E.03266
G1 X79.102 Y143.175 E.03268
G1 X78.373 Y143.33 E.03264
G1 X77.627 Y143.33 E.03267
G1 X76.898 Y143.175 E.03264
G1 X76.216 Y142.872 E.03268
G1 X75.613 Y142.433 E.03266
G1 X75.114 Y141.879 E.03265
G1 X74.741 Y141.233 E.03266
G1 X74.511 Y140.524 E.03264
G1 X74.433 Y139.782 E.03267
G1 X74.511 Y139.041 E.03263
G1 X74.741 Y138.331 E.03268
G1 X75.114 Y137.686 E.03263
G1 X75.613 Y137.131 E.03268
G1 X76.216 Y136.693 E.03264
G1 X76.898 Y136.39 E.03268
G1 X77.627 Y136.235 E.03264
G1 X78.373 Y136.235 E.03267
G1 X79.049 Y136.378 E.03026
M204 P1000
G1 X81.045 Y141.275 F9000
M204 P800
G1 F1200
G1 X81.045 Y138.739 E.11105
G1 X80.956 Y138.466 E.01257
G1 X80.638 Y137.915 E.02786
G1 X80.638 Y141.65 E.16355
G1 X80.231 Y142.114 E.02703
G1 X80.231 Y137.45 E.20423
G1 X80.165 Y137.378 E.00428
G1 X79.824 Y137.13 E.01846
G1 X79.824 Y142.435 E.2323
G1 X79.618 Y142.585 E.01116
G1 X79.417 Y142.674 E.00963
G1 X79.417 Y136.89 E.25328
G1 X79.01 Y136.709 E.01951
G1 X79.01 Y142.856 E.26917
G1 X78.602 Y142.944 E.01828
G1 X78.602 Y136.62 E.27692
G1 X78.338 Y136.564 E.01182
G1 X78.195 Y136.564 E.00626
G1 X78.195 Y143 E.28183
G1 X77.788 Y143 E.01782
G1 X77.788 Y136.564 E.28183
G1 X77.662 Y136.564 E.00552
G1 X77.381 Y136.624 E.01258
G1 X77.381 Y142.941 E.27662
G1 X76.974 Y142.848 E.01828
G1 X76.974 Y136.716 E.26852
G1 X76.567 Y136.898 E.01952
G1 X76.567 Y142.667 E.25262
G1 X76.382 Y142.585 E.00886
G1 X76.16 Y142.423 E.01203
G1 X76.16 Y137.141 E.23129
G1 X75.835 Y137.378 E.01761
G1 X75.753 Y137.469 E.00536
G1 X75.753 Y142.096 E.20261
G1 X75.382 Y141.684 E.02428
G1 X75.346 Y141.622 E.00314
G1 X75.346 Y137.943 E.1611
G1 X75.044 Y138.466 E.02645
G1 X74.939 Y138.789 E.01487
G1 X74.939 Y141.247 E.10763
M204 P1000
G1 X59.27 Y128.346 F9000
M204 P800
G1 F1200
G1 X59.303 Y128.47 E.00562
G1 X69.537 Y145.963 E.88746
G1 X71.006 Y147.587 E.09589
G1 X72.782 Y148.871 E.09597
G1 X74.785 Y149.757 E.09591
G1 X76.88 Y150.202 E.09379
G1 X79.07 Y150.208 E.0959
G1 X81.262 Y149.742 E.09813
G1 X83.262 Y148.846 E.09597
G1 X84.994 Y147.587 E.09376
G1 X86.463 Y145.963 E.09589
G1 X96.697 Y128.47 E.88746
G1 X96.73 Y128.346 E.00562
G1 X96.73 Y123.97 E.19162
G1 X99.865 Y123.97 E.13728
G1 X99.865 Y134.471 E.45983
G1 X97.558 Y134.471 E.10102
G1 X97.558 Y139.085 E.20204
G1 X95.251 Y139.085 E.10102
G1 X95.251 Y143.699 E.20204
G1 X92.943 Y143.699 E.10107
G1 X92.943 Y146.006 E.10102
G1 X90.636 Y146.006 E.10102
G1 X90.636 Y150.62 E.20204
G1 X88.329 Y150.62 E.10102
G1 X88.329 Y152.928 E.10107
G1 X68.6 Y152.928 E.86392
G1 X68.6 Y150.62 E.10107
G1 X66.293 Y150.62 E.10102
G1 X66.293 Y148.313 E.10102
G1 X63.986 Y148.313 E.10102
G1 X63.986 Y143.699 E.20204
G1 X61.679 Y143.699 E.10102
G1 X61.679 Y141.392 E.10102
G1 X59.372 Y141.392 E.10102
G1 X59.372 Y136.778 E.20204
G1 X57.065 Y136.778 E.10102
G1 X57.065 Y132.164 E.20204
G1 X54.757 Y132.164 E.10107
G1 X54.757 Y123.97 E.35881
G1 X59.27 Y123.97 E.19762
G1 X59.27 Y128.291 E.18921
M204 P1000
G1 X99.362 Y134.306 F9000
M204 P800
G1 F1200
G1 X99.362 Y124.3 E.43816
G1 X98.955 Y124.3 E.01782
G1 X98.955 Y134.141 E.43093
G1 X98.548 Y134.141 E.01782
G1 X98.548 Y124.3 E.43093
G1 X98.141 Y124.3 E.01782
G1 X98.141 Y134.141 E.43093
G1 X97.734 Y134.141 E.01782
G1 X97.734 Y124.3 E.43093
G1 X97.327 Y124.3 E.01782
G1 X97.327 Y134.141 E.43093
G1 X97.228 Y134.141 E.00434
G1 X97.228 Y138.755 E.20204
G1 X96.92 Y138.755 E.01349
G1 X96.92 Y128.741 E.43851
G1 X96.513 Y129.437 E.03531
G1 X96.513 Y138.755 E.40803
G1 X96.106 Y138.755 E.01782
G1 X96.106 Y130.133 E.37755
G1 X95.699 Y130.83 E.03534
G1 X95.699 Y138.755 E.34703
G1 X95.292 Y138.755 E.01782
G1 X95.292 Y131.526 E.31655
G1 X94.885 Y132.222 E.03531
G1 X94.885 Y143.37 E.48816
G1 X94.478 Y143.37 E.01782
G1 X94.478 Y132.918 E.45769
G1 X94.071 Y133.615 E.03534
G1 X94.071 Y143.37 E.42716
G1 X93.663 Y143.37 E.01787
G1 X93.663 Y134.311 E.39669
G1 X93.256 Y135.007 E.03531
G1 X93.256 Y143.37 E.36621
G1 X92.849 Y143.37 E.01782
G1 X92.849 Y135.703 E.33573
G1 X92.442 Y136.4 E.03534
G1 X92.442 Y145.677 E.40623
G1 X92.035 Y145.677 E.01782
G1 X92.035 Y137.096 E.37576
G1 X91.628 Y137.792 E.03531
M73 P1 R171
G1 X91.628 Y145.677 E.34528
G1 X91.221 Y145.677 E.01782
G1 X91.221 Y138.488 E.3148
G1 X90.814 Y139.185 E.03534
G1 X90.814 Y145.677 E.28428
G1 X90.407 Y145.677 E.01782
G1 X90.407 Y139.881 E.2538
G1 X90 Y140.577 E.03531
G1 X90 Y150.291 E.42537
G1 X89.593 Y150.291 E.01782
G1 X89.593 Y141.273 E.39489
G1 X89.186 Y141.97 E.03534
G1 X89.186 Y150.291 E.36437
G1 X88.779 Y150.291 E.01782
G1 X88.779 Y142.666 E.33389
G1 X88.372 Y143.362 E.03531
G1 X88.372 Y150.291 E.30342
G1 X88 Y150.291 E.01629
G1 X88 Y152.598 E.10102
G1 X87.965 Y152.598 E.00153
G1 X87.965 Y144.058 E.37396
G1 X87.558 Y144.755 E.03534
G1 X87.558 Y152.598 E.34344
G1 X87.151 Y152.598 E.01782
G1 X87.151 Y145.451 E.31296
G1 X86.744 Y146.139 E.035
G1 X86.744 Y152.598 E.28283
G1 X86.337 Y152.598 E.01782
G1 X86.337 Y146.597 E.26278
G1 X85.929 Y147.049 E.02666
G1 X85.929 Y152.598 E.24299
G1 X85.522 Y152.598 E.01782
G1 X85.522 Y147.501 E.22319
G1 X85.265 Y147.787 E.01684
G1 X85.115 Y147.907 E.00841
G1 X85.115 Y152.598 E.20542
G1 X84.708 Y152.598 E.01782
G1 X84.708 Y148.202 E.1925
G1 X84.301 Y148.498 E.02204
G1 X84.301 Y152.598 E.17954
G1 X83.894 Y152.598 E.01782
G1 X83.894 Y148.794 E.16657
G1 X83.487 Y149.09 E.02204
