; generated by PrusaSlicer 2.5.0+linux-x64-GTK3 on 2023-03-09 at 13:35:41 UTC

; 
;

; 
;

; 
;

; 

; external perimeters extrusion width = 0.45mm
; perimeters extrusion width = 0.45mm
; infill extrusion width = 0.45mm
; solid infill extrusion width = 0.45mm
; top infill extrusion width = 0.40mm
; support material extrusion width = 0.35mm
; first layer extrusion width = 0.42mm

M73 P0 R83
M201 X2500 Y2500 Z400 E5000 ; sets maximum accelerations, mm/sec^2
M203 X180 Y180 Z12 E80 ; sets maximum feedrates, mm / sec
M204 P1250 R1250 T2500 ; sets acceleration (P, T) and retract acceleration (R), mm/sec^2
M205 X8.00 Y8.00 Z2.00 E10.00 ; sets the jerk limits, mm/sec
M205 S0 T0 ; sets the minimum extruding and travel feed rate, mm/sec
M107
;TYPE:Custom
M862.3 P "MINI" ; printer model check
G90 ; use absolute coordinates
M83 ; extruder relative mode
M104 S170 ; set extruder temp for bed leveling
M140 S60 ; set bed temp
M109 R170 ; wait for bed leveling temp
M190 S60 ; wait for bed temp
M204 T1250 ; set travel acceleration
G28 ; home all without mesh bed level
G29 ; mesh bed leveling 
M204 T2500 ; restore travel acceleration
M104 S215 ; set extruder temp
G92 E0
G1 Y-2 X179 F2400
G1 Z3 F720
M109 S215 ; wait for extruder temp

; intro line
G1 X170 F1000
G1 Z0.2 F720
G1 X110 E8 F900
G1 X40 E10 F700
G92 E0

M221 S95 ; set flow
G21 ; set units to millimeters
G90 ; use absolute coordinates
M83 ; use relative distances for extrusion
M900 K0.05 ; Filament gcode LA 1.5
M900 K30 ; Filament gcode LA 1.0
M107
;LAYER_CHANGE
;Z:0.2
;HEIGHT:0.2
;BEFORE_LAYER_CHANGE
G92 E0.0
;0.2


G1 E-3.2 F4200
G1 Z.2 F720
;AFTER_LAYER_CHANGE
;0.2
G1 Z.4
G1 X66.919 Y59.998 F9000
G1 Z.2 F720
G1 E3.2 F2400
M204 P800
;TYPE:Skirt/Brim
;WIDTH:0.42
G1 F1200
G1 X71.533 Y55.384 E.20051
G1 X73.214 Y54.687 E.0559
G1 X86.022 Y54.687 E.39356
G1 X86.529 Y54.742 E.01567
G1 X133.492 Y64.996 E1.47703
G1 X134.685 Y65.658 E.04193
G1 X135.246 Y66.584 E.03327
G1 X135.528 Y67.623 E.03307
G1 X135.714 Y69.39 E.0546
G1 X135.528 Y71.654 E.0698
G1 X134.876 Y73.83 E.06981
G1 X133.785 Y75.823 E.0698
G1 X132.144 Y77.707 E.07679
G1 X87.347 Y118.769 E1.86723
G1 X86.167 Y119.581 E.04404
G1 X85.083 Y120.007 E.03578
G1 X83.934 Y120.198 E.03578
G1 X49.516 Y120.198 E1.0576
G1 X48.367 Y120.007 E.03578
G1 X47.894 Y119.853 E.01527
G1 X46.853 Y119.333 E.03577
G1 X45.942 Y118.607 E.03578
G1 X45.495 Y118.11 E.02056
G1 X44.868 Y117.128 E.03578
G1 X44.459 Y116.038 E.03577
G1 X44.356 Y115.552 E.01528
G1 X44.286 Y114.39 E.03577
G1 X44.459 Y113.238 E.03578
G1 X44.666 Y112.602 E.02056
G1 X66.408 Y60.759 E1.7274
G1 X66.886 Y60.048 E.02633
M204 P1000
; printing object  id:0 copy 0
G1 E-2.24 F4200
;WIPE_START
G1 F7200
G1 X68.047 Y58.882 E-.912
;WIPE_END
G1 E-.048 F4200
G1 Z.4 F720
G1 X86.022 Y59.372 F9000
G1 Z.2 F720
G1 E3.2 F2400
M204 P800
;TYPE:Support material
G1 F1200
G1 X88.329 Y59.372 E.07089
G1 X88.329 Y61.679 E.07089
G1 X90.636 Y61.679 E.07089
G1 X90.636 Y66.293 E.14178
G1 X92.943 Y66.293 E.07089
G1 X92.943 Y69.658 E.10341
G1 X88.113 Y69.658 E.14842
G1 X87.839 Y69.905 E.01132
G1 X87.692 Y71.305 E.04327
G1 X87.174 Y72.899 E.0515
G1 X86.336 Y74.351 E.0515
G1 X85.215 Y75.596 E.0515
G1 X83.859 Y76.581 E.0515
G1 X82.327 Y77.263 E.0515
G1 X80.688 Y77.612 E.0515
G1 X79.697 Y77.612 E.03046
G1 X79.415 Y77.898 E.01234
G1 X79.463 Y81.408 E.10788
G1 X70.907 Y81.408 E.2629
G1 X70.907 Y79.101 E.07089
G1 X68.6 Y79.101 E.07089
G1 X68.6 Y61.679 E.53534
G1 X70.907 Y61.679 E.07089
G1 X70.907 Y59.372 E.07089
G1 X73.214 Y59.372 E.07089
G1 X73.214 Y57.065 E.07089
G1 X86.022 Y57.065 E.39356
G1 X86.022 Y59.315 E.06915
M204 P1000
G1 X92.514 Y69.489 F9000
M204 P800
G1 F1200
G1 X92.514 Y66.632 E.08777
G1 X92.095 Y66.632 E.01287
G1 X92.095 Y69.319 E.08255
G1 X91.676 Y69.319 E.01287
G1 X91.676 Y66.632 E.08255
G1 X91.257 Y66.632 E.01287
G1 X91.257 Y69.319 E.08255
G1 X90.838 Y69.319 E.01287
G1 X90.838 Y66.632 E.08255
G1 X90.419 Y66.632 E.01287
G1 X90.419 Y69.319 E.08255
G1 X90 Y69.319 E.01287
G1 X90 Y62.018 E.22433
G1 X89.581 Y62.018 E.01287
G1 X89.581 Y69.319 E.22433
G1 X89.162 Y69.319 E.01287
G1 X89.162 Y62.018 E.22433
G1 X88.743 Y62.018 E.01287
G1 X88.743 Y69.319 E.22433
G1 X88.324 Y69.319 E.01287
G1 X88.324 Y62.018 E.22433
G1 X87.99 Y62.018 E.01027
G1 X87.99 Y59.711 E.07089
G1 X87.905 Y59.711 E.00261
G1 X87.905 Y69.389 E.29738
G1 X87.515 Y69.74 E.01611
G1 X87.486 Y70.019 E.00861
G1 X87.486 Y59.711 E.31672
G1 X87.067 Y59.711 E.01287
G1 X87.067 Y72.13 E.38161
G1 X86.862 Y72.76 E.02035
G1 X86.648 Y73.132 E.01317
G1 X86.648 Y59.711 E.41238
G1 X86.229 Y59.711 E.01287
G1 X86.229 Y73.857 E.43467
G1 X86.06 Y74.15 E.01039
G1 X85.81 Y74.428 E.01147
G1 X85.81 Y59.711 E.4522
G1 X85.683 Y59.711 E.00391
G1 X85.683 Y57.404 E.07089
G1 X85.391 Y57.404 E.00896
G1 X85.391 Y74.893 E.53739
G1 X84.972 Y75.353 E.01912
G1 X84.972 Y57.404 E.55152
G1 X84.553 Y57.404 E.01287
G1 X84.553 Y75.657 E.56088
G1 X84.134 Y75.962 E.01591
G1 X84.134 Y57.404 E.57023
G1 X83.715 Y57.404 E.01287
G1 X83.715 Y76.266 E.57958
G1 X83.296 Y76.46 E.01419
G1 X83.296 Y57.404 E.58555
G1 X82.877 Y57.404 E.01287
M73 P0 R82
G1 X82.877 Y76.647 E.59128
G1 X82.458 Y76.833 E.01409
G1 X82.458 Y57.404 E.59701
G1 X82.039 Y57.404 E.01287
G1 X82.039 Y76.977 E.60144
G1 X81.62 Y77.067 E.01316
M73 P1 R82
G1 X81.62 Y57.404 E.60418
G1 X81.201 Y57.404 E.01287
G1 X81.201 Y77.156 E.60691
G1 X80.783 Y77.245 E.01316
G1 X80.783 Y57.404 E.60965
G1 X80.364 Y57.404 E.01287
G1 X80.364 Y77.272 E.6105
G1 X79.945 Y77.272 E.01287
G1 X79.945 Y57.404 E.6105
G1 X79.526 Y57.404 E.01287
G1 X79.526 Y77.544 E.61883
M204 P1000
G1 X79.107 Y81.238 F9000
M204 P800
G1 F1200
G1 X79.107 Y57.404 E.73237
G1 X78.688 Y57.404 E.01287
G1 X78.688 Y81.069 E.72715
G1 X78.269 Y81.069 E.01287
G1 X78.269 Y57.404 E.72715
G1 X77.85 Y57.404 E.01287
G1 X77.85 Y81.069 E.72715
G1 X77.431 Y81.069 E.01287
G1 X77.431 Y57.404 E.72715
G1 X77.012 Y57.404 E.01287
G1 X77.012 Y81.069 E.72715
G1 X76.593 Y81.069 E.01287
G1 X76.593 Y57.404 E.72715
G1 X76.174 Y57.404 E.01287
G1 X76.174 Y81.069 E.72715
G1 X75.755 Y81.069 E.01287
G1 X75.755 Y57.404 E.72715
G1 X75.336 Y57.404 E.01287
G1 X75.336 Y81.069 E.72715
G1 X74.917 Y81.069 E.01287
G1 X74.917 Y57.404 E.72715
G1 X74.498 Y57.404 E.01287
G1 X74.498 Y81.069 E.72715
G1 X74.079 Y81.069 E.01287
G1 X74.079 Y57.404 E.72715
G1 X73.66 Y57.404 E.01287
G1 X73.66 Y81.069 E.72715
G1 X73.241 Y81.069 E.01287
G1 X73.241 Y59.711 E.65626
G1 X72.822 Y59.711 E.01287
G1 X72.822 Y81.069 E.65626
G1 X72.403 Y81.069 E.01287
G1 X72.403 Y59.711 E.65626
G1 X71.984 Y59.711 E.01287
G1 X71.984 Y81.069 E.65626
G1 X71.565 Y81.069 E.01287
G1 X71.565 Y59.711 E.65626
G1 X71.246 Y59.711 E.00979
G1 X71.246 Y62.018 E.07089
G1 X71.146 Y62.018 E.00308
G1 X71.146 Y78.762 E.51448
G1 X70.727 Y78.762 E.01287
G1 X70.727 Y62.018 E.51448
G1 X70.308 Y62.018 E.01287
G1 X70.308 Y78.762 E.51448
G1 X69.889 Y78.762 E.01287
G1 X69.889 Y62.018 E.51448
G1 X69.47 Y62.018 E.01287
G1 X69.47 Y78.762 E.51448
G1 X69.051 Y78.762 E.01287
G1 X69.051 Y61.848 E.5197
M204 P1000
G1 E-2.24 F4200
;WIPE_START
G1 F7200
G1 X69.051 Y63.494 E-.912
;WIPE_END
G1 E-.048 F4200
G1 Z.4 F720
G1 X52.387 Y113.578 F9000
G1 Z.2 F720
G1 E3.2 F2400
M204 P800
;TYPE:Perimeter
;WIDTH:0.419999
G1 F1200
G1 X52.331 Y113.425 E.00498
G1 X52.025 Y112.936 E.01774
G1 X51.624 Y112.521 E.01774
G1 X51.145 Y112.199 E.01774
G1 X50.617 Y111.985 E.0175
G1 X78.428 Y98.079 E.95544
G1 X79.029 Y97.794 E.02043
G1 X79.43 Y97.664 E.01296
G1 X79.85 Y97.62 E.01297
G1 X80.465 Y97.615 E.01891
G1 X80.781 Y97.528 E.01008
G1 X81.064 Y97.32 E.01077
G1 X81.262 Y96.995 E.0117
G1 X81.317 Y96.664 E.0103
G1 X81.077 Y79.21 E.53637
G1 X82.741 Y78.856 E.05228
G1 X82.929 Y78.795 E.00606
G1 X83.7 Y78.452 E.02593
G1 X84.765 Y77.955 E.03613
G1 X86.241 Y76.883 E.05603
G1 X86.387 Y76.751 E.00606
G1 X87.607 Y75.396 E.05603
G1 X87.723 Y75.237 E.00606
G1 X88.715 Y73.477 E.06206
G1 X89.279 Y71.743 E.05603
G1 X89.346 Y71.302 E.0137
G1 X115.664 Y71.302 E.8087
G1 X119.803 Y75.4 E.17895
G1 X121.105 Y76.321 E.04902
G1 X122.389 Y76.893 E.04319
G1 X122.577 Y76.954 E.00606
G1 X123.951 Y77.246 E.04319
G1 X124.147 Y77.267 E.00606
G1 X125.553 Y77.267 E.04318
G1 X125.749 Y77.246 E.00606
G1 X127.123 Y76.954 E.04318
G1 X127.311 Y76.893 E.00606
G1 X128.245 Y76.477 E.03142
G1 X85.105 Y116.02 E1.79819
G1 X84.615 Y116.396 E.01897
G1 X84.227 Y116.568 E.01304
G1 X83.812 Y116.657 E.01304
G1 X51.733 Y116.657 E.98569
G1 X52.141 Y116.181 E.01924
G1 X52.412 Y115.671 E.01775
G1 X52.57 Y115.116 E.01773
G1 X52.61 Y114.54 E.01775
G1 X52.529 Y113.968 E.01774
G1 X52.408 Y113.634 E.01093
M204 P1000
G1 X52.023 Y113.668 F9000
M204 P800
G1 F1200
G1 X51.814 Y113.284 E.01342
G1 X51.49 Y112.905 E.01532
G1 X51.094 Y112.602 E.01532
G1 X50.643 Y112.388 E.01533
G1 X50.158 Y112.272 E.01533
G1 X49.66 Y112.26 E.01532
;WIDTH:0.449175
G1 X49.411 Y112.291 E.00828
;WIDTH:0.47835
G1 X49.163 Y112.323 E.00888
G1 X49.388 Y112.194 E.00921
;WIDTH:0.449175
G1 X49.614 Y112.065 E.00859
;WIDTH:0.419999
G1 X78.586 Y97.579 E.99533
G1 X79.106 Y97.347 E.01747
G1 X79.598 Y97.243 E.01547
G1 X80.508 Y97.227 E.02795
G1 X80.748 Y97.102 E.00832
G1 X80.884 Y96.922 E.00692
G1 X80.94 Y96.669 E.00796
G1 X80.695 Y78.879 E.54671
G1 X80.879 Y78.866 E.00566
G1 X82.776 Y78.451 E.05965
G1 X84.544 Y77.65 E.05965
G1 X86.107 Y76.499 E.05965
G1 X87.397 Y75.048 E.05965
G1 X88.357 Y73.361 E.05965
G1 X88.92 Y71.627 E.05603
G1 X89.006 Y70.925 E.02171
G1 X115.82 Y70.925 E.82391
G1 X120.024 Y75.095 E.18195
G1 X121.259 Y75.977 E.04661
M73 P2 R82
G1 X122.655 Y76.585 E.0468
G1 X124.147 Y76.89 E.0468
G1 X125.67 Y76.877 E.0468
G1 X127.157 Y76.549 E.0468
;WIDTH:0.44879
G1 X127.805 Y76.276 E.02325
;WIDTH:0.477581
G1 X128.453 Y76.003 E.0249
;WIDTH:0.526163
G1 X128.575 Y75.961 E.00508
G1 X129.132 Y75.532 E.02768
;WIDTH:0.486212
G1 X129.688 Y75.102 E.02539
;WIDTH:0.44626
G1 X129.776 Y75.019 E.00397
;WIDTH:0.438912
G1 X130.787 Y73.877 E.04921
G1 X131.538 Y72.55 E.04921
G1 X131.998 Y71.096 E.04921
G1 X132.145 Y69.698 E.04535
G1 X131.984 Y68.115 E.05134
G1 X132.389 Y68.115 E.01307
G1 X132.538 Y69.537 E.04612
G1 X132.538 Y69.74 E.00655
G1 X132.392 Y71.137 E.04535
G1 X132.349 Y71.336 E.00655
G1 X131.915 Y72.673 E.04535
G1 X131.832 Y72.858 E.00655
G1 X131.13 Y74.075 E.04535
G1 X131.01 Y74.239 E.00655
G1 X130.07 Y75.284 E.04535
;WIDTH:0.44626
G1 X129.943 Y75.414 E.00597
;WIDTH:0.486212
G1 X129.412 Y75.874 E.02539
;WIDTH:0.526163
G1 X128.88 Y76.334 E.02768
G1 X128.763 Y76.475 E.00723
;WIDTH:0.477581
G1 X128.254 Y76.961 E.0249
;WIDTH:0.44879
G1 X127.746 Y77.446 E.02325
;WIDTH:0.419999
G1 X85.242 Y116.406 E1.77166
G1 X84.804 Y116.724 E.01664
G1 X84.344 Y116.929 E.01547
G1 X83.852 Y117.034 E.01547
G1 X50.674 Y117.034 E1.01945
;WIDTH:0.445842
G1 X50.14 Y117.021 E.01753
G1 X50.531 Y116.925 E.01319
;WIDTH:0.419999
G1 X50.991 Y116.733 E.01533
G1 X51.402 Y116.45 E.01532
M73 P2 R81
G1 X51.745 Y116.088 E.01532
G1 X52.005 Y115.662 E.01533
G1 X52.171 Y115.192 E.01533
G1 X52.235 Y114.697 E.01532
G1 X52.195 Y114.2 E.01533
G1 X52.052 Y113.72 E.01539
M204 P1000
G1 X51.701 Y113.858 F9000
M204 P800
;TYPE:External perimeter
G1 F1200
G1 X51.82 Y114.239 E.01228
G1 X51.86 Y114.658 E.01292
G1 X51.812 Y115.075 E.01291
G1 X51.678 Y115.474 E.01291
G1 X51.465 Y115.836 E.01292
G1 X51.18 Y116.145 E.01291
G1 X50.838 Y116.389 E.01291
G1 X50.452 Y116.556 E.01292
G1 X50.04 Y116.639 E.01291
G1 X49.62 Y116.635 E.01291
G1 X49.21 Y116.544 E.01292
G1 X48.828 Y116.369 E.01291
G1 X48.49 Y116.119 E.01291
G1 X48.212 Y115.804 E.01291
G1 X48.006 Y115.438 E.01292
G1 X47.88 Y115.037 E.01291
G1 X47.84 Y114.658 E.01171
G1 X47.888 Y114.201 E.01412
G1 X48.022 Y113.803 E.01291
G1 X48.235 Y113.441 E.01292
G1 X48.52 Y113.131 E.01291
G1 X48.862 Y112.888 E.01291
G1 X49.248 Y112.72 E.01292
G1 X49.66 Y112.637 E.01291
G1 X50.08 Y112.641 E.01291
G1 X50.49 Y112.732 E.01292
G1 X50.872 Y112.907 E.01291
G1 X51.21 Y113.158 E.01291
G1 X51.488 Y113.473 E.01291
G1 X51.675 Y113.804 E.0117
M204 P1000
G1 X52.098 Y113.905 F9000
G1 E-2.24 F4200
;WIPE_START
G1 F7200
G1 X51.82 Y114.239 E-.25435
G1 X51.86 Y114.658 E-.23293
G1 X51.812 Y115.075 E-.23289
G1 X51.702 Y115.404 E-.19182
;WIPE_END
G1 E-.048 F4200
G1 Z.4 F720
G1 X80.375 Y96.866 F9000
G1 Z.2 F720
G1 E3.2 F2400
M204 P800
G1 F1200
G1 X80.499 Y96.819 E.00409
G1 X80.563 Y96.677 E.00477
G1 X80.313 Y78.502 E.55853
G1 X80.801 Y78.498 E.01499
G1 X82.622 Y78.106 E.05724
G1 X84.322 Y77.345 E.05724
G1 X85.827 Y76.247 E.05724
G1 X87.07 Y74.86 E.05724
G1 X87.998 Y73.244 E.05724
G1 X88.561 Y71.51 E.05603
G1 X88.667 Y70.548 E.02973
G1 X115.975 Y70.548 E.83912
G1 X120.246 Y74.79 E.18495
G1 X121.412 Y75.632 E.0442
G1 X122.733 Y76.216 E.04439
G1 X124.108 Y76.508 E.04319
G1 X125.553 Y76.513 E.04439
G1 X126.967 Y76.216 E.04439
G1 X128.288 Y75.632 E.04439
G1 X129.459 Y74.787 E.04439
G1 X130.429 Y73.716 E.04439
G1 X131.171 Y72.431 E.04559
G1 X131.613 Y71.056 E.04439
G1 X131.76 Y69.619 E.04439
G1 X131.613 Y68.221 E.04318
G1 X131.458 Y67.729 E.01585
G1 X132.687 Y67.729 E.03777
G1 X132.761 Y67.957 E.00736
G1 X132.938 Y69.638 E.05195
G1 X132.761 Y71.32 E.05195
G1 X132.238 Y72.928 E.05195
G1 X131.393 Y74.392 E.05195
G1 X130.246 Y75.666 E.05267
G1 X85.481 Y116.698 E1.86591
G1 X84.994 Y117.052 E.01851
G1 X84.461 Y117.29 E.01791
G1 X83.891 Y117.411 E.01791
G1 X49.559 Y117.411 E1.05495
G1 X48.988 Y117.29 E.01791
G1 X48.456 Y117.052 E.01791
G1 X47.985 Y116.71 E.01791
G1 X47.595 Y116.277 E.01791
G1 X47.303 Y115.772 E.01791
G1 X47.136 Y115.257 E.01666
G1 X47.062 Y114.638 E.01913
G1 X47.123 Y114.059 E.01791
G1 X47.303 Y113.504 E.01791
G1 X47.595 Y113 E.01791
G1 X47.985 Y112.566 E.01791
G1 X48.464 Y112.218 E.01819
G1 X78.425 Y97.238 E1.0293
G1 X78.989 Y96.987 E.01895
G1 X79.559 Y96.866 E.01791
G1 X80.315 Y96.866 E.02323
M204 P1000
G1 X80.469 Y96.959 F9000
G1 E-2.24 F4200
;WIPE_START
G1 F7200
G1 X80.499 Y96.819 E-.1055
G1 X80.563 Y96.677 E-.08611
G1 X80.545 Y95.377 E-.72038
;WIPE_END
G1 E-.048 F4200
G1 Z.4 F720
G1 X50.14 Y117.021 F9000
G1 Z.2 F720
G1 E3.2 F2400
M204 P800
;TYPE:Perimeter
;WIDTH:0.445842
G1 F1200
G1 X49.599 Y117.023 E.01777
;WIDTH:0.4403
G1 X49.109 Y116.919 E.01624
G1 X48.651 Y116.715 E.01623
G1 X48.245 Y116.421 E.01624
G1 X47.91 Y116.048 E.01624
G1 X47.659 Y115.614 E.01623
G1 X47.504 Y115.137 E.01624
G1 X47.452 Y114.638 E.01624
G1 X47.504 Y114.14 E.01624
G1 X47.659 Y113.663 E.01624
G1 X47.91 Y113.228 E.01623
G1 X48.245 Y112.856 E.01624
;WIDTH:0.442442
G1 X48.666 Y112.551 E.01691
;WIDTH:0.47835
G1 X49.163 Y112.323 E.01942
M204 P1000
G1 E-2.24 F4200
;WIPE_START
G1 F7200
G1 X48.666 Y112.551 E-.30328
G1 X48.245 Y112.856 E-.28779
G1 X47.91 Y113.228 E-.27788
G1 X47.871 Y113.296 E-.04305
;WIPE_END
G1 E-.048 F4200
G1 Z.4 F720
G1 X91.891 Y76.349 F9000
G1 Z.2 F720
G1 E3.2 F2400
M204 P800
;WIDTH:0.419999
G1 F1200
G1 X92.031 Y76.189 E.00652
G1 X92.229 Y76.071 E.0071
G1 X92.608 Y75.992 E.01188
G1 X108.408 Y75.992 E.4855
G1 X109.304 Y76.161 E.02802
G1 X110.145 Y76.513 E.02802
G1 X110.894 Y77.032 E.02801
G1 X111.361 Y77.519 E.02072
G1 X111.636 Y77.855 E.01334
G1 X111.993 Y78.475 E.02198
G1 X112.294 Y79.335 E.02801
G1 X112.41 Y80.24 E.02802
G1 X112.335 Y81.148 E.02801
G1 X112.073 Y82.022 E.02802
G1 X111.635 Y82.821 E.02801
G1 X111.052 Y83.5 E.02748
G1 X93.502 Y101.052 E.76269
G1 X92.815 Y101.565 E.02634
G1 X91.991 Y101.955 E.02801
G1 X91.104 Y102.164 E.02802
G1 X90.192 Y102.185 E.02802
G1 X89.296 Y102.015 E.02802
G1 X88.455 Y101.664 E.02802
G1 X87.706 Y101.144 E.02802
G1 X87.08 Y100.481 E.02802
G1 X86.607 Y99.702 E.02801
G1 X86.306 Y98.841 E.02802
G1 X86.191 Y97.948 E.02766
G1 X86.186 Y97.265 E.021
G1 X86.186 Y82.516 E.4532
G1 X86.267 Y82.133 E.01204
G1 X86.391 Y81.929 E.00733
G1 X86.772 Y81.609 E.01529
G1 X89.104 Y79.915 E.08854
G1 X91.038 Y77.767 E.08884
G1 X91.791 Y76.463 E.04627
G1 X91.852 Y76.394 E.00282
M204 P1000
G1 X92.179 Y76.588 F9000
M204 P800
G1 F1200
G1 X92.309 Y76.454 E.00573
G1 X92.51 Y76.377 E.00662
G1 X92.608 Y76.369 E.00301
G1 X108.408 Y76.369 E.4855
G1 X109.225 Y76.53 E.0256
G1 X109.991 Y76.857 E.0256
G1 X110.673 Y77.337 E.0256
G1 X111.08 Y77.771 E.0183
G1 X111.309 Y78.044 E.01092
G1 X111.667 Y78.663 E.02198
G1 X111.936 Y79.452 E.0256
