; generated by PrusaSlicer 2.5.0+linux-x64-GTK3 on 2023-03-10 at 14:41:05 UTC

; 
;

; 
;

; 
;

; 

; external perimeters extrusion width = 0.45mm
; perimeters extrusion width = 0.45mm
; infill extrusion width = 0.45mm
; solid infill extrusion width = 0.45mm
; top infill extrusion width = 0.40mm
; support material extrusion width = 0.35mm
; first layer extrusion width = 0.42mm

M73 P0 R31
M201 X2500 Y2500 Z400 E5000 ; sets maximum accelerations, mm/sec^2
M203 X180 Y180 Z12 E80 ; sets maximum feedrates, mm / sec
M204 P1250 R1250 T2500 ; sets acceleration (P, T) and retract acceleration (R), mm/sec^2
M205 X8.00 Y8.00 Z2.00 E10.00 ; sets the jerk limits, mm/sec
M205 S0 T0 ; sets the minimum extruding and travel feed rate, mm/sec
M107
;TYPE:Custom
M862.3 P "MINI" ; printer model check
G90 ; use absolute coordinates
M83 ; extruder relative mode
M104 S170 ; set extruder temp for bed leveling
M140 S60 ; set bed temp
M109 R170 ; wait for bed leveling temp
M190 S60 ; wait for bed temp
M204 T1250 ; set travel acceleration
G28 ; home all without mesh bed level
G29 ; mesh bed leveling 
M204 T2500 ; restore travel acceleration
M104 S215 ; set extruder temp
G92 E0
G1 Y-2 X179 F2400
G1 Z3 F720
M109 S215 ; wait for extruder temp

; intro line
G1 X170 F1000
G1 Z0.2 F720
G1 X110 E8 F900
G1 X40 E10 F700
G92 E0

M221 S95 ; set flow
G21 ; set units to millimeters
G90 ; use absolute coordinates
M83 ; use relative distances for extrusion
M900 K0.05 ; Filament gcode LA 1.5
M900 K30 ; Filament gcode LA 1.0
M107
;LAYER_CHANGE
;Z:0.2
;HEIGHT:0.2
;BEFORE_LAYER_CHANGE
G92 E0.0
;0.2


G1 E-3.2 F4200
M73 P0 R30
G1 Z.2 F720
;AFTER_LAYER_CHANGE
;0.2
G1 Z.4
G1 X77.716 Y67.233 F9000
G1 Z.2 F720
G1 E3.2 F2400
M204 P800
;TYPE:Skirt/Brim
;WIDTH:0.42
G1 F1200
G1 X79.904 Y64.88 E.09871
G1 X82.533 Y63.035 E.0987
G1 X85.016 Y61.929 E.08351
G1 X88.147 Y61.21 E.09871
G1 X88.641 Y61.159 E.01527
G1 X91.853 Y61.21 E.09871
G1 X94.984 Y61.929 E.09871
G1 X97.467 Y63.035 E.08351
G1 X100.096 Y64.88 E.09871
G1 X102.284 Y67.233 E.09871
G1 X102.627 Y67.723 E.01839
G1 X104.137 Y70.442 E.09558
G1 X109.255 Y87.176 E.5377
G1 X109.377 Y88.464 E.03976
M73 P1 R30
G1 X109.377 Y102.464 E.43018
G1 X109.255 Y103.753 E.03976
G1 X108.828 Y105.233 E.04733
G1 X107.967 Y106.802 E.05499
G1 X101.692 Y115.429 E.32781
G1 X99.763 Y117.92 E.09681
G1 X98.653 Y118.714 E.04193
G1 X97.884 Y118.841 E.02395
G1 X82.116 Y118.841 E.48453
G1 X80.809 Y118.45 E.04193
G1 X80.237 Y117.92 E.02395
G1 X78.308 Y115.429 E.09681
G1 X72.033 Y106.802 E.32781
G1 X71.172 Y105.233 E.05499
G1 X70.745 Y103.753 E.04733
G1 X70.623 Y102.464 E.03976
G1 X70.623 Y88.464 E.43018
G1 X70.745 Y87.176 E.03976
G1 X75.863 Y70.442 E.5377
G1 X76.082 Y69.959 E.01631
G1 X77.685 Y67.284 E.09582
M204 P1000
; printing object  id:0 copy 0
G1 E-2.24 F4200
;WIPE_START
G1 F7200
G1 X78.802 Y66.075 E-.912
;WIPE_END
G1 E-.048 F4200
G1 Z.4 F720
G1 X82.451 Y84.684 F9000
G1 Z.2 F720
G1 E3.2 F2400
M204 P800
;TYPE:Perimeter
;WIDTH:0.419999
G1 F1200
G1 X82.451 Y114.997 E.93145
G1 X81.161 Y113.332 E.06473
G1 X74.932 Y104.768 E.32538
G1 X74.502 Y104.022 E.02647
G1 X74.254 Y103.261 E.0246
G1 X74.164 Y102.403 E.02649
G1 X74.164 Y88.525 E.42643
G1 X74.255 Y87.658 E.0268
G1 X77.772 Y76.149 E.36978
;WIDTH:0.462605
G1 X78 Y75.477 E.02426
;WIDTH:0.50521
G1 X78.227 Y74.805 E.02672
;WIDTH:0.547815
G1 X78.455 Y74.133 E.02918
;WIDTH:0.55909
G1 X79.208 Y71.834 E.10175
G1 X79.337 Y71.542 E.01344
G1 X80.406 Y69.691 E.08989
G1 X80.594 Y69.433 E.01344
G1 X82.024 Y67.845 E.08989
G1 X82.261 Y67.631 E.01344
G1 X83.99 Y66.375 E.08989
G1 X84.267 Y66.215 E.01344
G1 X86.219 Y65.346 E.08989
G1 X86.523 Y65.247 E.01344
G1 X88.614 Y64.803 E.08989
G1 X88.932 Y64.77 E.01345
;WIDTH:0.558958
G1 X91.069 Y64.771 E.08987
;WIDTH:0.559074
G1 X91.386 Y64.803 E.01342
G1 X93.477 Y65.247 E.08989
G1 X93.781 Y65.346 E.01344
G1 X95.733 Y66.215 E.08989
G1 X96.01 Y66.375 E.01344
G1 X97.739 Y67.631 E.08989
G1 X97.976 Y67.845 E.01344
G1 X99.406 Y69.433 E.08989
G1 X99.594 Y69.691 E.01344
G1 X100.663 Y71.542 E.08989
G1 X100.792 Y71.834 E.01344
G1 X101.545 Y74.133 E.10175
;WIDTH:0.547805
G1 X101.773 Y74.805 E.02918
;WIDTH:0.505203
G1 X102 Y75.477 E.02672
;WIDTH:0.462601
G1 X102.228 Y76.149 E.02426
;WIDTH:0.419999
G1 X105.745 Y87.658 E.36978
G1 X105.836 Y88.525 E.0268
G1 X105.836 Y102.403 E.42643
G1 X105.746 Y103.261 E.02649
G1 X105.498 Y104.022 E.0246
G1 X105.068 Y104.768 E.02647
G1 X98.839 Y113.332 E.32538
G1 X97.549 Y114.997 E.06473
G1 X97.549 Y84.684 E.93145
G1 X98.756 Y83.342 E.05545
G1 X99.087 Y82.944 E.0159
G1 X100.155 Y81.094 E.06567
G1 X100.235 Y80.914 E.00606
G1 X100.896 Y78.881 E.06567
G1 X100.937 Y78.688 E.00606
G1 X101.16 Y76.563 E.06567
G1 X101.16 Y76.366 E.00606
;WIDTH:0.462601
G1 X101.107 Y75.659 E.02426
;WIDTH:0.505203
G1 X101.054 Y74.951 E.02672
;WIDTH:0.547805
G1 X101.001 Y74.244 E.02918
;WIDTH:0.559088
G1 X100.962 Y74.026 E.0093
G1 X100.302 Y71.994 E.08989
G1 X100.216 Y71.8 E.0089
G1 X99.147 Y69.95 E.08989
G1 X99.023 Y69.778 E.0089
G1 X97.593 Y68.19 E.08989
G1 X97.435 Y68.049 E.0089
G1 X95.706 Y66.792 E.08989
G1 X95.523 Y66.687 E.0089
G1 X93.571 Y65.817 E.08989
G1 X93.369 Y65.752 E.0089
G1 X91.279 Y65.308 E.08989
G1 X91.069 Y65.286 E.0089
;WIDTH:0.558958
G1 X88.931 Y65.286 E.08987
;WIDTH:0.559076
G1 X88.721 Y65.308 E.0089
G1 X86.631 Y65.752 E.08989
G1 X86.429 Y65.817 E.0089
G1 X84.477 Y66.687 E.08989
G1 X84.294 Y66.792 E.0089
G1 X82.565 Y68.049 E.08989
G1 X82.407 Y68.19 E.0089
G1 X80.977 Y69.778 E.08989
G1 X80.853 Y69.95 E.0089
G1 X79.784 Y71.8 E.08989
G1 X79.698 Y71.994 E.0089
G1 X79.038 Y74.026 E.08989
G1 X78.999 Y74.244 E.0093
;WIDTH:0.547815
G1 X78.946 Y74.951 E.02918
;WIDTH:0.50521
G1 X78.893 Y75.658 E.02672
;WIDTH:0.462605
G1 X78.84 Y76.366 E.02426
;WIDTH:0.419999
G1 X78.84 Y76.563 E.00606
G1 X79.063 Y78.688 E.06567
G1 X79.104 Y78.881 E.00606
G1 X79.765 Y80.914 E.06567
G1 X79.845 Y81.094 E.00606
G1 X80.69 Y82.558 E.05196
G1 X81.029 Y83.104 E.01974
G1 X82.411 Y84.639 E.06347
M204 P1000
G1 X82.825 Y84.521 F9000
M204 P800
G1 F1200
G1 X82.829 Y115.677 E.95733
G1 X82.501 Y115.677 E.01005
M73 P2 R30
G1 X80.86 Y113.558 E.08237
G1 X74.616 Y104.974 E.32617
G1 X74.155 Y104.176 E.0283
G1 X73.883 Y103.339 E.02703
G1 X73.787 Y102.423 E.02831
G1 X73.787 Y88.506 E.42765
G1 X73.884 Y87.582 E.02853
G1 X78.035 Y73.998 E.43645
G1 X78.847 Y71.499 E.08075
G1 X80.123 Y69.288 E.07843
G1 X81.831 Y67.392 E.07842
G1 X83.896 Y65.891 E.07842
G1 X86.227 Y64.853 E.07842
G1 X88.724 Y64.323 E.07842
G1 X91.289 Y64.325 E.07881
G1 X93.773 Y64.853 E.07804
G1 X96.104 Y65.891 E.07842
G1 X98.169 Y67.392 E.07842
G1 X99.877 Y69.288 E.07842
G1 X101.153 Y71.499 E.07842
G1 X101.965 Y73.998 E.08076
G1 X106.116 Y87.582 E.43645
G1 X106.213 Y88.506 E.02853
G1 X106.213 Y102.423 E.42765
G1 X106.117 Y103.339 E.02831
G1 X105.845 Y104.176 E.02703
G1 X105.384 Y104.974 E.0283
G1 X99.14 Y113.558 E.32617
G1 X97.499 Y115.677 E.08237
G1 X97.171 Y115.677 E.01005
G1 X97.175 Y84.521 E.95733
G1 X98.76 Y82.756 E.07292
G1 X99.877 Y80.797 E.06928
G1 X100.562 Y78.649 E.06928
G1 X100.785 Y76.405 E.06928
G1 X100.537 Y74.164 E.06928
G1 X99.829 Y72.024 E.06928
G1 X98.691 Y70.077 E.06928
G1 X97.261 Y68.489 E.06567
G1 X95.444 Y67.154 E.06928
G1 X93.389 Y66.225 E.06928
G1 X91.186 Y65.744 E.06928
G1 X88.931 Y65.732 E.06928
G1 X86.611 Y66.225 E.07289
G1 X84.556 Y67.154 E.06928
G1 X82.739 Y68.489 E.06928
G1 X81.24 Y70.173 E.06928
G1 X80.123 Y72.132 E.06928
G1 X79.438 Y74.28 E.06928
G1 X79.215 Y76.524 E.06928
G1 X79.463 Y78.765 E.06928
G1 X80.171 Y80.905 E.06928
G1 X81.309 Y82.852 E.06928
G1 X82.785 Y84.477 E.06746
M204 P1000
G1 X83.138 Y84.277 F9000
M204 P800
;TYPE:External perimeter
G1 F1200
G1 X83.206 Y84.328 E.00258
G1 X83.206 Y116.054 E.97487
G1 X82.317 Y116.054 E.02732
G1 X80.558 Y113.785 E.08822
G1 X74.299 Y105.18 E.32695
G1 X73.809 Y104.33 E.03013
G1 X73.513 Y103.418 E.02947
G1 X73.41 Y102.443 E.03014
G1 X73.41 Y88.486 E.42886
G1 X73.513 Y87.507 E.03025
G1 X77.675 Y73.885 E.43767
G1 X78.501 Y71.345 E.08207
G1 X79.816 Y69.066 E.08086
G1 X81.577 Y67.11 E.08086
G1 X83.706 Y65.563 E.08086
G1 X86.11 Y64.493 E.08086
G1 X88.684 Y63.946 E.08086
G1 X91.328 Y63.948 E.08125
G1 X93.89 Y64.493 E.08047
G1 X96.294 Y65.563 E.08086
G1 X98.423 Y67.11 E.08086
G1 X100.184 Y69.066 E.08086
G1 X101.499 Y71.345 E.08086
G1 X102.325 Y73.885 E.08208
G1 X106.487 Y87.507 E.43767
G1 X106.59 Y88.486 E.03025
G1 X106.59 Y102.443 E.42886
G1 X106.487 Y103.418 E.03014
G1 X106.191 Y104.33 E.02947
G1 X105.701 Y105.18 E.03013
G1 X99.442 Y113.785 E.32695
G1 X97.683 Y116.054 E.08822
M73 P3 R30
G1 X96.794 Y116.054 E.02732
G1 X96.794 Y84.328 E.97487
G1 X96.98 Y84.187 E.00716
G1 X98.434 Y82.567 E.06687
G1 X99.502 Y80.717 E.06567
G1 X100.179 Y78.648 E.06687
G1 X100.41 Y76.445 E.06808
G1 X100.179 Y74.281 E.06687
G1 X99.502 Y72.212 E.06687
G1 X98.41 Y70.33 E.06687
G1 X96.951 Y68.715 E.06687
G1 X95.188 Y67.439 E.06687
G1 X93.198 Y66.558 E.06687
G1 X91.069 Y66.109 E.06687
G1 X88.892 Y66.113 E.06688
G1 X86.764 Y66.57 E.06687
G1 X84.778 Y67.459 E.06687
G1 X83.02 Y68.741 E.06687
G1 X81.59 Y70.33 E.06567
G1 X80.498 Y72.212 E.06687
G1 X79.821 Y74.281 E.06687
G1 X79.59 Y76.445 E.06687
G1 X79.813 Y78.61 E.06687
G1 X80.482 Y80.681 E.06687
G1 X81.011 Y81.606 E.03276
G1 X81.59 Y82.599 E.03531
G1 X83.02 Y84.187 E.06567
G1 X83.091 Y84.241 E.00273
M204 P1000
G1 X83.123 Y84.36 F9000
G1 E-2.24 F4200
;WIPE_START
G1 F7200
G1 X83.206 Y84.328 E-.07987
G1 X83.206 Y85.829 E-.83213
;WIPE_END
G1 E-.048 F4200
G1 Z.4 F720
G1 X75.364 Y87.691 F9000
G1 Z.2 F720
G1 E3.2 F2400
M204 P800
;TYPE:Perimeter
G1 F1200
G1 X75.438 Y87.432 E.00827
G1 X75.709 Y86.922 E.01775
G1 X76.08 Y86.479 E.01774
G1 X76.535 Y86.123 E.01774
G1 X77.053 Y85.87 E.01774
G1 X77.614 Y85.73 E.01775
G1 X78.19 Y85.709 E.01773
G1 X78.759 Y85.809 E.01774
G1 X79.295 Y86.025 E.01775
G1 X79.774 Y86.347 E.01774
G1 X80.175 Y86.762 E.01774
G1 X80.481 Y87.252 E.01774
G1 X80.679 Y87.794 E.01775
G1 X80.76 Y88.366 E.01774
G1 X80.72 Y88.942 E.01775
G1 X80.562 Y89.497 E.01773
G1 X80.291 Y90.007 E.01775
G1 X79.92 Y90.45 E.01774
G1 X79.465 Y90.806 E.01774
G1 X78.947 Y91.059 E.01774
G1 X78.386 Y91.199 E.01775
G1 X77.81 Y91.22 E.01773
G1 X77.241 Y91.12 E.01774
G1 X76.705 Y90.904 E.01775
G1 X76.226 Y90.582 E.01774
G1 X75.825 Y90.167 E.01774
G1 X75.519 Y89.677 E.01774
G1 X75.321 Y89.135 E.01775
G1 X75.24 Y88.563 E.01774
G1 X75.28 Y87.987 E.01775
G1 X75.348 Y87.748 E.00762
M204 P1000
G1 X75.654 Y88.089 F9000
M204 P800
G1 F1200
G1 X75.665 Y87.962 E.00392
G1 X75.845 Y87.44 E.01697
G1 X76.105 Y87.014 E.01533
G1 X76.448 Y86.652 E.01532
G1 X76.859 Y86.369 E.01532
G1 X77.319 Y86.178 E.01533
G1 X77.81 Y86.086 E.01532
G1 X78.308 Y86.098 E.01532
G1 X78.848 Y86.239 E.01715
G1 X79.244 Y86.428 E.01348
G1 X79.64 Y86.731 E.01532
G1 X79.964 Y87.11 E.01532
G1 X80.203 Y87.548 E.01533
G1 X80.345 Y88.026 E.01532
G1 X80.385 Y88.524 E.01533
G1 X80.321 Y89.018 E.01532
G1 X80.155 Y89.489 E.01533
G1 X79.895 Y89.914 E.01533
G1 X79.552 Y90.276 E.01532
G1 X79.141 Y90.56 E.01532
G1 X78.681 Y90.751 E.01533
G1 X78.19 Y90.843 E.01532
G1 X77.692 Y90.83 E.01532
G1 X77.207 Y90.715 E.01533
G1 X76.756 Y90.5 E.01533
G1 X76.36 Y90.197 E.01532
G1 X76.036 Y89.819 E.01532
G1 X75.797 Y89.38 E.01533
G1 X75.655 Y88.903 E.01532
G1 X75.615 Y88.524 E.01171
G1 X75.648 Y88.149 E.01156
M204 P1000
G1 X75.992 Y88.501 F9000
M204 P800
;TYPE:External perimeter
G1 F1200
G1 X76.038 Y88.027 E.01462
G1 X76.172 Y87.629 E.01291
G1 X76.385 Y87.267 E.01292
G1 X76.67 Y86.957 E.01291
G1 X77.012 Y86.714 E.01291
G1 X77.398 Y86.546 E.01292
G1 X77.81 Y86.463 E.01291
G1 X78.23 Y86.467 E.01291
G1 X78.695 Y86.583 E.01473
G1 X79.022 Y86.733 E.01107
G1 X79.36 Y86.984 E.01291
G1 X79.638 Y87.299 E.01291
G1 X79.844 Y87.665 E.01292
G1 X79.97 Y88.066 E.01291
G1 X80.01 Y88.484 E.01292
G1 X79.962 Y88.902 E.01291
G1 X79.828 Y89.3 E.01291
G1 X79.615 Y89.662 E.01292
G1 X79.33 Y89.971 E.01291
G1 X78.988 Y90.215 E.01291
G1 X78.602 Y90.382 E.01292
G1 X78.19 Y90.466 E.01291
G1 X77.77 Y90.461 E.01291
G1 X77.36 Y90.37 E.01292
G1 X76.978 Y90.195 E.01292
G1 X76.64 Y89.945 E.01291
G1 X76.362 Y89.63 E.01291
G1 X76.156 Y89.264 E.01292
G1 X76.03 Y88.863 E.01291
G1 X75.998 Y88.56 E.00935
M204 P1000
G1 X75.644 Y88.303 F9000
G1 E-2.24 F4200
;WIPE_START
G1 F7200
G1 X76.038 Y88.027 E-.29634
G1 X76.172 Y87.629 E-.2329
G1 X76.385 Y87.267 E-.23294
G1 X76.568 Y87.068 E-.14982
;WIPE_END
G1 E-.048 F4200
G1 Z.4 F720
G1 X75.343 Y101.764 F9000
G1 Z.2 F720
G1 E3.2 F2400
M204 P800
;TYPE:Perimeter
G1 F1200
G1 X75.438 Y101.432 E.01061
G1 X75.709 Y100.922 E.01775
G1 X76.08 Y100.479 E.01774
G1 X76.535 Y100.123 E.01774
G1 X77.053 Y99.87 E.01774
G1 X77.614 Y99.73 E.01775
G1 X78.19 Y99.709 E.01773
G1 X78.759 Y99.809 E.01774
G1 X79.295 Y100.025 E.01775
G1 X79.774 Y100.347 E.01774
G1 X80.175 Y100.762 E.01774
G1 X80.481 Y101.252 E.01774
G1 X80.679 Y101.794 E.01775
G1 X80.76 Y102.366 E.01774
G1 X80.72 Y102.942 E.01775
G1 X80.562 Y103.497 E.01773
G1 X80.291 Y104.007 E.01775
G1 X79.92 Y104.45 E.01774
G1 X79.465 Y104.806 E.01774
G1 X78.947 Y105.059 E.01774
G1 X78.386 Y105.199 E.01775
G1 X77.81 Y105.22 E.01773
G1 X77.241 Y105.12 E.01774
G1 X76.705 Y104.904 E.01775
G1 X76.226 Y104.582 E.01774
G1 X75.825 Y104.167 E.01774
G1 X75.519 Y103.677 E.01775
G1 X75.321 Y103.135 E.01775
G1 X75.24 Y102.563 E.01774
G1 X75.28 Y101.987 E.01775
G1 X75.327 Y101.822 E.00528
M204 P1000
G1 X75.653 Y102.161 F9000
M204 P800
G1 F1200
G1 X75.679 Y101.911 E.00773
G1 X75.845 Y101.44 E.01533
G1 X76.105 Y101.014 E.01533
G1 X76.448 Y100.652 E.01532
G1 X76.859 Y100.369 E.01532
G1 X77.319 Y100.178 E.01533
G1 X77.81 Y100.086 E.01532
G1 X78.308 Y100.098 E.01532
G1 X78.793 Y100.214 E.01533
G1 X79.244 Y100.428 E.01533
G1 X79.64 Y100.731 E.01532
G1 X79.964 Y101.11 E.01532
G1 X80.203 Y101.548 E.01533
G1 X80.345 Y102.026 E.01532
G1 X80.385 Y102.524 E.01533
G1 X80.321 Y103.018 E.01532
G1 X80.155 Y103.489 E.01533
G1 X79.895 Y103.914 E.01533
G1 X79.552 Y104.276 E.01532
G1 X79.141 Y104.56 E.01532
G1 X78.681 Y104.751 E.01533
G1 X78.19 Y104.843 E.01532
G1 X77.692 Y104.83 E.01532
G1 X77.207 Y104.715 E.01533
G1 X76.756 Y104.5 E.01533
G1 X76.36 Y104.197 E.01532
G1 X76.036 Y103.819 E.01532
G1 X75.797 Y103.38 E.01533
G1 X75.655 Y102.903 E.01532
G1 X75.615 Y102.524 E.01171
G1 X75.647 Y102.221 E.00936
M204 P1000
G1 X76.018 Y102.755 F9000
M204 P800
;TYPE:External perimeter
G1 F1200
G1 X75.99 Y102.484 E.00836
G1 X76.038 Y102.027 E.01412
G1 X76.172 Y101.629 E.01291
G1 X76.385 Y101.267 E.01292
G1 X76.67 Y100.957 E.01291
G1 X77.012 Y100.714 E.01291
G1 X77.398 Y100.546 E.01292
G1 X77.81 Y100.463 E.01291
G1 X78.23 Y100.467 E.01291
G1 X78.64 Y100.559 E.01292
G1 X79.022 Y100.733 E.01292
G1 X79.36 Y100.984 E.01291
G1 X79.638 Y101.299 E.01291
G1 X79.844 Y101.665 E.01292
G1 X79.97 Y102.066 E.01291
G1 X80.01 Y102.484 E.01292
G1 X79.962 Y102.902 E.01291
G1 X79.828 Y103.3 E.01291
G1 X79.615 Y103.662 E.01292
G1 X79.33 Y103.971 E.01291
G1 X78.988 Y104.215 E.01291
G1 X78.602 Y104.382 E.01292
G1 X78.19 Y104.466 E.01291
G1 X77.77 Y104.461 E.01291
G1 X77.36 Y104.37 E.01292
G1 X76.978 Y104.195 E.01292
G1 X76.64 Y103.945 E.01291
G1 X76.362 Y103.63 E.01291
G1 X76.156 Y103.264 E.01292
G1 X76.025 Y102.815 E.01439
M204 P1000
G1 X75.761 Y102.667 F9000
G1 E-2.24 F4200
;WIPE_START
G1 F7200
G1 X75.99 Y102.484 E-.1841
G1 X76.038 Y102.027 E-.25462
G1 X76.172 Y101.629 E-.2329
G1 X76.385 Y101.267 E-.23295
G1 X76.394 Y101.257 E-.00743
;WIPE_END
G1 E-.048 F4200
G1 Z.4 F720
G1 X104.486 Y103.64 F9000
G1 Z.2 F720
G1 E3.2 F2400
M204 P800
;TYPE:Perimeter
G1 F1200
G1 X104.291 Y104.007 E.01278
G1 X103.92 Y104.45 E.01774
G1 X103.465 Y104.806 E.01774
G1 X102.947 Y105.059 E.01774
G1 X102.386 Y105.199 E.01775
G1 X101.81 Y105.22 E.01773
G1 X101.241 Y105.12 E.01774
G1 X100.705 Y104.904 E.01775
G1 X100.226 Y104.582 E.01774
G1 X99.825 Y104.167 E.01774
G1 X99.519 Y103.677 E.01775
G1 X99.321 Y103.135 E.01775
G1 X99.24 Y102.563 E.01774
G1 X99.28 Y101.987 E.01775
G1 X99.438 Y101.432 E.01773
G1 X99.709 Y100.922 E.01775
G1 X100.08 Y100.479 E.01774
G1 X100.535 Y100.123 E.01774
G1 X101.053 Y99.87 E.01774
G1 X101.614 Y99.73 E.01775
G1 X102.19 Y99.709 E.01773
G1 X102.759 Y99.809 E.01774
