; generated by PrusaSlicer 2.5.0+linux-x64-GTK3 on 2023-03-09 at 13:35:27 UTC

; 
;

; 
;

; 
;

; 

; external perimeters extrusion width = 0.45mm
; perimeters extrusion width = 0.45mm
; infill extrusion width = 0.45mm
; solid infill extrusion width = 0.45mm
; top infill extrusion width = 0.40mm
; first layer extrusion width = 0.42mm

M73 P0 R43
M201 X2500 Y2500 Z400 E5000 ; sets maximum accelerations, mm/sec^2
M203 X180 Y180 Z12 E80 ; sets maximum feedrates, mm / sec
M204 P1250 R1250 T2500 ; sets acceleration (P, T) and retract acceleration (R), mm/sec^2
M205 X8.00 Y8.00 Z2.00 E10.00 ; sets the jerk limits, mm/sec
M205 S0 T0 ; sets the minimum extruding and travel feed rate, mm/sec
M107
;TYPE:Custom
M862.3 P "MINI" ; printer model check
G90 ; use absolute coordinates
M83 ; extruder relative mode
M104 S170 ; set extruder temp for bed leveling
M140 S60 ; set bed temp
M109 R170 ; wait for bed leveling temp
M190 S60 ; wait for bed temp
M204 T1250 ; set travel acceleration
G28 ; home all without mesh bed level
G29 ; mesh bed leveling 
M204 T2500 ; restore travel acceleration
M104 S215 ; set extruder temp
G92 E0
G1 Y-2 X179 F2400
G1 Z3 F720
M109 S215 ; wait for extruder temp

; intro line
G1 X170 F1000
G1 Z0.2 F720
G1 X110 E8 F900
G1 X40 E10 F700
G92 E0

M221 S95 ; set flow
G21 ; set units to millimeters
G90 ; use absolute coordinates
M83 ; use relative distances for extrusion
M900 K0.05 ; Filament gcode LA 1.5
M900 K30 ; Filament gcode LA 1.0
M107
;LAYER_CHANGE
;Z:0.2
;HEIGHT:0.2
;BEFORE_LAYER_CHANGE
G92 E0.0
;0.2


M73 P0 R42
G1 E-3.2 F4200
G1 Z.2 F720
;AFTER_LAYER_CHANGE
;0.2
G1 Z.4
G1 X80.381 Y67.534 F9000
G1 Z.2 F720
G1 E3.2 F2400
M204 P800
;TYPE:Skirt/Brim
;WIDTH:0.42
G1 F1200
G1 X81.421 Y66.651 E.04193
G1 X82.375 Y66.451 E.02996
G1 X97.625 Y66.451 E.46859
G1 X98.932 Y66.843 E.04193
G1 X99.892 Y68.113 E.04894
G1 X112.338 Y107.594 E1.27196
G1 X112.489 Y108.58 E.03066
G1 X112.434 Y109.596 E.03128
G1 X112.331 Y110.082 E.01528
G1 X111.967 Y111.033 E.03129
G1 X111.706 Y111.486 E.01606
G1 X111.064 Y112.276 E.03128
G1 X110.272 Y112.916 E.03128
G1 X109.494 Y113.32 E.02693
G1 X108.141 Y113.493 E.04193
G1 X107.4 Y113.241 E.02405
G1 X70.313 Y93.265 E1.29437
G1 X69.305 Y92.609 E.03696
G1 X68.586 Y91.888 E.03129
G1 X68.033 Y91.033 E.03128
G1 X67.669 Y90.082 E.03129
G1 X67.511 Y89.076 E.03129
G1 X67.566 Y88.06 E.03128
G1 X67.829 Y87.081 E.03113
G1 X68.287 Y86.182 E.03103
G1 X80.348 Y67.585 E.68109
M204 P1000
; printing object  id:0 copy 0
G1 E-2.24 F4200
;WIPE_START
G1 F7200
G1 X81.421 Y66.651 E-.78803
G1 X81.64 Y66.605 E-.12397
;WIPE_END
G1 E-.048 F4200
G1 Z.4 F720
G1 X71.238 Y89.32 F9000
G1 Z.2 F720
G1 E3.2 F2400
M204 P800
;TYPE:Perimeter
;WIDTH:0.598368
G1 F1200
G1 X71.166 Y89.097 E.01061
G1 X71.137 Y88.849 E.01133
G1 X71.16 Y88.596 E.01146
G1 X71.301 Y88.182 E.01984
;WIDTH:0.553776
G1 X71.345 Y88.065 E.00521
;WIDTH:0.509184
G1 X71.39 Y87.947 E.00475
;WIDTH:0.464592
G1 X71.434 Y87.83 E.0043
;WIDTH:0.419999
G1 X83.007 Y69.992 E.65337
G1 X96.771 Y69.992 E.42293
G1 X97.896 Y73.56 E.11495
M73 P1 R42
G1 X97.245 Y73.109 E.02435
G1 X96.537 Y72.817 E.02352
G1 X95.785 Y72.678 E.02349
G1 X84.215 Y72.678 E.35552
G1 X84.019 Y72.698 E.00606
G1 X83.275 Y72.877 E.02352
G1 X82.585 Y73.207 E.02352
G1 X81.978 Y73.674 E.02352
G1 X81.52 Y74.196 E.02132
G1 X72.067 Y88.248 E.52041
;WIDTH:0.465232
G1 X71.992 Y88.319 E.00353
;WIDTH:0.510465
G1 X71.918 Y88.389 E.0039
;WIDTH:0.555698
G1 X71.843 Y88.459 E.00428
;WIDTH:0.60093
G1 X71.769 Y88.53 E.00466
G1 X71.728 Y88.592 E.0034
;WIDTH:0.598368
G1 X71.272 Y89.27 E.03698
M204 P1000
G1 X71.264 Y90.117 F9000
M204 P800
;WIDTH:0.419999
G1 F1200
G1 X71.013 Y89.855 E.01117
G1 X70.838 Y89.565 E.0104
G1 X70.723 Y89.241 E.01055
G1 X70.674 Y88.897 E.01068
G1 X70.696 Y88.548 E.01077
G1 X70.79 Y88.208 E.01084
G1 X71.024 Y87.77 E.01525
G1 X82.803 Y69.615 E.66496
G1 X97.048 Y69.615 E.43772
G1 X98.524 Y74.299 E.1509
G1 X98.65 Y74.632 E.01095
;WIDTH:0.381648
G1 X98.775 Y74.966 E.00984
;WIDTH:0.343297
G1 X98.946 Y75.504 E.01381
;WIDTH:0.387146
G1 X100.85 Y81.62 E.17969
;WIDTH:0.433379
G1 X102.753 Y87.737 E.20383
;WIDTH:0.479612
G1 X104.657 Y93.854 E.22796
;WIDTH:0.525845
G1 X106.561 Y99.97 E.25209
;WIDTH:0.572078
G1 X108.465 Y106.087 E.27623
G1 X108.513 Y106.177 E.00439
;WIDTH:0.534059
G1 X108.562 Y106.266 E.00407
;WIDTH:0.496039
G1 X108.61 Y106.356 E.00376
;WIDTH:0.458019
G1 X108.658 Y106.446 E.00344
;WIDTH:0.419999
G1 X109.285 Y108.435 E.06409
G1 X109.33 Y108.793 E.0111
G1 X109.299 Y109.155 E.01114
G1 X109.192 Y109.505 E.01127
G1 X108.968 Y109.876 E.0133
G1 X108.001 Y106.647 E.10356
;WIDTH:0.458019
G1 X107.991 Y106.546 E.00344
;WIDTH:0.496039
G1 X107.98 Y106.445 E.00376
;WIDTH:0.534059
G1 X107.97 Y106.344 E.00407
;WIDTH:0.572078
G1 X107.959 Y106.242 E.00439
G1 X106.1 Y100.112 E.27623
;WIDTH:0.525845
G1 X104.24 Y93.982 E.25209
;WIDTH:0.479612
G1 X102.38 Y87.852 E.22796
;WIDTH:0.433379
G1 X100.521 Y81.722 E.20383
;WIDTH:0.387146
G1 X98.661 Y75.591 E.17969
;WIDTH:0.340913
G1 X98.657 Y75.58 E.0003
;WIDTH:0.353916
G1 X98.449 Y74.954 E.01671
;WIDTH:0.386958
G1 X98.286 Y74.652 E.00963
;WIDTH:0.419999
G1 X98.123 Y74.349 E.01056
G1 X97.654 Y73.847 E.02111
G1 X97.091 Y73.453 E.02111
G1 X96.459 Y73.185 E.02111
G1 X95.785 Y73.055 E.02109
G1 X84.215 Y73.055 E.3555
G1 X83.429 Y73.222 E.02472
G1 X82.806 Y73.513 E.02111
G1 X82.258 Y73.926 E.02111
G1 X81.833 Y74.406 E.0197
G1 X72.156 Y88.791 E.5327
G1 X71.298 Y90.067 E.04728
M204 P1000
G1 X71.366 Y90.642 F9000
M204 P800
;TYPE:External perimeter
G1 F1200
G1 X71.018 Y90.406 E.01291
G1 X70.733 Y90.107 E.0127
G1 X70.512 Y89.753 E.01281
G1 X70.364 Y89.358 E.01297
G1 X70.299 Y88.937 E.0131
G1 X70.321 Y88.508 E.01318
G1 X70.431 Y88.091 E.01326
G1 X70.702 Y87.573 E.01797
G1 X82.598 Y69.238 E.67156
G1 X97.324 Y69.238 E.45251
G1 X109.645 Y108.321 E1.25918
G1 X109.705 Y108.754 E.01342
G1 X109.674 Y109.194 E.01356
G1 X109.55 Y109.622 E.01368
G1 X109.335 Y110.018 E.01385
G1 X109.041 Y110.358 E.01382
G1 X108.775 Y110.544 E.01
G1 X98.336 Y75.684 E1.11815
G1 X98.151 Y75.126 E.01806
G1 X97.843 Y74.602 E.01869
G1 X97.433 Y74.152 E.01869
G1 X96.938 Y73.798 E.01869
G1 X96.381 Y73.554 E.0187
G1 X95.785 Y73.432 E.01869
G1 X84.215 Y73.432 E.35549
G1 X83.582 Y73.566 E.0199
G1 X83.028 Y73.818 E.01869
G1 X82.538 Y74.179 E.01869
G1 X82.146 Y74.617 E.01807
G1 X71.399 Y90.592 E.5916
M204 P1000
G1 X71.191 Y90.282 F9000
G1 E-2.24 F4200
;WIPE_START
G1 F7200
G1 X71.018 Y90.406 E-.23508
G1 X70.733 Y90.107 E-.22903
G1 X70.512 Y89.753 E-.23107
G1 X70.375 Y89.387 E-.21682
;WIPE_END
G1 E-.048 F4200
G1 Z.4 F720
G1 X108.943 Y108.543 F9000
G1 Z.2 F720
G1 E3.2 F2400
M204 P800
;TYPE:Perimeter
;WIDTH:0.382954
G1 F1200
G1 X108.33 Y106.549 E.0578
M204 P1000
G1 E-2.24 F4200
;WIPE_START
G1 F7200
G1 X108.814 Y108.122 E-.912
;WIPE_END
G1 E-.048 F4200
G1 Z.4 F720
G1 X97.042 Y71.227 F9000
G1 Z.2 F720
G1 E3.2 F2400
M204 P800
;TYPE:Solid infill
;WIDTH:0.420226
G1 F1200
G1 X96.09 Y70.275 E.04137
G1 X95.557 Y70.275 E.01641
G1 X97.028 Y71.746 E.06396
G1 X97.273 Y72.525 E.02512
G1 X95.023 Y70.275 E.09784
G1 X94.49 Y70.275 E.01641
G1 X96.83 Y72.615 E.10176
G1 X96.601 Y72.541 E.0074
G1 X96.12 Y72.439 E.01513
G1 X93.956 Y70.275 E.09408
G1 X93.422 Y70.275 E.01641
G1 X95.542 Y72.395 E.09217
G1 X95.009 Y72.395 E.01641
G1 X92.889 Y70.275 E.09217
G1 X92.355 Y70.275 E.01641
G1 X94.475 Y72.395 E.09217
G1 X93.941 Y72.395 E.01641
G1 X91.822 Y70.275 E.09217
G1 X91.288 Y70.275 E.01641
G1 X93.408 Y72.395 E.09217
G1 X92.874 Y72.395 E.01641
G1 X90.754 Y70.275 E.09217
G1 X90.221 Y70.275 E.01641
G1 X92.341 Y72.395 E.09217
G1 X91.807 Y72.395 E.01641
G1 X89.687 Y70.275 E.09217
G1 X89.154 Y70.275 E.01641
G1 X91.273 Y72.395 E.09217
G1 X90.74 Y72.395 E.01641
G1 X88.62 Y70.275 E.09217
G1 X88.086 Y70.275 E.01641
G1 X90.206 Y72.395 E.09217
G1 X89.673 Y72.395 E.01641
G1 X87.553 Y70.275 E.09217
G1 X87.019 Y70.275 E.01641
G1 X89.139 Y72.395 E.09217
G1 X88.605 Y72.395 E.01641
G1 X86.486 Y70.275 E.09217
G1 X85.952 Y70.275 E.01641
G1 X88.072 Y72.395 E.09217
G1 X87.538 Y72.395 E.01641
G1 X85.418 Y70.275 E.09217
G1 X84.885 Y70.275 E.01641
G1 X87.005 Y72.395 E.09217
G1 X86.471 Y72.395 E.01641
G1 X84.351 Y70.275 E.09217
G1 X83.818 Y70.275 E.01641
G1 X85.937 Y72.395 E.09217
G1 X85.404 Y72.395 E.01641
G1 X83.284 Y70.275 E.09217
G1 X83.161 Y70.275 E.00378
G1 X83 Y70.524 E.00912
G1 X84.87 Y72.395 E.08134
G1 X84.337 Y72.395 E.01641
G1 X82.79 Y70.848 E.06727
G1 X82.58 Y71.171 E.01186
G1 X83.853 Y72.444 E.05536
G1 X83.413 Y72.538 E.01383
G1 X82.37 Y71.495 E.04536
G1 X82.16 Y71.818 E.01186
G1 X83.022 Y72.681 E.03749
G1 X82.653 Y72.845 E.01243
G1 X81.95 Y72.142 E.03057
G1 X81.74 Y72.466 E.01186
G1 X82.322 Y73.048 E.02534
G1 X82.013 Y73.273 E.01175
G1 X81.53 Y72.789 E.02103
G1 X81.32 Y73.113 E.01186
G1 X81.732 Y73.525 E.01793
G1 X81.483 Y73.81 E.01163
G1 X81.11 Y73.437 E.01624
G1 X80.9 Y73.76 E.01186
G1 X81.242 Y74.103 E.01488
G1 X81.028 Y74.422 E.01182
G1 X80.69 Y74.084 E.01468
G1 X80.48 Y74.407 E.01186
G1 X80.813 Y74.741 E.01448
G1 X80.598 Y75.06 E.01182
G1 X80.27 Y74.731 E.01428
G1 X80.06 Y75.055 E.01186
G1 X80.384 Y75.379 E.01408
G1 X80.169 Y75.698 E.01182
G1 X79.85 Y75.378 E.01388
G1 X79.64 Y75.702 E.01186
G1 X79.955 Y76.017 E.01368
G1 X79.74 Y76.336 E.01182
G1 X79.43 Y76.026 E.01348
G1 X79.22 Y76.349 E.01186
G1 X79.525 Y76.654 E.01327
G1 X79.311 Y76.973 E.01182
G1 X79.01 Y76.673 E.01307
G1 X78.8 Y76.996 E.01186
G1 X79.096 Y77.292 E.01287
G1 X78.882 Y77.611 E.01182
G1 X78.59 Y77.32 E.01267
G1 X78.38 Y77.644 E.01186
G1 X78.667 Y77.93 E.01247
G1 X78.452 Y78.249 E.01182
G1 X78.17 Y77.967 E.01227
G1 X77.96 Y78.291 E.01186
G1 X78.238 Y78.568 E.01207
G1 X78.023 Y78.887 E.01182
G1 X77.75 Y78.615 E.01187
G1 X77.54 Y78.938 E.01186
G1 X77.809 Y79.206 E.01167
G1 X77.594 Y79.525 E.01182
G1 X77.33 Y79.262 E.01146
G1 X77.12 Y79.585 E.01186
G1 X77.379 Y79.844 E.01126
G1 X77.165 Y80.163 E.01182
G1 X76.91 Y79.909 E.01106
G1 X76.701 Y80.233 E.01186
G1 X76.95 Y80.482 E.01086
G1 X76.736 Y80.801 E.01182
G1 X76.491 Y80.556 E.01066
G1 X76.281 Y80.88 E.01186
G1 X76.521 Y81.12 E.01046
G1 X76.306 Y81.439 E.01182
G1 X76.071 Y81.204 E.01026
M73 P2 R42
G1 X75.861 Y81.527 E.01186
G1 X76.092 Y81.758 E.01006
G1 X75.877 Y82.077 E.01182
G1 X75.651 Y81.851 E.00985
G1 X75.441 Y82.174 E.01186
G1 X75.663 Y82.396 E.00965
G1 X75.448 Y82.715 E.01182
G1 X75.231 Y82.498 E.00945
G1 X75.021 Y82.822 E.01186
G1 X75.234 Y83.034 E.00925
G1 X75.019 Y83.353 E.01182
G1 X74.811 Y83.145 E.00905
G1 X74.601 Y83.469 E.01186
G1 X74.804 Y83.672 E.00885
G1 X74.59 Y83.991 E.01182
G1 X74.391 Y83.793 E.00865
G1 X74.181 Y84.116 E.01186
G1 X74.375 Y84.31 E.00845
G1 X74.161 Y84.629 E.01182
G1 X73.971 Y84.44 E.00824
G1 X73.761 Y84.763 E.01186
G1 X73.946 Y84.948 E.00804
G1 X73.731 Y85.267 E.01182
G1 X73.551 Y85.087 E.00784
G1 X73.341 Y85.411 E.01186
G1 X73.517 Y85.586 E.00764
G1 X73.302 Y85.905 E.01182
G1 X73.131 Y85.734 E.00744
G1 X72.921 Y86.058 E.01186
G1 X73.088 Y86.224 E.00724
G1 X72.873 Y86.543 E.01182
G1 X72.711 Y86.382 E.00704
G1 X72.501 Y86.705 E.01186
G1 X72.658 Y86.862 E.00684
G1 X72.444 Y87.181 E.01182
G1 X72.291 Y87.029 E.00663
G1 X72.081 Y87.352 E.01186
G1 X72.229 Y87.5 E.00643
G1 X72.015 Y87.819 E.01182
G1 X71.871 Y87.676 E.00623
G1 X71.683 Y87.966 E.01063
G1 X71.677 Y88.015 E.00152
G1 X71.9 Y88.238 E.0097
M204 P1000
; stop printing object  id:0 copy 0
M106 S84.15
;LAYER_CHANGE
;Z:0.4
;HEIGHT:0.2
;BEFORE_LAYER_CHANGE
G92 E0.0
;0.4


G1 E-2.24 F4200
;WIPE_START
G1 F7200
G1 X71.677 Y88.015 E-.17482
G1 X71.683 Y87.966 E-.0274
G1 X71.871 Y87.676 E-.19167
G1 X72.015 Y87.819 E-.11233
G1 X72.229 Y87.5 E-.21306
G1 X72.081 Y87.352 E-.11596
G1 X72.157 Y87.236 E-.07677
;WIPE_END
G1 E-.048 F4200
G1 Z.4 F720
;AFTER_LAYER_CHANGE
;0.4
M104 S213 ; set temperature
G1 Z.6
G1 X68.951 Y85.157 F9000
G1 Z.4 F720
G1 E3.2 F2400
;TYPE:Skirt/Brim
;WIDTH:0.42
G1 X80.381 Y67.534 E.64543
G1 X81.421 Y66.651 E.04193
G1 X82.375 Y66.451 E.02996
G1 X97.625 Y66.451 E.46859
G1 X98.932 Y66.843 E.04193
G1 X99.892 Y68.113 E.04894
G1 X112.338 Y107.594 E1.27196
G1 X112.489 Y108.58 E.03066
G1 X112.434 Y109.596 E.03128
G1 X112.331 Y110.082 E.01528
G1 X111.967 Y111.033 E.03129
G1 X111.706 Y111.486 E.01606
G1 X111.064 Y112.276 E.03128
G1 X110.272 Y112.916 E.03128
G1 X109.494 Y113.32 E.02693
G1 X108.141 Y113.493 E.04193
G1 X107.4 Y113.241 E.02405
G1 X70.313 Y93.265 E1.29437
G1 X69.305 Y92.609 E.03696
G1 X68.586 Y91.888 E.03129
G1 X68.033 Y91.033 E.03128
G1 X67.669 Y90.082 E.03129
G1 X67.511 Y89.076 E.03129
G1 X67.566 Y88.06 E.03128
G1 X67.829 Y87.081 E.03113
G1 X68.287 Y86.182 E.03103
G1 X68.919 Y85.208 E.03566
; printing object  id:0 copy 0
G1 E-2.24 F4200
;WIPE_START
G1 F7200
G1 X69.814 Y83.827 E-.912
;WIPE_END
G1 E-.048 F4200
G1 Z.6 F720
G1 X108.767 Y107.972 F9000
G1 Z.4 F720
G1 E3.2 F2400
M204 P800
;TYPE:Perimeter
;WIDTH:0.655306
G1 F1500
G1 X108.805 Y108.02 E.00305
;WIDTH:0.611968
G1 X108.843 Y108.068 E.00283
;WIDTH:0.568629
G1 X108.881 Y108.116 E.00262
;WIDTH:0.52529
G1 X108.919 Y108.164 E.0024
;WIDTH:0.481952
G1 X108.957 Y108.212 E.00219
;WIDTH:0.438613
G1 X108.994 Y108.26 E.00197
;WIDTH:0.395274
G1 X109.032 Y108.308 E.00175
;WIDTH:0.353321
G1 X109.127 Y108.815 E.01303
G1 X109.097 Y109.133 E.0081
G1 X109.025 Y109.358 E.00597
G1 X108.737 Y108.399 E.02533
;WIDTH:0.395274
G1 X108.741 Y108.338 E.00175
;WIDTH:0.438613
G1 X108.746 Y108.277 E.00197
;WIDTH:0.481952
G1 X108.75 Y108.216 E.00219
;WIDTH:0.52529
G1 X108.754 Y108.155 E.0024
;WIDTH:0.568629
G1 X108.759 Y108.094 E.00262
;WIDTH:0.611968
G1 X108.763 Y108.033 E.00283
;WIDTH:0.655306
G1 X108.763 Y108.032 E.00006
M204 P1000
G1 E-2.24 F4200
;WIPE_START
G1 F7200
G1 X108.805 Y108.02 E-.02425
G1 X108.843 Y108.068 E-.03387
G1 X108.881 Y108.116 E-.03387
G1 X108.919 Y108.164 E-.03387
G1 X108.957 Y108.212 E-.03387
G1 X108.994 Y108.26 E-.03387
G1 X109.032 Y108.308 E-.03387
G1 X109.127 Y108.815 E-.28553
G1 X109.097 Y109.133 E-.1775
G1 X109.025 Y109.358 E-.13073
G1 X108.978 Y109.201 E-.09079
;WIPE_END
G1 E-.048 F4200
G1 Z.6 F720
G1 X71.229 Y89.718 F9000
G1 Z.4 F720
G1 E3.2 F2400
M204 P800
;WIDTH:0.449999
G1 F3000
G1 X71.057 Y89.439 E.01089
G1 X70.962 Y89.163 E.00965
G1 X70.924 Y88.871 E.00978
G1 X70.947 Y88.574 E.00988
G1 X71.03 Y88.285 E.00996
G1 X71.239 Y87.901 E.01451
G1 X82.94 Y69.867 E.71311
G1 X96.863 Y69.867 E.46187
G1 X98.176 Y74.031 E.14481
G1 X97.785 Y73.631 E.01853
G1 X97.175 Y73.215 E.02452
G1 X96.491 Y72.934 E.02452
G1 X95.764 Y72.803 E.02452
G1 X84.236 Y72.803 E.38238
G1 X84.025 Y72.825 E.00706
G1 X83.307 Y73 E.02452
G1 X82.641 Y73.321 E.02452
G1 X82.056 Y73.773 E.02452
G1 X81.616 Y74.277 E.0222
G1 X71.262 Y89.668 E.61531
M204 P1000
G1 X71.301 Y90.34 F9000
M204 P800
G1 F3000
G1 X71.143 Y90.225 E.00647
G1 X70.898 Y89.958 E.01204
G1 X70.704 Y89.642 E.0123
G1 X70.575 Y89.289 E.01247
G1 X70.52 Y88.913 E.0126
G1 X70.542 Y88.531 E.0127
G1 X70.642 Y88.16 E.01278
G1 X70.892 Y87.689 E.01767
G1 X82.718 Y69.46 E.72079
G1 X97.162 Y69.46 E.4791
G1 X98.678 Y74.272 E.16737
;WIDTH:0.481603
G1 X98.773 Y74.626 E.0131
;WIDTH:0.513206
G1 X98.868 Y74.98 E.01404
;WIDTH:0.558152
G1 X100.762 Y81.063 E.26747
;WIDTH:0.603097
G1 X102.656 Y87.145 E.2908
G1 X102.705 Y87.235 E.00465
;WIDTH:0.564823
G1 X102.753 Y87.325 E.00433
;WIDTH:0.526548
G1 X102.801 Y87.414 E.00401
;WIDTH:0.488274
G1 X102.849 Y87.504 E.00369
;WIDTH:0.449999
G1 X109.433 Y108.388 E.72638
G1 X109.484 Y108.777 E.01301
G1 X109.453 Y109.171 E.0131
G1 X109.339 Y109.553 E.01324
G1 X109.143 Y109.907 E.01342
G1 X108.898 Y110.185 E.01228
G1 X102.162 Y87.715 E.77813
;WIDTH:0.488274
G1 X102.152 Y87.614 E.00369
;WIDTH:0.526548
G1 X102.142 Y87.513 E.00401
;WIDTH:0.564823
G1 X102.131 Y87.411 E.00433
;WIDTH:0.603097
G1 X102.121 Y87.31 E.00465
G1 X100.27 Y81.214 E.2908
;WIDTH:0.558152
G1 X98.419 Y75.118 E.26747
;WIDTH:0.513206
G1 X98.36 Y74.982 E.00571
;WIDTH:0.512864
G1 X98.177 Y74.709 E.01256
;WIDTH:0.481432
G1 X97.994 Y74.437 E.01172
;WIDTH:0.449999
G1 X97.546 Y73.96 E.0217
G1 X97.009 Y73.586 E.0217
G1 X96.406 Y73.333 E.0217
G1 X95.769 Y73.21 E.02152
G1 X84.236 Y73.21 E.38256
G1 X84.109 Y73.223 E.00423
G1 X83.472 Y73.372 E.0217
G1 X82.88 Y73.65 E.0217
