; generated by PrusaSlicer 2.6.0-alpha0 on 2023-03-02 at 16:16:50 UTC

; 
;

; 
;

; 
;

; 

; external perimeters extrusion width = 0.45mm
; perimeters extrusion width = 0.45mm
; infill extrusion width = 0.45mm
; solid infill extrusion width = 0.45mm
; top infill extrusion width = 0.40mm
; support material extrusion width = 0.35mm
; first layer extrusion width = 0.42mm

M73 P0 R151
M201 X2500 Y2500 Z400 E5000 ; sets maximum accelerations, mm/sec^2
M203 X180 Y180 Z12 E80 ; sets maximum feedrates, mm / sec
M204 P1250 R1250 T2500 ; sets acceleration (P, T) and retract acceleration (R), mm/sec^2
M205 X8.00 Y8.00 Z2.00 E10.00 ; sets the jerk limits, mm/sec
M205 S0 T0 ; sets the minimum extruding and travel feed rate, mm/sec
M107
;TYPE:Custom
M862.3 P "MINI" ; printer model check
G90 ; use absolute coordinates
M83 ; extruder relative mode
M104 S170 ; set extruder temp for bed leveling
M140 S60 ; set bed temp
M109 R170 ; wait for bed leveling temp
M190 S60 ; wait for bed temp
M204 T1250 ; set travel acceleration
G28 ; home all without mesh bed level
G29 ; mesh bed leveling 
M204 T2500 ; restore travel acceleration
M104 S215 ; set extruder temp
G92 E0
G1 Y-2 X179 F2400
G1 Z3 F720
M109 S215 ; wait for extruder temp

; intro line
G1 X170 F1000
G1 Z0.2 F720
G1 X110 E8 F900
G1 X40 E10 F700
G92 E0

M221 S95 ; set flow
G21 ; set units to millimeters
G90 ; use absolute coordinates
M83 ; use relative distances for extrusion
M900 K0.05 ; Filament gcode LA 1.5
M900 K30 ; Filament gcode LA 1.0
M107
;LAYER_CHANGE
;Z:0.25
;HEIGHT:0.25
;BEFORE_LAYER_CHANGE
G92 E0.0
;0.25


G1 E-3.2 F4200
G1 Z.2 F720
G1 Z.25
;AFTER_LAYER_CHANGE
;0.25
G1 Z.45
G1 X56.545 Y56.545 F9000
G1 Z.25 F720
G1 E3.2 F2400
M204 P800
;TYPE:Skirt/Brim
;WIDTH:0.42
G1 F1200
G1 X62.313 Y50.777 E.3572
G1 X62.928 Y50.334 E.03319
G1 X67.542 Y48.027 E.22589
G1 X68.575 Y47.777 E.04654
G1 X82.176 Y47.634 E.59561
G1 X97.965 Y47.634 E.69139
G1 X111.425 Y47.777 E.58944
G1 X112.458 Y48.027 E.04654
G1 X117.073 Y50.334 E.22593
G1 X117.688 Y50.777 E.03319
G1 X129.223 Y62.313 E.71436
G1 X129.666 Y62.928 E.03319
G1 X134.28 Y72.156 E.45178
G1 X134.53 Y73.214 E.0476
G1 X134.53 Y106.786 E1.47009
G1 X134.28 Y107.844 E.0476
G1 X129.666 Y117.073 E.45182
G1 X129.223 Y117.688 E.03319
G1 X117.688 Y129.223 E.71433
G1 X117.073 Y129.666 E.03319
G1 X107.844 Y134.28 E.45182
G1 X106.786 Y134.53 E.0476
G1 X73.214 Y134.53 E1.47009
G1 X72.156 Y134.28 E.0476
G1 X62.928 Y129.666 E.45178
G1 X62.313 Y129.223 E.03319
G1 X50.777 Y117.688 E.71436
G1 X50.334 Y117.073 E.03319
G1 X45.72 Y107.844 E.45182
G1 X45.47 Y106.786 E.0476
G1 X45.47 Y73.214 E1.47009
G1 X45.72 Y72.156 E.0476
G1 X50.334 Y62.928 E.45178
G1 X50.777 Y62.313 E.03319
G1 X56.502 Y56.587 E.35457
M204 P1000
; printing object 0 id:0 copy 0
G1 X81.408 Y50.179 F9000
M204 P800
;TYPE:Support material
G1 F1200
G1 X80.769 Y50.956 E.04405
G1 X73.617 Y60.789 E.53243
G1 X73.062 Y61.748 E.04852
G1 X72.703 Y62.836 E.05017
G1 X72.578 Y63.987 E.0507
G1 X72.578 Y78.013 E.61419
G1 X72.702 Y79.158 E.05043
G1 X76.884 Y92.845 E.6267
G1 X77.754 Y95.506 E.12259
G1 X79.167 Y97.944 E.12339
G1 X81.02 Y100.001 E.12123
G1 X83.34 Y101.687 E.12558
G1 X85.869 Y102.812 E.12121
G1 X88.624 Y103.404 E.12339
G1 X91.492 Y103.404 E.12559
G1 X94.248 Y102.812 E.12344
G1 X96.776 Y101.687 E.12117
G1 X99.097 Y100.001 E.12562
G1 X100.979 Y97.903 E.12342
G1 X102.383 Y95.46 E.12339
G1 X103.233 Y92.845 E.12041
G1 X107.415 Y79.158 E.6267
G1 X107.538 Y78.013 E.05043
G1 X107.538 Y63.987 E.61419
G1 X107.413 Y62.836 E.0507
G1 X107.054 Y61.748 E.05017
G1 X106.499 Y60.789 E.04852
G1 X99.347 Y50.956 E.53243
G1 X98.679 Y50.143 E.04608
G1 X111.4 Y50.143 E.55704
G1 X111.4 Y52.45 E.10102
G1 X116.014 Y52.45 E.20204
G1 X116.014 Y54.757 E.10102
G1 X118.321 Y54.757 E.10102
G1 X118.321 Y57.065 E.10107
G1 X120.628 Y57.065 E.10102
G1 X120.628 Y59.372 E.10102
G1 X122.935 Y59.372 E.10102
G1 X122.935 Y61.679 E.10102
G1 X125.243 Y61.679 E.10107
G1 X125.243 Y63.986 E.10102
G1 X127.55 Y63.986 E.10102
G1 X127.55 Y68.6 E.20204
G1 X129.857 Y68.6 E.10102
G1 X129.857 Y73.214 E.20204
G1 X132.164 Y73.214 E.10102
G1 X132.164 Y106.786 E1.47009
G1 X129.857 Y106.786 E.10102
G1 X129.857 Y111.4 E.20204
G1 X127.55 Y111.4 E.10102
G1 X127.55 Y116.014 E.20204
G1 X125.243 Y116.014 E.10102
G1 X125.243 Y118.321 E.10102
G1 X122.935 Y118.321 E.10107
G1 X122.935 Y120.628 E.10102
G1 X120.628 Y120.628 E.10102
G1 X120.628 Y122.935 E.10102
G1 X118.321 Y122.935 E.10102
G1 X118.321 Y125.243 E.10107
G1 X116.014 Y125.243 E.10102
G1 X116.014 Y127.55 E.10102
G1 X111.4 Y127.55 E.20204
G1 X111.4 Y129.857 E.10102
G1 X106.786 Y129.857 E.20204
G1 X106.786 Y132.164 E.10102
G1 X73.214 Y132.164 E1.47009
G1 X73.214 Y129.857 E.10102
G1 X68.6 Y129.857 E.20204
G1 X68.6 Y127.55 E.10102
G1 X63.986 Y127.55 E.20204
G1 X63.986 Y125.243 E.10102
G1 X61.679 Y125.243 E.10102
G1 X61.679 Y122.935 E.10107
G1 X59.372 Y122.935 E.10102
G1 X59.372 Y120.628 E.10102
G1 X57.065 Y120.628 E.10102
G1 X57.065 Y118.321 E.10102
G1 X54.757 Y118.321 E.10107
G1 X54.757 Y116.014 E.10102
G1 X52.45 Y116.014 E.10102
G1 X52.45 Y111.4 E.20204
G1 X50.143 Y111.4 E.10102
G1 X50.143 Y106.786 E.20204
G1 X47.836 Y106.786 E.10102
G1 X47.836 Y73.214 E1.47009
G1 X50.143 Y73.214 E.10102
M73 P0 R150
G1 X50.143 Y68.6 E.20204
G1 X52.45 Y68.6 E.10102
G1 X52.45 Y63.986 E.20204
G1 X54.757 Y63.986 E.10102
G1 X54.757 Y61.679 E.10102
G1 X57.065 Y61.679 E.10107
G1 X57.065 Y59.372 E.10102
G1 X59.372 Y59.372 E.10102
G1 X59.372 Y57.065 E.10102
G1 X61.679 Y57.065 E.10102
G1 X61.679 Y54.757 E.10107
G1 X63.986 Y54.757 E.10102
G1 X63.986 Y52.45 E.10102
G1 X68.6 Y52.45 E.20204
G1 X68.6 Y50.143 E.10102
G1 X81.388 Y50.143 E.55998
M204 P1000
G1 X131.52 Y106.621 F9000
M204 P800
G1 F1200
G1 X131.52 Y73.544 E1.44842
G1 X131.113 Y73.544 E.01782
G1 X131.113 Y106.456 E1.44119
G1 X130.705 Y106.456 E.01787
G1 X130.706 Y73.544 E1.44119
G1 X130.298 Y73.544 E.01787
G1 X130.298 Y106.456 E1.44119
G1 X129.891 Y106.456 E.01782
G1 X129.891 Y73.544 E1.44119
G1 X129.527 Y73.544 E.01594
G1 X129.527 Y68.93 E.20204
G1 X129.484 Y68.93 E.00188
G1 X129.484 Y111.07 E1.84528
G1 X129.077 Y111.07 E.01782
G1 X129.077 Y68.93 E1.84528
G1 X128.67 Y68.93 E.01782
G1 X128.67 Y111.07 E1.84528
G1 X128.263 Y111.07 E.01782
G1 X128.263 Y68.93 E1.84528
G1 X127.856 Y68.93 E.01782
G1 X127.856 Y111.07 E1.84528
G1 X127.449 Y111.07 E.01782
G1 X127.449 Y68.93 E1.84528
G1 X127.22 Y68.93 E.01003
G1 X127.22 Y64.315 E.20209
G1 X127.042 Y64.315 E.00779
G1 X127.042 Y115.685 E2.24945
G1 X126.635 Y115.685 E.01782
G1 X126.635 Y64.315 E2.24945
G1 X126.228 Y64.315 E.01782
G1 X126.228 Y115.685 E2.24945
G1 X125.821 Y115.685 E.01782
G1 X125.821 Y64.315 E2.24945
G1 X125.414 Y64.315 E.01782
G1 X125.414 Y115.685 E2.24945
G1 X125.007 Y115.685 E.01782
G1 X125.007 Y64.315 E2.24945
G1 X124.913 Y64.315 E.00412
M73 P1 R150
G1 X124.913 Y62.008 E.10102
G1 X124.6 Y62.008 E.01371
G1 X124.6 Y117.992 E2.4515
G1 X124.193 Y117.992 E.01782
G1 X124.193 Y62.008 E2.4515
G1 X123.786 Y62.008 E.01782
G1 X123.786 Y117.992 E2.4515
G1 X123.379 Y117.992 E.01782
G1 X123.379 Y62.008 E2.4515
G1 X122.971 Y62.008 E.01787
G1 X122.971 Y117.992 E2.4515
G1 X122.606 Y117.992 E.01598
G1 X122.606 Y120.299 E.10102
G1 X122.564 Y120.299 E.00184
G1 X122.564 Y59.701 E2.65354
G1 X122.157 Y59.701 E.01782
G1 X122.157 Y120.299 E2.65354
G1 X121.75 Y120.299 E.01782
M73 P1 R149
G1 X121.75 Y59.701 E2.65354
G1 X121.343 Y59.701 E.01782
G1 X121.343 Y120.299 E2.65354
G1 X120.936 Y120.299 E.01782
G1 X120.936 Y59.701 E2.65354
G1 X120.529 Y59.701 E.01782
G1 X120.529 Y120.299 E2.65354
G1 X120.299 Y120.299 E.01007
G1 X120.299 Y122.606 E.10102
G1 X120.122 Y122.606 E.00775
G1 X120.122 Y57.394 E2.85558
G1 X119.715 Y57.394 E.01782
G1 X119.715 Y122.606 E2.85558
G1 X119.308 Y122.606 E.01782
G1 X119.308 Y57.394 E2.85558
G1 X118.901 Y57.394 E.01782
G1 X118.901 Y122.606 E2.85558
G1 X118.494 Y122.606 E.01782
G1 X118.494 Y57.394 E2.85558
G1 X118.087 Y57.394 E.01782
G1 X118.087 Y122.606 E2.85558
G1 X117.992 Y122.606 E.00416
G1 X117.992 Y124.913 E.10102
G1 X117.68 Y124.913 E.01366
G1 X117.68 Y55.087 E3.05763
G1 X117.273 Y55.087 E.01782
G1 X117.273 Y124.913 E3.05763
G1 X116.866 Y124.913 E.01782
G1 X116.866 Y55.087 E3.05763
G1 X116.459 Y55.087 E.01782
G1 X116.459 Y124.913 E3.05763
G1 X116.052 Y124.913 E.01782
G1 X116.052 Y55.087 E3.05763
G1 X115.685 Y55.087 E.01607
G1 X115.685 Y52.78 E.10102
G1 X115.644 Y52.78 E.0018
G1 X115.644 Y127.22 E3.25967
G1 X115.237 Y127.22 E.01782
G1 X115.237 Y52.78 E3.25967
G1 X114.83 Y52.78 E.01782
M73 P1 R148
G1 X114.83 Y127.22 E3.25967
G1 X114.423 Y127.22 E.01782
G1 X114.423 Y52.78 E3.25967
G1 X114.016 Y52.78 E.01782
G1 X114.016 Y127.22 E3.25967
G1 X113.609 Y127.22 E.01782
G1 X113.609 Y52.78 E3.25967
G1 X113.202 Y52.78 E.01782
M73 P2 R148
G1 X113.202 Y127.22 E3.25967
G1 X112.795 Y127.22 E.01782
G1 X112.795 Y52.78 E3.25967
G1 X112.388 Y52.78 E.01782
G1 X112.388 Y127.22 E3.25967
G1 X111.981 Y127.22 E.01782
G1 X111.981 Y52.78 E3.25967
G1 X111.574 Y52.78 E.01782
G1 X111.574 Y127.22 E3.25967
G1 X111.167 Y127.22 E.01782
G1 X111.167 Y52.78 E3.25967
G1 X111.07 Y52.78 E.00425
G1 X111.07 Y50.473 E.10102
G1 X110.76 Y50.473 E.01357
G1 X110.76 Y129.527 E3.46172
G1 X110.353 Y129.527 E.01782
G1 X110.353 Y50.473 E3.46172
G1 X109.946 Y50.473 E.01782
G1 X109.946 Y129.527 E3.46172
G1 X109.539 Y129.527 E.01782
G1 X109.539 Y50.473 E3.46172
G1 X109.132 Y50.473 E.01782
G1 X109.132 Y129.527 E3.46172
G1 X108.725 Y129.527 E.01782
G1 X108.725 Y50.473 E3.46172
G1 X108.317 Y50.473 E.01787
M73 P2 R147
G1 X108.317 Y129.527 E3.46172
G1 X107.91 Y129.527 E.01782
G1 X107.91 Y50.473 E3.46172
G1 X107.503 Y50.473 E.01782
G1 X107.503 Y62.047 E.50682
G1 X107.348 Y61.598 E.0208
G1 X107.096 Y61.162 E.02205
G1 X107.096 Y50.473 E.46806
G1 X106.689 Y50.473 E.01782
G1 X106.689 Y60.49 E.43864
G1 X106.282 Y59.93 E.03031
G1 X106.282 Y50.473 E.41411
G1 X105.875 Y50.473 E.01782
G1 X105.875 Y59.371 E.38964
G1 X105.468 Y58.811 E.03031
G1 X105.468 Y50.473 E.36511
G1 X105.061 Y50.473 E.01782
G1 X105.061 Y58.252 E.34064
G1 X104.654 Y57.692 E.03031
G1 X104.654 Y50.473 E.31611
G1 X104.247 Y50.473 E.01782
G1 X104.247 Y57.132 E.29159
G1 X103.84 Y56.573 E.03028
G1 X103.84 Y50.473 E.26711
G1 X103.433 Y50.473 E.01782
G1 X103.433 Y56.013 E.24259
G1 X103.026 Y55.453 E.03031
G1 X103.026 Y50.473 E.21807
G1 X102.619 Y50.473 E.01782
G1 X102.619 Y54.894 E.19359
G1 X102.212 Y54.334 E.03031
G1 X102.212 Y50.473 E.16907
G1 X101.805 Y50.473 E.01782
G1 X101.805 Y53.774 E.14455
G1 X101.398 Y53.215 E.03028
G1 X101.398 Y50.473 E.12007
G1 X100.99 Y50.473 E.01787
G1 X100.99 Y52.655 E.09555
G1 X100.583 Y52.095 E.03031
G1 X100.583 Y50.473 E.07103
G1 X100.176 Y50.473 E.01782
G1 X100.176 Y51.536 E.04655
G1 X99.769 Y50.976 E.03031
G1 X99.769 Y50.308 E.02925
M204 P1000
G1 X107.503 Y129.692 F9000
M204 P800
G1 F1200
G1 X107.503 Y79.996 E2.17615
G1 X107.096 Y81.328 E.06099
G1 X107.096 Y129.527 E2.1106
G1 X106.689 Y129.527 E.01782
G1 X106.689 Y82.66 E2.05227
G1 X106.282 Y83.993 E.06103
G1 X106.282 Y131.834 E2.09492
G1 X105.875 Y131.834 E.01782
G1 X105.875 Y85.325 E2.03659
G1 X105.468 Y86.657 E.06099
G1 X105.468 Y131.834 E1.97827
G1 X105.061 Y131.834 E.01782
G1 X105.061 Y87.989 E1.91994
G1 X104.654 Y89.321 E.06099
G1 X104.654 Y131.834 E1.86161
G1 X104.247 Y131.834 E.01782
G1 X104.247 Y90.654 E1.80324
G1 X103.84 Y91.986 E.06099
G1 X103.84 Y131.834 E1.74491
G1 X103.433 Y131.834 E.01782
G1 X103.433 Y93.296 E1.68755
G1 X103.026 Y94.549 E.05769
G1 X103.026 Y131.834 E1.63268
G1 X102.619 Y131.834 E.01782
M73 P3 R147
G1 X102.619 Y95.722 E1.58132
G1 X102.212 Y96.427 E.03565
G1 X102.212 Y131.834 E1.55045
G1 X101.805 Y131.834 E.01782
G1 X101.805 Y97.132 E1.51957
G1 X101.398 Y97.837 E.03565
G1 X101.398 Y131.834 E1.4887
G1 X100.99 Y131.834 E.01787
G1 X100.99 Y98.39 E1.46449
G1 X100.583 Y98.842 E.02663
G1 X100.583 Y131.834 E1.44469
G1 X100.176 Y131.834 E.01782
G1 X100.176 Y99.294 E1.4249
G1 X99.769 Y99.747 E.02667
G1 X99.769 Y131.834 E1.40507
G1 X99.362 Y131.834 E.01782
G1 X99.362 Y100.199 E1.38527
G1 X99.267 Y100.291 E.00579
G1 X98.955 Y100.518 E.0169
G1 X98.955 Y131.834 E1.3713
G1 X98.548 Y131.834 E.01782
M73 P3 R146
G1 X98.548 Y100.813 E1.35839
G1 X98.141 Y101.109 E.02204
G1 X98.141 Y131.834 E1.34542
G1 X97.734 Y131.834 E.01782
G1 X97.734 Y101.405 E1.33246
G1 X97.327 Y101.701 E.02204
G1 X97.327 Y131.834 E1.3195
G1 X96.92 Y131.834 E.01782
G1 X96.92 Y101.984 E1.30711
G1 X96.513 Y102.165 E.01951
G1 X96.513 Y131.834 E1.29918
G1 X96.106 Y131.834 E.01782
G1 X96.106 Y102.346 E1.29126
G1 X95.699 Y102.527 E.01951
G1 X95.699 Y131.834 E1.28333
G1 X95.292 Y131.834 E.01782
G1 X95.292 Y102.709 E1.27536
G1 X94.885 Y102.89 E.01951
G1 X94.885 Y131.834 E1.26744
G1 X94.478 Y131.834 E.01782
G1 X94.478 Y103.071 E1.25951
G1 X94.285 Y103.147 E.00908
G1 X94.071 Y103.193 E.00958
G1 X94.071 Y131.834 E1.25417
G1 X93.663 Y131.834 E.01787
G1 X93.663 Y103.279 E1.2504
G1 X93.256 Y103.366 E.01822
G1 X93.256 Y131.834 E1.24659
G1 X92.849 Y131.834 E.01782
G1 X92.849 Y103.452 E1.24283
G1 X92.442 Y103.539 E.01822
G1 X92.442 Y131.834 E1.23902
G1 X92.035 Y131.834 E.01782
G1 X92.035 Y103.625 E1.23525
G1 X91.628 Y103.712 E.01822
G1 X91.628 Y131.834 E1.23144
G1 X91.221 Y131.834 E.01782
G1 X91.221 Y103.739 E1.23026
G1 X90.814 Y103.739 E.01782
G1 X90.814 Y131.834 E1.23026
G1 X90.407 Y131.834 E.01782
G1 X90.407 Y103.739 E1.23026
G1 X90 Y103.739 E.01782
G1 X90 Y131.834 E1.23026
G1 X89.593 Y131.834 E.01782
G1 X89.593 Y103.739 E1.23026
G1 X89.186 Y103.739 E.01782
G1 X89.186 Y131.834 E1.23026
G1 X88.779 Y131.834 E.01782
G1 X88.779 Y103.739 E1.23026
G1 X88.572 Y103.73 E.00907
G1 X88.372 Y103.687 E.00896
G1 X88.372 Y131.834 E1.23254
G1 X87.965 Y131.834 E.01782
G1 X87.965 Y103.6 E1.23635
G1 X87.558 Y103.514 E.01822
G1 X87.558 Y131.834 E1.24011
G1 X87.151 Y131.834 E.01782
G1 X87.151 Y103.427 E1.24392
G1 X86.744 Y103.341 E.01822
G1 X86.744 Y131.834 E1.24769
G1 X86.337 Y131.834 E.01782
G1 X86.337 Y103.254 E1.2515
G1 X85.929 Y103.168 E.01826
G1 X85.929 Y131.834 E1.25526
G1 X85.522 Y131.834 E.01782
G1 X85.522 Y103.019 E1.26179
G1 X85.115 Y102.838 E.01951
G1 X85.115 Y131.834 E1.26971
G1 X84.708 Y131.834 E.01782
G1 X84.708 Y102.657 E1.27764
G1 X84.301 Y102.475 E.01952
G1 X84.301 Y131.834 E1.28561
G1 X83.894 Y131.834 E.01782
G1 X83.894 Y102.294 E1.29353
G1 X83.487 Y102.113 E.01951
G1 X83.487 Y131.834 E1.30146
G1 X83.08 Y131.834 E.01782
G1 X83.08 Y101.912 E1.31026
G1 X82.673 Y101.616 E.02204
G1 X82.673 Y131.834 E1.32322
G1 X82.266 Y131.834 E.01782
M73 P3 R145
G1 X82.266 Y101.32 E1.33619
G1 X81.859 Y101.025 E.02201
G1 X81.859 Y131.834 E1.3491
G1 X81.452 Y131.834 E.01782
G1 X81.452 Y100.729 E1.36206
G1 X81.045 Y100.433 E.02204
G1 X81.045 Y131.834 E1.37503
G1 X80.638 Y131.834 E.01782
G1 X80.638 Y100.069 E1.39097
G1 X80.231 Y99.617 E.02663
G1 X80.231 Y131.834 E1.41076
G1 X79.824 Y131.834 E.01782
G1 X79.824 Y99.165 E1.43055
G1 X79.417 Y98.713 E.02663
G1 X79.417 Y131.834 E1.45034
G1 X79.01 Y131.834 E.01782
G1 X79.01 Y98.261 E1.47014
G1 X78.861 Y98.083 E.01016
M73 P4 R145
G1 X78.602 Y97.635 E.02266
G1 X78.602 Y131.834 E1.49755
G1 X78.195 Y131.834 E.01782
G1 X78.195 Y96.93 E1.52842
G1 X77.788 Y96.225 E.03565
G1 X77.788 Y131.834 E1.55929
G1 X77.381 Y131.834 E.01782
G1 X77.381 Y95.443 E1.59353
G1 X76.974 Y94.19 E.05769
G1 X76.974 Y131.834 E1.6484
G1 X76.567 Y131.834 E.01782
G1 X76.567 Y92.937 E1.70327
G1 X76.16 Y91.605 E.06099
G1 X76.16 Y131.834 E1.7616
G1 X75.753 Y131.834 E.01782
G1 X75.753 Y90.273 E1.81992
G1 X75.346 Y88.94 E.06103
G1 X75.346 Y131.834 E1.8783
G1 X74.939 Y131.834 E.01782
G1 X74.939 Y87.608 E1.93662
G1 X74.532 Y86.276 E.06099
G1 X74.532 Y131.834 E1.99495
G1 X74.125 Y131.834 E.01782
G1 X74.125 Y84.944 E2.05328
G1 X73.718 Y83.612 E.06099
G1 X73.718 Y131.834 E2.11161
G1 X73.544 Y131.834 E.00762
G1 X73.544 Y129.527 E.10102
G1 X73.311 Y129.527 E.0102
G1 X73.311 Y82.279 E2.06895
G1 X72.904 Y80.947 E.06099
G1 X72.904 Y129.527 E2.12728
G1 X72.497 Y129.527 E.01782
G1 X72.497 Y79.615 E2.18561
G1 X72.366 Y79.163 E.02061
G1 X72.248 Y78.021 E.05027
G1 X72.248 Y63.979 E.61489
G1 X72.367 Y62.834 E.05041
G1 X72.497 Y62.405 E.01963
G1 X72.497 Y50.473 E.52249
