; generated by PrusaSlicer 2.5.0+linux-x64-GTK3 on 2023-03-10 at 21:50:37 UTC

; 
;

; 
;

; 
;

; 

; external perimeters extrusion width = 0.45mm
; perimeters extrusion width = 0.45mm
; infill extrusion width = 0.45mm
; solid infill extrusion width = 0.45mm
; top infill extrusion width = 0.40mm
; first layer extrusion width = 0.42mm

M73 P0 R29
M201 X2500 Y2500 Z400 E5000 ; sets maximum accelerations, mm/sec^2
M203 X180 Y180 Z12 E80 ; sets maximum feedrates, mm / sec
M204 P1250 R1250 T2500 ; sets acceleration (P, T) and retract acceleration (R), mm/sec^2
M205 X8.00 Y8.00 Z2.00 E10.00 ; sets the jerk limits, mm/sec
M205 S0 T0 ; sets the minimum extruding and travel feed rate, mm/sec
M107
;TYPE:Custom
M862.3 P "MINI" ; printer model check
G90 ; use absolute coordinates
M83 ; extruder relative mode
M104 S170 ; set extruder temp for bed leveling
M140 S60 ; set bed temp
M109 R170 ; wait for bed leveling temp
M190 S60 ; wait for bed temp
M204 T1250 ; set travel acceleration
G28 ; home all without mesh bed level
G29 ; mesh bed leveling 
M204 T2500 ; restore travel acceleration
M104 S215 ; set extruder temp
G92 E0
G1 Y-2 X179 F2400
G1 Z3 F720
M109 S215 ; wait for extruder temp

; intro line
G1 X170 F1000
G1 Z0.2 F720
G1 X110 E8 F900
G1 X40 E10 F700
G92 E0

M221 S95 ; set flow
G21 ; set units to millimeters
G90 ; use absolute coordinates
M83 ; use relative distances for extrusion
M900 K0.05 ; Filament gcode LA 1.5
M900 K30 ; Filament gcode LA 1.0
M107
;LAYER_CHANGE
;Z:0.2
;HEIGHT:0.2
;BEFORE_LAYER_CHANGE
G92 E0.0
;0.2


G1 E-3.2 F4200
G1 Z.2 F720
;AFTER_LAYER_CHANGE
;0.2
G1 Z.4
G1 X62.818 Y77.296 F9000
G1 Z.2 F720
G1 E3.2 F2400
M204 P800
;TYPE:Skirt/Brim
;WIDTH:0.42
G1 F1200
G1 X64.148 Y76.464 E.04823
G1 X65.452 Y76.006 E.04246
G1 X66.847 Y75.826 E.04321
G1 X113.316 Y75.831 E1.42786
G1 X114.531 Y76.002 E.03771
M73 P1 R29
G1 X115.578 Y76.342 E.0338
G1 X116.659 Y76.916 E.03763
G1 X117.529 Y77.595 E.03388
G1 X118.352 Y78.509 E.03781
G1 X118.933 Y79.44 E.03372
G1 X119.394 Y80.581 E.03781
G1 X119.653 Y81.943 E.04261
G1 X119.677 Y97.5 E.47803
G1 X119.599 Y98.512 E.03118
G1 X119.394 Y99.419 E.02859
G1 X119.132 Y100.14 E.02356
G1 X118.352 Y101.491 E.04794
G1 X117.744 Y102.197 E.02861
G1 X117.175 Y102.71 E.02355
G1 X115.852 Y103.536 E.04793
G1 X114.534 Y103.997 E.04289
G1 X113.15 Y104.174 E.04288
G1 X66.684 Y104.169 E1.42779
G1 X65.759 Y104.06 E.0286
G1 X65.015 Y103.874 E.02355
G1 X64.148 Y103.536 E.02861
G1 X63.336 Y103.081 E.0286
G1 X62.595 Y102.517 E.02863
G1 X61.94 Y101.855 E.02862
G1 X61.383 Y101.108 E.02862
G1 X60.935 Y100.291 E.02862
G1 X60.488 Y98.969 E.04289
G1 X60.324 Y97.583 E.04289
G1 X60.323 Y82.5 E.46346
G1 X60.378 Y81.653 E.02608
G1 X60.755 Y80.139 E.04795
G1 X61.143 Y79.297 E.02847
G1 X61.645 Y78.513 E.02862
G1 X62.138 Y77.925 E.02358
G1 X62.774 Y77.337 E.02659
M204 P1000
; printing object  id:0 copy 0
G1 E-2.24 F4200
;WIPE_START
G1 F7200
G1 X64.148 Y76.464 E-.90246
G1 X64.164 Y76.458 E-.00954
;WIPE_END
G1 E-.048 F4200
G1 Z.4 F720
G1 X66.635 Y94.399 F9000
G1 Z.2 F720
G1 E3.2 F2400
M204 P800
;TYPE:Perimeter
;WIDTH:0.416791
G1 F1200
G1 X66.891 Y94.365 E.00786
;WIDTH:0.431096
G1 X68.018 Y94.367 E.03565
;WIDTH:0.419999
G1 X111.772 Y94.367 E1.34443
;WIDTH:0.448553
G1 X112.398 Y94.381 E.02071
G1 X112.936 Y94.365 E.0178
;WIDTH:0.41645
G1 X113.497 Y94.419 E.01715
;WIDTH:0.41437
G1 X114.088 Y94.564 E.0184
;WIDTH:0.419212
G1 X114.566 Y94.789 E.0162
G1 X115.015 Y95.111 E.01696
;WIDTH:0.419813
G1 X115.391 Y95.476 E.01611
G1 X115.655 Y95.841 E.01383
;WIDTH:0.418794
G1 X115.898 Y96.331 E.01676
;WIDTH:0.411954
G1 X116.043 Y96.807 E.01495
;WIDTH:0.414197
G1 X116.129 Y97.399 E.01811
;WIDTH:0.415764
G1 X116.102 Y97.949 E.01673
G1 X115.973 Y98.464 E.01613
;WIDTH:0.411967
G1 X115.707 Y99.061 E.01965
;WIDTH:0.418781
G1 X115.398 Y99.513 E.01677
;WIDTH:0.4198
G1 X115.086 Y99.837 E.01382
G1 X114.667 Y100.145 E.01599
;WIDTH:0.41947
G1 X114.142 Y100.416 E.01811
G1 X113.63 Y100.566 E.01639
;WIDTH:0.41679
G1 X113.109 Y100.635 E.01599
;WIDTH:0.431098
G1 X111.982 Y100.633 E.03566
;WIDTH:0.419999
G1 X68.228 Y100.633 E1.34444
;WIDTH:0.448555
G1 X67.602 Y100.619 E.02071
G1 X66.911 Y100.632 E.02286
;WIDTH:0.41947
G1 X66.211 Y100.53 E.0217
G1 X65.704 Y100.342 E.01657
;WIDTH:0.414677
G1 X65.143 Y100.019 E.01962
G1 X64.749 Y99.674 E.01587
;WIDTH:0.415233
G1 X64.4 Y99.243 E.01684
G1 X64.138 Y98.774 E.01629
;WIDTH:0.415127
G1 X63.976 Y98.282 E.01571
;WIDTH:0.41983
G1 X63.876 Y97.732 E.01719
G1 X63.874 Y97.281 E.01384
G1 X63.914 Y96.978 E.0094
;WIDTH:0.419462
G1 X64.046 Y96.46 E.0164
G1 X64.203 Y96.12 E.01148
;WIDTH:0.412142
G1 X64.468 Y95.661 E.01595
;WIDTH:0.415213
G1 X64.832 Y95.242 E.01683
;WIDTH:0.415746
G1 X65.258 Y94.894 E.0167
G1 X65.755 Y94.635 E.01704
;WIDTH:0.414679
G1 X66.37 Y94.434 E.01961
;WIDTH:0.416791
G1 X66.575 Y94.407 E.0063
M204 P1000
G1 X66.585 Y94.028 F9000
M204 P800
;WIDTH:0.419999
G1 F1200
G1 X66.877 Y93.99 E.00905
G1 X113.103 Y93.99 E1.42037
G1 X113.703 Y94.074 E.01864
G1 X114.278 Y94.232 E.0183
G1 X114.747 Y94.455 E.01597
G1 X115.234 Y94.809 E.01851
G1 X115.662 Y95.214 E.01811
G1 X115.972 Y95.631 E.01596
G1 X116.298 Y96.3 E.02285
G1 X116.439 Y96.867 E.01796
G1 X116.502 Y97.373 E.01567
G1 X116.48 Y97.949 E.01773
G1 X116.377 Y98.458 E.01596
G1 X116.099 Y99.148 E.02285
G1 X115.683 Y99.764 E.02284
G1 X115.318 Y100.134 E.01595
G1 X114.842 Y100.474 E.018
G1 X114.259 Y100.774 E.02015
G1 X113.694 Y100.934 E.01802
G1 X113.123 Y101.01 E.01773
G1 X66.858 Y101.005 E1.42157
G1 X66.094 Y100.889 E.02374
G1 X65.53 Y100.671 E.01859
G1 X64.913 Y100.314 E.0219
G1 X64.426 Y99.877 E.0201
G1 X64.045 Y99.393 E.01893
M73 P2 R29
G1 X63.797 Y98.937 E.01596
G1 X63.622 Y98.397 E.01742
G1 X63.503 Y97.784 E.01919
G1 X63.497 Y97.255 E.01627
G1 X63.56 Y96.809 E.01382
G1 X63.698 Y96.308 E.01597
G1 X64.006 Y95.676 E.02163
G1 X64.31 Y95.243 E.01624
G1 X64.682 Y94.866 E.01627
G1 X65.138 Y94.53 E.01741
G1 X65.628 Y94.285 E.01682
G1 X66.306 Y94.066 E.02189
G1 X66.526 Y94.036 E.00683
M204 P1000
G1 X66.535 Y93.656 F9000
M204 P800
;TYPE:External perimeter
G1 F1200
G1 X66.864 Y93.613 E.01019
G1 X113.129 Y93.613 E1.42159
G1 X113.944 Y93.727 E.0253
G1 X114.457 Y93.894 E.01655
G1 X114.942 Y94.13 E.01659
G1 X115.605 Y94.612 E.02518
G1 X115.979 Y95 E.01657
G1 X116.297 Y95.436 E.01658
G1 X116.654 Y96.17 E.02508
G1 X116.852 Y96.962 E.02507
G1 X116.889 Y97.5 E.01657
G1 X116.852 Y98.041 E.01667
G1 X116.739 Y98.569 E.01658
G1 X116.471 Y99.234 E.02204
G1 X116.242 Y99.61 E.01352
G1 X115.92 Y100.062 E.01704
G1 X115.551 Y100.431 E.01605
G1 X115.019 Y100.807 E.02002
G1 X114.375 Y101.133 E.02216
G1 X113.76 Y101.306 E.01964
G1 X113.136 Y101.387 E.01934
G1 X66.871 Y101.387 E1.42159
G1 X66.056 Y101.273 E.02529
G1 X65.546 Y101.107 E.01648
G1 X64.823 Y100.722 E.02517
G1 X64.397 Y100.39 E.01658
G1 X64.021 Y100 E.01665
G1 X63.702 Y99.561 E.01668
G1 X63.448 Y99.085 E.01658
G1 X63.195 Y98.305 E.02517
G1 X63.12 Y97.771 E.01657
G1 X63.12 Y97.228 E.01669
G1 X63.186 Y96.757 E.01463
G1 X63.322 Y96.252 E.01606
G1 X63.496 Y95.862 E.01313
G1 X63.752 Y95.37 E.01704
G1 X64.066 Y94.953 E.01604
G1 X64.45 Y94.569 E.01667
G1 X64.95 Y94.204 E.01903
G1 X65.499 Y93.931 E.01883
G1 X66.24 Y93.694 E.02391
G1 X66.476 Y93.663 E.00731
M204 P1000
G1 X66.748 Y93.91 F9000
G1 E-2.24 F4200
;WIPE_START
G1 F7200
G1 X66.864 Y93.613 E-.21704
G1 X68.118 Y93.613 E-.69496
;WIPE_END
G1 E-.048 F4200
G1 Z.4 F720
G1 X64.515 Y96.33 F9000
G1 Z.2 F720
G1 E3.2 F2400
M204 P800
;TYPE:Perimeter
;WIDTH:0.418772
G1 F1200
G1 X64.676 Y96.017 E.0108
G1 X65.015 Y95.582 E.01687
;WIDTH:0.414371
G1 X65.402 Y95.249 E.01546
G1 X65.881 Y94.981 E.01661
G1 X66.396 Y94.807 E.01646
;WIDTH:0.416791
G1 X66.904 Y94.739 E.0156
;WIDTH:0.42438
G1 X67.577 Y94.798 E.021
G1 X68.125 Y94.979 E.01794
;WIDTH:0.419999
G1 X68.625 Y95.268 E.01774
G1 X69.032 Y95.628 E.01673
G1 X69.29 Y95.958 E.01287
G1 X69.561 Y96.468 E.01772
G1 X69.719 Y97.023 E.01774
G1 X69.759 Y97.599 E.01774
G1 X69.678 Y98.17 E.01774
G1 X69.481 Y98.712 E.01773
G1 X69.196 Y99.176 E.01673
G1 X68.916 Y99.488 E.01287
G1 X68.49 Y99.826 E.01671
G1 X68.121 Y100.023 E.01287
;WIDTH:0.451668
G1 X67.606 Y100.212 E.01825
G1 X67.064 Y100.261 E.01815
;WIDTH:0.416449
G1 X66.553 Y100.221 E.01558
;WIDTH:0.414693
G1 X66.059 Y100.093 E.01549
G1 X65.541 Y99.839 E.01746
;WIDTH:0.415241
G1 X65.085 Y99.486 E.01748
G1 X64.712 Y99.041 E.01765
G1 X64.444 Y98.531 E.01747
;WIDTH:0.41434
G1 X64.287 Y98.01 E.01647
;WIDTH:0.415214
G1 X64.243 Y97.598 E.01255
G1 X64.283 Y97.023 E.0175
;WIDTH:0.41471
G1 X64.443 Y96.469 E.01747
;WIDTH:0.418772
G1 X64.487 Y96.384 E.00294
M204 P1000
G1 X64.846 Y96.48 F9000
M204 P800
;WIDTH:0.419999
G1 F1200
G1 X65.093 Y96.066 E.01481
G1 X65.393 Y95.745 E.01352
G1 X65.698 Y95.5 E.01201
G1 X66.008 Y95.331 E.01085
G1 X66.481 Y95.172 E.01531
G1 X66.976 Y95.115 E.01532
G1 X67.472 Y95.162 E.01532
G1 X67.948 Y95.311 E.01532
G1 X68.382 Y95.556 E.01532
G1 X68.743 Y95.871 E.01471
G1 X68.964 Y96.147 E.01086
G1 X69.202 Y96.584 E.01531
G1 X69.344 Y97.062 E.01532
G1 X69.384 Y97.559 E.01532
G1 X69.32 Y98.054 E.01532
G1 X69.154 Y98.524 E.01532
G1 X68.907 Y98.934 E.01471
G1 X68.674 Y99.199 E.01085
G1 X68.302 Y99.5 E.0147
G1 X67.992 Y99.669 E.01085
G1 X67.519 Y99.828 E.01531
G1 X66.976 Y99.881 E.01677
G1 X66.425 Y99.808 E.0171
G1 X66.052 Y99.688 E.01202
G1 X65.618 Y99.444 E.01532
G1 X65.175 Y99.032 E.01858
G1 X64.846 Y98.524 E.0186
G1 X64.663 Y97.987 E.01743
G1 X64.616 Y97.559 E.01322
G1 X64.658 Y97.042 E.01593
G1 X64.82 Y96.534 E.0164
M204 P1000
G1 X65.188 Y96.64 F9000
M204 P800
;TYPE:External perimeter
G1 F1200
G1 X65.463 Y96.211 E.01568
G1 X65.86 Y95.845 E.01656
G1 X66.137 Y95.685 E.00984
G1 X66.533 Y95.546 E.0129
G1 X66.95 Y95.491 E.01291
G1 X67.368 Y95.525 E.01291
G1 X67.771 Y95.644 E.01291
G1 X68.14 Y95.845 E.01291
G1 X68.455 Y96.113 E.0127
G1 X68.637 Y96.335 E.00884
G1 X68.844 Y96.701 E.0129
G1 X68.969 Y97.101 E.01291
G1 X69.009 Y97.52 E.01291
G1 X68.961 Y97.937 E.01291
G1 X68.827 Y98.335 E.01291
G1 X68.618 Y98.692 E.0127
G1 X68.431 Y98.91 E.00884
G1 X68.113 Y99.173 E.01268
G1 X67.863 Y99.315 E.00884
G1 X67.467 Y99.454 E.0129
G1 X67.002 Y99.505 E.01436
G1 X66.528 Y99.446 E.01468
G1 X66.229 Y99.356 E.00961
G1 X65.86 Y99.155 E.01291
G1 X65.464 Y98.79 E.01656
G1 X65.172 Y98.335 E.01658
G1 X65.031 Y97.898 E.01411
G1 X64.991 Y97.52 E.0117
G1 X65.039 Y97.063 E.01411
G1 X65.163 Y96.694 E.01195
M204 P1000
G1 X64.964 Y96.309 F9000
G1 E-2.24 F4200
;WIPE_START
G1 F7200
G1 X65.463 Y96.211 E-.3155
G1 X65.86 Y95.845 E-.29871
G1 X66.137 Y95.685 E-.17751
G1 X66.342 Y95.613 E-.12028
;WIPE_END
G1 E-.048 F4200
G1 Z.4 F720
G1 X111.036 Y99.426 F9000
G1 Z.2 F720
G1 E3.2 F2400
M204 P800
;TYPE:Perimeter
G1 F1200
G1 X110.947 Y99.346 E.00369
G1 X110.623 Y98.908 E.01673
G1 X110.439 Y98.532 E.01287
G1 X110.281 Y97.977 E.01772
G1 X110.241 Y97.599 E.0117
G1 X110.281 Y97.023 E.01774
G1 X110.435 Y96.478 E.01738
G1 X110.713 Y95.954 E.01823
G1 X111.082 Y95.513 E.01768
G1 X111.499 Y95.181 E.01638
G1 X111.879 Y94.977 E.01326
;WIDTH:0.451668
G1 X112.394 Y94.788 E.01825
G1 X112.936 Y94.739 E.01816
;WIDTH:0.41645
G1 X113.447 Y94.779 E.01558
;WIDTH:0.414717
G1 X113.941 Y94.907 E.01549
G1 X114.45 Y95.155 E.01713
;WIDTH:0.415152
G1 X114.86 Y95.459 E.01549
G1 X115.233 Y95.877 E.01701
;WIDTH:0.412134
G1 X115.505 Y96.349 E.01638
;WIDTH:0.407879
G1 X115.673 Y96.832 E.0152
;WIDTH:0.41458
G1 X115.756 Y97.39 E.0171
G1 X115.723 Y97.949 E.01696
;WIDTH:0.414368
G1 X115.58 Y98.474 E.01645
;WIDTH:0.406496
G1 X115.321 Y98.989 E.01708
;WIDTH:0.412131
G1 X114.986 Y99.418 E.01638
;WIDTH:0.414341
G1 X114.598 Y99.751 E.01548
G1 X114.119 Y100.02 E.0166
G1 X113.604 Y100.193 E.01646
;WIDTH:0.41679
G1 X113.096 Y100.261 E.0156
;WIDTH:0.424383
G1 X112.423 Y100.202 E.021
G1 X111.875 Y100.021 E.01795
;WIDTH:0.419999
G1 X111.375 Y99.732 E.01774
G1 X111.081 Y99.467 E.0122
M204 P1000
G1 X111.291 Y99.155 F9000
M204 P800
G1 F1200
G1 X110.956 Y98.731 E.0166
G1 X110.798 Y98.415 E.01086
G1 X110.656 Y97.938 E.0153
G1 X110.616 Y97.559 E.0117
G1 X110.68 Y96.947 E.0189
G1 X110.832 Y96.504 E.0144
G1 X111.01 Y96.186 E.0112
G1 X111.325 Y95.802 E.01528
G1 X111.689 Y95.507 E.01439
G1 X112.008 Y95.331 E.0112
G1 X112.481 Y95.172 E.01531
G1 X113.024 Y95.119 E.01677
G1 X113.576 Y95.192 E.01711
G1 X113.947 Y95.311 E.01198
G1 X114.357 Y95.538 E.0144
G1 X114.639 Y95.768 E.01119
G1 X114.998 Y96.205 E.01738
G1 X115.229 Y96.668 E.01589
G1 X115.356 Y97.17 E.01591
G1 X115.386 Y97.528 E.01103
G1 X115.353 Y97.891 E.0112
G1 X115.22 Y98.371 E.0153
G1 X114.991 Y98.814 E.01533
G1 X114.607 Y99.255 E.01797
G1 X114.302 Y99.5 E.01202
G1 X113.891 Y99.706 E.01413
G1 X113.519 Y99.828 E.01201
G1 X113.024 Y99.885 E.01532
G1 X112.528 Y99.838 E.01532
G1 X112.052 Y99.688 E.01532
G1 X111.618 Y99.444 E.01532
G1 X111.336 Y99.195 E.01156
M204 P1000
G1 X111.559 Y98.897 F9000
M204 P800
;TYPE:External perimeter
G1 F1200
G1 X111.289 Y98.554 E.01341
G1 X111.156 Y98.299 E.00884
G1 X111.031 Y97.899 E.01289
G1 X110.991 Y97.52 E.0117
G1 X111.039 Y97.063 E.0141
G1 X111.165 Y96.68 E.0124
G1 X111.307 Y96.418 E.00914
G1 X111.568 Y96.09 E.01289
G1 X111.879 Y95.832 E.0124
G1 X112.137 Y95.685 E.00914
G1 X112.533 Y95.546 E.0129
G1 X112.998 Y95.495 E.01436
G1 X113.472 Y95.554 E.01469
G1 X113.771 Y95.644 E.00958
G1 X114.126 Y95.836 E.0124
G1 X114.359 Y96.02 E.00914
G1 X114.671 Y96.394 E.01496
G1 X114.871 Y96.784 E.01347
G1 X114.981 Y97.21 E.01352
G1 X114.992 Y97.766 E.0171
G1 X114.881 Y98.206 E.01392
G1 X114.693 Y98.581 E.01291
G1 X114.365 Y98.966 E.01555
G1 X114.113 Y99.173 E.01001
G1 X113.762 Y99.351 E.01211
G1 X113.467 Y99.454 E.00959
G1 X113.05 Y99.509 E.01291
G1 X112.632 Y99.475 E.0129
G1 X112.229 Y99.356 E.01291
G1 X111.86 Y99.155 E.01291
G1 X111.605 Y98.936 E.01034
M204 P1000
G1 X111.171 Y98.994 F9000
G1 E-2.24 F4200
;WIPE_START
G1 F7200
G1 X111.289 Y98.554 E-.27457
G1 X111.156 Y98.299 E-.15942
G1 X111.031 Y97.899 E-.23252
G1 X110.991 Y97.52 E-.21108
G1 X110.997 Y97.458 E-.03442
;WIPE_END
G1 E-.048 F4200
G1 Z.4 F720
G1 X111.208 Y94.48 F9000
G1 Z.2 F720
G1 E3.2 F2400
M204 P800
;TYPE:Solid infill
;WIDTH:0.423623
G1 F1200
G1 X111.557 Y94.83 E.01535
G1 X111.352 Y94.939 E.0072
G1 X111.227 Y95.038 E.00496
G1 X110.839 Y94.65 E.01704
G1 X110.3 Y94.65 E.0167
G1 X110.927 Y95.276 E.02748
G1 X110.668 Y95.556 E.01182
G1 X109.762 Y94.65 E.03976
G1 X109.224 Y94.65 E.0167
G1 X110.441 Y95.866 E.05339
G1 X110.373 Y95.958 E.00353
G1 X110.25 Y96.214 E.00882
G1 X108.685 Y94.65 E.06865
G1 X108.147 Y94.65 E.0167
G1 X110.098 Y96.601 E.08561
G1 X109.995 Y97.036 E.01388
G1 X107.609 Y94.65 E.10472
G1 X107.07 Y94.65 E.0167
G1 X109.956 Y97.535 E.12659
G1 X110 Y98.011 E.01484
G1 X110.028 Y98.146 E.00428
G1 X106.532 Y94.65 E.1534
G1 X105.994 Y94.65 E.0167
G1 X111.683 Y100.34 E.24962
G1 X111.145 Y100.34 E.0167
G1 X105.455 Y94.65 E.24962
G1 X104.917 Y94.65 E.0167
G1 X110.607 Y100.34 E.24962
G1 X110.069 Y100.34 E.0167
G1 X104.379 Y94.65 E.24962
G1 X103.841 Y94.651 E.0167
G1 X109.53 Y100.34 E.24961
G1 X108.992 Y100.34 E.0167
G1 X103.303 Y94.651 E.24961
G1 X102.764 Y94.651 E.0167
G1 X108.454 Y100.34 E.24961
G1 X107.916 Y100.341 E.0167
G1 X102.226 Y94.651 E.24961
G1 X101.688 Y94.651 E.0167
G1 X107.377 Y100.341 E.24961
G1 X106.839 Y100.341 E.0167
G1 X101.15 Y94.651 E.24961
G1 X100.611 Y94.651 E.0167
M73 P3 R29
G1 X106.301 Y100.341 E.24961
G1 X105.762 Y100.341 E.0167
G1 X100.073 Y94.652 E.24961
G1 X99.535 Y94.652 E.0167
G1 X105.224 Y100.341 E.24961
G1 X104.686 Y100.341 E.0167
G1 X98.997 Y94.652 E.24961
G1 X98.458 Y94.652 E.0167
G1 X104.148 Y100.341 E.24961
G1 X103.609 Y100.342 E.0167
G1 X97.92 Y94.652 E.24961
G1 X97.382 Y94.652 E.0167
G1 X103.071 Y100.342 E.24961
G1 X102.533 Y100.342 E.0167
G1 X96.844 Y94.652 E.24961
G1 X96.305 Y94.653 E.0167
G1 X101.995 Y100.342 E.24961
G1 X101.456 Y100.342 E.0167
G1 X95.767 Y94.653 E.24961
G1 X95.229 Y94.653 E.0167
G1 X100.918 Y100.342 E.2496
G1 X100.38 Y100.342 E.0167
G1 X94.691 Y94.653 E.2496
G1 X94.152 Y94.653 E.0167
G1 X99.842 Y100.343 E.2496
G1 X99.303 Y100.343 E.0167
M73 P3 R28
G1 X93.614 Y94.653 E.2496
G1 X93.076 Y94.654 E.0167
G1 X98.765 Y100.343 E.2496
G1 X98.227 Y100.343 E.0167
G1 X92.538 Y94.654 E.2496
