; generated by PrusaSlicer 2.6.0-alpha0 on 2023-02-28 at 19:38:33 UTC

; 
;

; 
;

; 
;

; 

; external perimeters extrusion width = 0.45mm
; perimeters extrusion width = 0.45mm
; infill extrusion width = 0.45mm
; solid infill extrusion width = 0.45mm
; top infill extrusion width = 0.40mm
; first layer extrusion width = 0.42mm

M73 P0 R14
M201 X2500 Y2500 Z400 E5000 ; sets maximum accelerations, mm/sec^2
M203 X180 Y180 Z12 E80 ; sets maximum feedrates, mm / sec
M204 P1250 R1250 T2500 ; sets acceleration (P, T) and retract acceleration (R), mm/sec^2
M205 X8.00 Y8.00 Z2.00 E10.00 ; sets the jerk limits, mm/sec
M205 S0 T0 ; sets the minimum extruding and travel feed rate, mm/sec
M107
;TYPE:Custom
M862.3 P "MINI" ; printer model check
G90 ; use absolute coordinates
M83 ; extruder relative mode
M104 S170 ; set extruder temp for bed leveling
M140 S60 ; set bed temp
M109 R170 ; wait for bed leveling temp
M190 S60 ; wait for bed temp
M204 T1250 ; set travel acceleration
G28 ; home all without mesh bed level
G29 ; mesh bed leveling 
M204 T2500 ; restore travel acceleration
M104 S215 ; set extruder temp
G92 E0
G1 Y-2 X179 F2400
G1 Z3 F720
M109 S215 ; wait for extruder temp

; intro line
G1 X170 F1000
G1 Z0.2 F720
G1 X110 E8 F900
G1 X40 E10 F700
G92 E0

M221 S95 ; set flow
G21 ; set units to millimeters
G90 ; use absolute coordinates
M83 ; use relative distances for extrusion
M900 K0.05 ; Filament gcode LA 1.5
M900 K30 ; Filament gcode LA 1.0
M107
;LAYER_CHANGE
;Z:0.25
;HEIGHT:0.25
;BEFORE_LAYER_CHANGE
G92 E0.0
;0.25


M73 P1 R14
G1 E-3.2 F4200
G1 Z.2 F720
G1 Z.25
;AFTER_LAYER_CHANGE
;0.25
G1 Z.45
G1 X68.699 Y82.305 F9000
G1 Z.25 F720
G1 E3.2 F2400
M204 P800
;TYPE:Skirt/Brim
;WIDTH:0.42
G1 F1200
G1 X69.275 Y81.824 E.03286
G1 X70.205 Y81.634 E.04157
G1 X109.795 Y81.634 E1.73362
G1 X111.099 Y82.025 E.05961
M73 P2 R14
G1 X111.971 Y83.07 E.0596
G1 X112.161 Y84 E.04157
G1 X112.161 Y96 E.52547
G1 X111.77 Y97.304 E.05961
G1 X110.725 Y98.176 E.0596
G1 X109.795 Y98.366 E.04157
G1 X70.205 Y98.366 E1.73362
G1 X68.901 Y97.975 E.05961
G1 X68.029 Y96.93 E.0596
G1 X67.839 Y96 E.04157
G1 X67.839 Y84 E.52547
G1 X68.23 Y82.696 E.05961
G1 X68.653 Y82.344 E.0241
M204 P1000
; printing object 0 id:0 copy 0
G1 E-2.24 F4200
;WIPE_START
G1 F7200
G1 X69.275 Y81.824 E-.44928
G1 X70.178 Y81.64 E-.51072
;WIPE_END
G1 Z.45 F720
G1 X102.516 Y86.678 F9000
G1 Z.25 F720
G1 E3.2 F2400
M204 P800
;TYPE:Perimeter
G1 F1200
G1 X102.697 Y86.366 E.01579
G1 X106.893 Y86.366 E.18374
G1 X108.992 Y90 E.18377
G1 X106.893 Y93.634 E.18377
G1 X102.697 Y93.634 E.18374
G1 X100.599 Y90 E.18375
G1 X102.486 Y86.73 E.16532
M204 P1000
G1 X102.908 Y86.732 F9000
M204 P800
;TYPE:External perimeter
G1 F1200
G1 X106.682 Y86.732 E.16526
G1 X108.569 Y90 E.16525
G1 X106.682 Y93.268 E.16525
G1 X102.908 Y93.268 E.16526
G1 X101.022 Y90 E.16522
G1 X102.878 Y86.784 E.1626
M204 P1000
G1 X102.908 Y86.332 F9000
G1 X102.124 Y86.625
M204 P800
;TYPE:Perimeter
G1 F1200
G1 X100.176 Y90 E.17064
G1 X102.485 Y94.001 E.20228
G1 X107.105 Y94.001 E.20231
G1 X108.652 Y91.32 E.13554
G1 X108.652 Y94.857 E.15488
G1 X71.348 Y94.857 E1.63351
M73 P3 R14
G1 X71.348 Y91.32 E.15488
G1 X72.895 Y94.001 E.13554
G1 X77.515 Y94.001 E.20231
G1 X79.824 Y90 E.20228
G1 X77.515 Y85.999 E.20228
G1 X72.895 Y85.999 E.20231
G1 X71.348 Y88.68 E.13554
G1 X71.348 Y85.143 E.15488
G1 X108.652 Y85.143 E1.63351
G1 X108.652 Y88.68 E.15488
G1 X107.105 Y85.999 E.13554
G1 X102.485 Y85.999 E.20231
G1 X102.154 Y86.573 E.02901
M204 P1000
G1 E-2.24 F4200
;WIPE_START
G1 F7200
G1 X101.288 Y88.073 E-.96
;WIPE_END
G1 Z.45 F720
G1 X77.334 Y86.419 F9000
G1 Z.25 F720
G1 E3.2 F2400
M204 P800
G1 F1200
G1 X79.401 Y90 E.18106
G1 X77.303 Y93.634 E.18375
G1 X73.107 Y93.634 E.18374
G1 X71.008 Y90 E.18377
G1 X73.107 Y86.366 E.18377
G1 X77.304 Y86.367 E.18378
M204 P1000
G1 X77.092 Y86.732 F9000
M204 P800
;TYPE:External perimeter
G1 F1200
G1 X78.978 Y90 E.16522
G1 X77.092 Y93.268 E.16522
G1 X73.318 Y93.268 E.16526
G1 X71.431 Y90 E.16525
G1 X73.318 Y86.732 E.16525
G1 X77.032 Y86.732 E.16263
M204 P1000
M73 P4 R14
G1 X77.438 Y86.532 F9000
G1 E-2.24 F4200
;WIPE_START
G1 F7200
G1 X77.918 Y88.22 E-.96
;WIPE_END
G1 Z.45 F720
G1 X70.981 Y95.224 F9000
G1 Z.25 F720
G1 E3.2 F2400
M204 P800
;TYPE:Perimeter
G1 F1200
G1 X70.981 Y84.776 E.45751
G1 X109.019 Y84.776 E1.66566
G1 X109.019 Y95.224 E.45751
G1 X71.041 Y95.224 E1.66303
M204 P1000
M73 P4 R13
G1 X70.615 Y95.59 F9000
M204 P800
;TYPE:External perimeter
G1 F1200
G1 X70.615 Y84.41 E.48956
G1 X109.385 Y84.41 E1.69771
G1 X109.385 Y95.59 E.48956
G1 X70.675 Y95.59 E1.69508
M204 P1000
G1 X70.782 Y95.226 F9000
M73 P5 R13
G1 E-2.24 F4200
;WIPE_START
G1 F7200
G1 X70.666 Y93.858 E-.96
;WIPE_END
G1 Z.45 F720
G1 X107.802 Y85.253 F9000
G1 Z.25 F720
G1 E3.2 F2400
M204 P800
;TYPE:Solid infill
;WIDTH:0.420191
G1 F1200
G1 X108.378 Y85.829 E.03569
G1 X108.378 Y86.347 E.02269
G1 X107.448 Y85.417 E.05762
G1 X106.93 Y85.417 E.02269
G1 X108.378 Y86.865 E.08972
G1 X108.378 Y87.384 E.02274
G1 X107.558 Y86.564 E.05081
M204 P1000
G1 X106.883 Y85.89 F9000
M204 P800
G1 F1200
G1 X106.411 Y85.417 E.02928
G1 X105.893 Y85.417 E.02269
G1 X106.2 Y85.725 E.01905
G1 X105.682 Y85.725 E.02269
G1 X105.375 Y85.417 E.01905
G1 X104.856 Y85.417 E.02274
G1 X105.163 Y85.725 E.01905
G1 X104.645 Y85.725 E.02269
G1 X104.338 Y85.417 E.01905
G1 X103.819 Y85.417 E.02274
G1 X104.127 Y85.725 E.01908
G1 X103.608 Y85.725 E.02274
G1 X103.301 Y85.417 E.01905
G1 X102.783 Y85.417 E.02269
G1 X103.09 Y85.725 E.01905
G1 X102.572 Y85.725 E.02269
G1 X102.264 Y85.417 E.01908
G1 X101.746 Y85.417 E.02269
G1 X102.227 Y85.898 E.0298
G1 X102.037 Y86.227 E.01665
G1 X101.228 Y85.417 E.05016
G1 X100.709 Y85.417 E.02274
G1 X101.847 Y86.555 E.07051
G1 X101.657 Y86.884 E.01665
G1 X100.191 Y85.417 E.09086
G1 X99.673 Y85.417 E.02269
G1 X101.468 Y87.213 E.11125
G1 X101.278 Y87.541 E.01661
G1 X99.154 Y85.417 E.1316
G1 X98.636 Y85.417 E.02269
G1 X101.088 Y87.87 E.15196
G1 X100.899 Y88.199 E.01662
G1 X98.117 Y85.417 E.17237
G1 X97.599 Y85.417 E.02269
G1 X100.709 Y88.527 E.19269
G1 X100.519 Y88.856 E.01665
G1 X97.081 Y85.417 E.21305
G1 X96.562 Y85.417 E.02274
G1 X100.329 Y89.184 E.2334
G1 X100.14 Y89.513 E.01662
G1 X96.044 Y85.417 E.25379
G1 X95.526 Y85.417 E.02269
G1 X99.95 Y89.842 E.27414
G1 X99.858 Y90 E.00801
G1 X100.226 Y90.636 E.03219
G1 X95.007 Y85.417 E.32337
G1 X94.489 Y85.417 E.02269
G1 X101.384 Y92.313 E.42724
M204 P1000
G1 E-2.24 F4200
;WIPE_START
G1 F7200
G1 X100.159 Y91.088 E-.96
;WIPE_END
G1 Z.45 F720
G1 X108.176 Y92.366 F9000
G1 Z.25 F720
G1 E3.2 F2400
M204 P800
G1 F1200
G1 X108.378 Y92.567 E.01248
G1 X108.378 Y93.086 E.02274
G1 X108.107 Y92.815 E.01679
G1 X107.917 Y93.144 E.01665
G1 X108.378 Y93.604 E.02853
G1 X108.378 Y94.123 E.02274
G1 X107.727 Y93.472 E.04034
G1 X107.537 Y93.801 E.01665
G1 X108.319 Y94.583 E.04845
G1 X107.801 Y94.583 E.02269
G1 X107.348 Y94.129 E.0281
G1 X107.263 Y94.275 E.0074
G1 X106.975 Y94.275 E.01262
G1 X107.283 Y94.583 E.01908
G1 X106.764 Y94.583 E.02274
G1 X106.457 Y94.275 E.01905
G1 X105.939 Y94.275 E.02269
G1 X106.246 Y94.583 E.01905
G1 X105.727 Y94.583 E.02274
G1 X105.42 Y94.275 E.01905
G1 X104.902 Y94.275 E.02269
G1 X105.209 Y94.583 E.01905
G1 X104.691 Y94.583 E.02269
G1 X104.383 Y94.275 E.01908
G1 X103.865 Y94.275 E.02269
G1 X104.172 Y94.583 E.01905
G1 X103.654 Y94.583 E.02269
G1 X103.182 Y94.11 E.02928
M204 P1000
G1 X103.3 Y94.747 F9000
M204 P800
G1 F1200
G1 X102.828 Y94.275 E.02924
G1 X102.327 Y94.275 E.02195
G1 X101.642 Y93.089 E.06001
G1 X93.97 Y85.417 E.47535
G1 X93.452 Y85.417 E.02269
M73 P6 R13
G1 X102.617 Y94.583 E.56789
G1 X102.099 Y94.583 E.02269
G1 X92.934 Y85.417 E.56789
G1 X92.415 Y85.417 E.02274
G1 X101.58 Y94.583 E.56789
G1 X101.062 Y94.583 E.02269
G1 X91.897 Y85.417 E.56789
G1 X91.379 Y85.417 E.02269
G1 X100.544 Y94.583 E.56789
G1 X100.025 Y94.583 E.02274
G1 X90.86 Y85.417 E.56789
G1 X90.342 Y85.417 E.02269
G1 X99.507 Y94.583 E.56789
G1 X98.989 Y94.583 E.02269
G1 X89.824 Y85.417 E.56789
G1 X89.305 Y85.417 E.02274
G1 X98.47 Y94.583 E.56789
G1 X97.952 Y94.583 E.02269
G1 X88.787 Y85.417 E.56789
G1 X88.268 Y85.417 E.02274
G1 X97.434 Y94.583 E.56792
G1 X96.915 Y94.583 E.02274
G1 X87.75 Y85.417 E.56789
G1 X87.232 Y85.417 E.02269
G1 X96.397 Y94.583 E.56789
G1 X95.878 Y94.583 E.02274
M73 P7 R13
G1 X86.713 Y85.417 E.56789
G1 X86.195 Y85.417 E.02269
G1 X95.36 Y94.583 E.56789
G1 X94.842 Y94.583 E.02269
G1 X85.677 Y85.417 E.56789
G1 X85.158 Y85.417 E.02274
G1 X94.323 Y94.583 E.56789
G1 X93.805 Y94.583 E.02269
G1 X84.64 Y85.417 E.56789
G1 X84.121 Y85.417 E.02274
G1 X93.287 Y94.583 E.56792
G1 X92.768 Y94.583 E.02274
G1 X83.603 Y85.417 E.56789
G1 X83.085 Y85.417 E.02269
G1 X92.25 Y94.583 E.56789
G1 X91.731 Y94.583 E.02274
G1 X82.566 Y85.417 E.56789
G1 X82.048 Y85.417 E.02269
G1 X91.213 Y94.583 E.56789
G1 X90.695 Y94.583 E.02269
G1 X81.53 Y85.417 E.56789
G1 X81.011 Y85.417 E.02274
G1 X90.176 Y94.583 E.56789
G1 X89.658 Y94.583 E.02269
M73 P8 R13
G1 X80.493 Y85.417 E.56789
G1 X79.975 Y85.417 E.02269
G1 X89.14 Y94.583 E.56789
G1 X88.621 Y94.583 E.02274
G1 X79.456 Y85.417 E.56789
G1 X78.938 Y85.417 E.02269
G1 X88.103 Y94.583 E.56789
G1 X87.585 Y94.583 E.02269
G1 X78.419 Y85.417 E.56792
G1 X77.901 Y85.417 E.02269
G1 X87.066 Y94.583 E.56789
G1 X86.548 Y94.583 E.02269
G1 X77.383 Y85.417 E.56789
G1 X76.864 Y85.417 E.02274
G1 X77.172 Y85.725 E.01908
G1 X77.673 Y85.725 E.02195
G1 X78.359 Y86.912 E.06007
G1 X86.029 Y94.583 E.47526
G1 X85.511 Y94.583 E.02269
G1 X79.067 Y88.138 E.3993
G1 X79.775 Y89.364 E.06203
G1 X84.993 Y94.583 E.32334
G1 X84.474 Y94.583 E.02274
G1 X80.05 Y90.158 E.27414
G1 X79.86 Y90.487 E.01665
G1 X83.956 Y94.583 E.25379
G1 X83.438 Y94.583 E.02269
G1 X79.671 Y90.816 E.2334
G1 X79.481 Y91.144 E.01661
G1 X82.919 Y94.583 E.21305
G1 X82.401 Y94.583 E.02269
G1 X79.291 Y91.473 E.19269
G1 X79.101 Y91.802 E.01665
G1 X81.883 Y94.583 E.17234
G1 X81.364 Y94.583 E.02274
G1 X78.912 Y92.13 E.15196
G1 X78.722 Y92.459 E.01665
G1 X80.846 Y94.583 E.1316
G1 X80.327 Y94.583 E.02274
G1 X78.532 Y92.787 E.11125
G1 X78.343 Y93.116 E.01662
M73 P9 R13
G1 X79.809 Y94.583 E.09086
G1 X79.291 Y94.583 E.02269
G1 X78.153 Y93.445 E.07051
G1 X77.963 Y93.773 E.01661
G1 X78.772 Y94.583 E.05016
G1 X78.254 Y94.583 E.02269
G1 X77.773 Y94.102 E.0298
G1 X77.673 Y94.275 E.00875
G1 X77.428 Y94.275 E.01073
G1 X77.736 Y94.583 E.01908
G1 X77.217 Y94.583 E.02274
G1 X76.91 Y94.275 E.01905
G1 X76.392 Y94.275 E.02269
G1 X76.699 Y94.583 E.01905
G1 X76.18 Y94.583 E.02274
G1 X75.873 Y94.275 E.01905
G1 X75.355 Y94.275 E.02269
G1 X75.662 Y94.583 E.01905
G1 X75.144 Y94.583 E.02269
G1 X74.837 Y94.275 E.01905
G1 X74.318 Y94.275 E.02274
G1 X74.625 Y94.583 E.01905
G1 X74.107 Y94.583 E.02269
G1 X73.8 Y94.275 E.01905
G1 X73.281 Y94.275 E.02274
G1 X73.753 Y94.747 E.02924
M204 P1000
G1 E-2.24 F4200
;WIPE_START
G1 F7200
G1 X73.281 Y94.275 E-.36991
G1 X73.8 Y94.275 E-.28761
G1 X74.107 Y94.583 E-.24099
G1 X74.218 Y94.583 E-.06149
;WIPE_END
G1 Z.45 F720
G1 X72.443 Y93.437 F9000
G1 Z.25 F720
G1 E3.2 F2400
M204 P800
G1 F1200
G1 X71.622 Y92.616 E.05087
G1 X71.622 Y93.135 E.02274
G1 X73.07 Y94.583 E.08972
G1 X72.552 Y94.583 E.02269
G1 X71.622 Y93.653 E.05762
G1 X71.622 Y94.171 E.02269
G1 X72.198 Y94.747 E.03569
M204 P1000
G1 E-2.24 F4200
;WIPE_START
G1 F7200
G1 X71.622 Y94.171 E-.45142
G1 X71.622 Y93.653 E-.28706
G1 X71.905 Y93.936 E-.22152
;WIPE_END
G1 Z.45 F720
G1 X76.818 Y85.89 F9000
G1 Z.25 F720
G1 E3.2 F2400
M204 P800
G1 F1200
G1 X76.346 Y85.417 E.02928
G1 X75.828 Y85.417 E.02269
G1 X76.135 Y85.725 E.01905
G1 X75.616 Y85.725 E.02274
G1 X75.309 Y85.417 E.01905
G1 X74.791 Y85.417 E.02269
G1 X75.098 Y85.725 E.01905
G1 X74.58 Y85.725 E.02269
G1 X74.273 Y85.417 E.01905
G1 X73.754 Y85.417 E.02274
G1 X74.061 Y85.725 E.01905
G1 X73.543 Y85.725 E.02269
G1 X73.236 Y85.417 E.01905
G1 X72.717 Y85.417 E.02274
G1 X73.025 Y85.725 E.01908
G1 X72.737 Y85.725 E.01262
G1 X72.652 Y85.871 E.0074
G1 X72.199 Y85.417 E.0281
G1 X71.681 Y85.417 E.02269
G1 X72.463 Y86.199 E.04845
G1 X72.273 Y86.528 E.01665
G1 X71.622 Y85.877 E.04034
G1 X71.622 Y86.396 E.02274
G1 X72.083 Y86.857 E.02856
G1 X71.893 Y87.185 E.01661
G1 X71.622 Y86.914 E.01679
G1 X71.622 Y87.433 E.02274
G1 X71.824 Y87.634 E.01248
M204 P1000
; stop printing object 0 id:0 copy 0
M106 S84.15
;LAYER_CHANGE
;Z:0.45
;HEIGHT:0.2
;BEFORE_LAYER_CHANGE
G92 E0.0
;0.45


G1 E-2.24 F4200
;WIPE_START
G1 F7200
G1 X71.622 Y87.433 E-.15792
G1 X71.622 Y86.914 E-.28761
G1 X71.893 Y87.185 E-.21239
G1 X72.083 Y86.857 E-.21006
G1 X71.966 Y86.74 E-.09202
;WIPE_END
G1 Z.45 F720
;AFTER_LAYER_CHANGE
;0.45
M104 S213 ; set temperature
G1 Z.65
G1 X67.839 Y86.74 F9000
G1 Z.45 F720
G1 E3.2 F2400
;TYPE:Skirt/Brim
;WIDTH:0.42
G1 X67.839 Y84 E.0988
G1 X68.23 Y82.696 E.04909
G1 X69.275 Y81.824 E.04908
G1 X70.205 Y81.634 E.03423
G1 X109.795 Y81.634 E1.42751
G1 X111.099 Y82.025 E.04909
G1 X111.971 Y83.07 E.04908
G1 X112.161 Y84 E.03423
G1 X112.161 Y96 E.43269
G1 X111.77 Y97.304 E.04909
G1 X110.725 Y98.176 E.04908
G1 X109.795 Y98.366 E.03423
G1 X70.205 Y98.366 E1.42751
G1 X68.901 Y97.975 E.04909
G1 X68.029 Y96.93 E.04908
G1 X67.839 Y96 E.03423
G1 X67.839 Y86.8 E.33173
; printing object 0 id:0 copy 0
G1 E-2.24 F4200
;WIPE_START
G1 F7200
G1 X67.839 Y85.068 E-.96
;WIPE_END
G1 Z.65 F720
G1 X102.58 Y86.858 F9000
G1 Z.45 F720
G1 E3.2 F2400
M204 P800
;TYPE:Perimeter
;WIDTH:0.45
G1 F1500
G1 X102.78 Y86.51 E.01562
G1 X106.81 Y86.51 E.15687
G1 X108.825 Y90 E.15687
G1 X106.81 Y93.49 E.15687
G1 X102.78 Y93.49 E.15687
G1 X100.765 Y90 E.15687
G1 X102.55 Y86.909 E.13894
M204 P1000
G1 X103.015 Y86.917 F9000
M204 P800
;TYPE:External perimeter
G1 F1500
G1 X106.575 Y86.917 E.13858
G1 X108.355 Y90 E.13858
G1 X106.575 Y93.083 E.13858
G1 X103.015 Y93.083 E.13858
G1 X101.235 Y90 E.13858
M73 P10 R13
G1 X102.985 Y86.969 E.13624
M204 P1000
G1 X103.015 Y86.517 F9000
G1 X102.144 Y86.798
M204 P800
;TYPE:Perimeter
G1 F3000
G1 X100.295 Y90 E.14393
G1 X102.545 Y93.897 E.17516
G1 X107.045 Y93.897 E.17517
G1 X108.756 Y90.934 E.13319
G1 X108.756 Y94.961 E.15676
G1 X71.244 Y94.961 E1.4602
G1 X71.244 Y90.934 E.15676
G1 X72.955 Y93.897 E.13319
G1 X77.455 Y93.897 E.17517
G1 X79.705 Y90 E.17516
G1 X77.455 Y86.103 E.17516
G1 X72.955 Y86.103 E.17517
G1 X71.244 Y89.066 E.13319
G1 X71.244 Y85.039 E.15676
G1 X108.756 Y85.039 E1.4602
G1 X108.756 Y89.066 E.15676
G1 X107.045 Y86.103 E.13319
G1 X102.545 Y86.103 E.17517
G1 X102.174 Y86.746 E.0289
M204 P1000
G1 E-2.24 F4200
;WIPE_START
G1 F7200
G1 X101.308 Y88.246 E-.96
;WIPE_END
G1 Z.65 F720
G1 X77.151 Y86.51 F9000
G1 Z.45 F720
G1 E3.2 F2400
M204 P800
G1 F1500
G1 X77.22 Y86.51 E.00269
G1 X79.235 Y90 E.15687
G1 X77.22 Y93.49 E.15687
G1 X73.19 Y93.49 E.15687
G1 X71.175 Y90 E.15687
G1 X73.19 Y86.51 E.15687
G1 X77.091 Y86.51 E.15185
M204 P1000
G1 X76.985 Y86.917 F9000
M204 P800
;TYPE:External perimeter
G1 F1500
G1 X78.765 Y90 E.13858
G1 X76.985 Y93.083 E.13858
G1 X73.425 Y93.083 E.13858
G1 X71.645 Y90 E.13858
G1 X73.425 Y86.917 E.13858
G1 X76.925 Y86.917 E.13624
M204 P1000
G1 X77.331 Y86.717 F9000
G1 E-2.24 F4200
;WIPE_START
G1 F7200
G1 X77.813 Y88.405 E-.96
;WIPE_END
G1 Z.65 F720
G1 X70.837 Y95.368 F9000
G1 Z.45 F720
G1 E3.2 F2400
M204 P800
;TYPE:Perimeter
G1 F3000
G1 X70.837 Y84.632 E.41791
G1 X109.163 Y84.632 E1.49188
G1 X109.163 Y95.368 E.41791
G1 X70.897 Y95.368 E1.48955
M204 P1000
G1 X70.43 Y95.775 F9000
M204 P800
;TYPE:External perimeter
M73 P11 R13
G1 F2400
G1 X70.43 Y84.225 E.4496
G1 X109.57 Y84.225 E1.52357
G1 X109.57 Y95.775 E.4496
G1 X70.49 Y95.775 E1.52123
M204 P1000
G1 X70.596 Y95.411 F9000
M73 P11 R12
G1 E-2.24 F4200
;WIPE_START
G1 F7200
G1 X70.481 Y94.043 E-.96
;WIPE_END
G1 Z.65 F720
G1 X108.634 Y94.008 F9000
G1 Z.45 F720
G1 E3.2 F2400
;TYPE:Solid infill
;WIDTH:0.453447
G1 F8400
G1 X107.987 Y94.656 E.03595
G1 X107.406 Y94.656 E.02281
G1 X108.451 Y93.611 E.05801
G1 X108.451 Y93.031 E.02277
G1 X106.826 Y94.656 E.09021
G1 X106.245 Y94.656 E.02281
G1 X106.698 Y94.202 E.02518
G1 X107.221 Y94.202 E.02053
G1 X107.936 Y92.965 E.05609
G1 X108.634 Y92.267 E.03875
G1 E-2.24 F4200
;WIPE_START
G1 F7200
G1 X107.936 Y92.965 E-.54703
G1 X107.563 Y93.61 E-.41297
;WIPE_END
G1 Z.65 F720
