; generated by PrusaSlicer 2.5.0+linux-x64-GTK3 on 2023-03-10 at 14:45:17 UTC

; 
;

; 
;

; 
;

; 

; external perimeters extrusion width = 0.45mm
; perimeters extrusion width = 0.45mm
; infill extrusion width = 0.45mm
; solid infill extrusion width = 0.45mm
; top infill extrusion width = 0.40mm
; first layer extrusion width = 0.42mm

M73 P0 R145
M201 X2500 Y2500 Z400 E5000 ; sets maximum accelerations, mm/sec^2
M203 X180 Y180 Z12 E80 ; sets maximum feedrates, mm / sec
M204 P1250 R1250 T2500 ; sets acceleration (P, T) and retract acceleration (R), mm/sec^2
M205 X8.00 Y8.00 Z2.00 E10.00 ; sets the jerk limits, mm/sec
M205 S0 T0 ; sets the minimum extruding and travel feed rate, mm/sec
M107
;TYPE:Custom
M862.3 P "MINI" ; printer model check
G90 ; use absolute coordinates
M83 ; extruder relative mode
M104 S170 ; set extruder temp for bed leveling
M140 S60 ; set bed temp
M109 R170 ; wait for bed leveling temp
M190 S60 ; wait for bed temp
M204 T1250 ; set travel acceleration
G28 ; home all without mesh bed level
G29 ; mesh bed leveling 
M204 T2500 ; restore travel acceleration
M104 S215 ; set extruder temp
G92 E0
G1 Y-2 X179 F2400
G1 Z3 F720
M109 S215 ; wait for extruder temp

; intro line
G1 X170 F1000
G1 Z0.2 F720
G1 X110 E8 F900
G1 X40 E10 F700
G92 E0

M221 S95 ; set flow
G21 ; set units to millimeters
G90 ; use absolute coordinates
M83 ; use relative distances for extrusion
M900 K0.05 ; Filament gcode LA 1.5
M900 K30 ; Filament gcode LA 1.0
M107
;LAYER_CHANGE
;Z:0.2
;HEIGHT:0.2
;BEFORE_LAYER_CHANGE
G92 E0.0
;0.2


G1 E-3.2 F4200
G1 Z.2 F720
;AFTER_LAYER_CHANGE
;0.2
G1 Z.4
G1 X47.881 Y75.84 F9000
G1 Z.2 F720
G1 E3.2 F2400
M204 P800
;TYPE:Skirt/Brim
;WIDTH:0.42
G1 F1200
G1 X49.583 Y75.123 E.05675
G1 X130.44 Y75.123 E2.48451
G1 X131.748 Y75.515 E.04193
G1 X132.624 Y76.56 E.04193
G1 X132.818 Y77.5 E.02948
G1 X132.818 Y102.489 E.76785
G1 X132.426 Y103.796 E.04193
G1 X131.38 Y104.673 E.04193
G1 X130.441 Y104.866 E.02947
G1 X49.584 Y104.877 E2.48451
G1 X48.277 Y104.486 E.04193
G1 X47.249 Y102.95 E.05676
G1 X47.183 Y102.357 E.01834
G1 X47.193 Y77.414 E.76644
G1 X47.249 Y77.05 E.01133
G1 X47.854 Y75.894 E.04008
M204 P1000
; printing object  id:0 copy 0
G1 E-2.24 F4200
;WIPE_START
G1 F7200
G1 X49.357 Y75.224 E-.912
;WIPE_END
G1 E-.048 F4200
G1 Z.4 F720
G1 X50.876 Y78.664 F9000
G1 Z.2 F720
G1 E3.2 F2400
M204 P800
;TYPE:Perimeter
;WIDTH:0.419999
G1 F1200
G1 X129.124 Y78.664 E2.40433
G1 X129.124 Y101.336 E.69664
G1 X50.876 Y101.336 E2.40433
G1 X50.876 Y78.724 E.69479
M204 P1000
G1 X50.499 Y78.287 F9000
M204 P800
G1 F1200
G1 X129.501 Y78.287 E2.42751
G1 X129.501 Y101.713 E.71981
G1 X50.499 Y101.713 E2.42751
G1 X50.499 Y78.347 E.71797
M204 P1000
G1 X50.122 Y77.91 F9000
M204 P800
;TYPE:External perimeter
G1 F1200
G1 X129.878 Y77.91 E2.45068
G1 X129.878 Y102.09 E.74298
G1 X50.122 Y102.09 E2.45068
M73 P0 R144
G1 X50.122 Y77.97 E.74114
M204 P1000
G1 X50.52 Y77.949 F9000
G1 E-2.24 F4200
;WIPE_START
G1 F7200
G1 X51.768 Y77.969 E-.912
;WIPE_END
G1 E-.048 F4200
G1 Z.4 F720
G1 X116.548 Y87.798 F9000
G1 Z.2 F720
G1 E3.2 F2400
M204 P800
;TYPE:Perimeter
G1 F1200
G1 X116.746 Y88.462 E.0213
G1 X116.869 Y89.202 E.02304
G1 X116.913 Y89.951 E.02304
G1 X116.879 Y90.7 E.02304
G1 X116.767 Y91.441 E.02304
G1 X116.578 Y92.167 E.02304
G1 X116.314 Y92.868 E.02303
G1 X115.978 Y93.539 E.02304
G1 X115.574 Y94.171 E.02304
G1 X115.106 Y94.756 E.02304
G1 X114.58 Y95.29 E.02304
G1 X114 Y95.766 E.02304
G1 X113.374 Y96.179 E.02304
G1 X112.709 Y96.524 E.02304
G1 X112.01 Y96.797 E.02304
G1 X111.288 Y96.996 E.02303
G1 X110.548 Y97.119 E.02304
G1 X109.805 Y97.163 E.02286
G1 X69.744 Y97.164 E1.23096
G1 X69.05 Y97.129 E.02135
G1 X68.309 Y97.017 E.02304
G1 X67.583 Y96.828 E.02304
G1 X66.882 Y96.564 E.02303
G1 X66.211 Y96.228 E.02304
G1 X65.579 Y95.824 E.02304
G1 X64.994 Y95.356 E.02303
G1 X64.46 Y94.83 E.02304
G1 X63.984 Y94.25 E.02304
G1 X63.571 Y93.624 E.02304
G1 X63.226 Y92.959 E.02304
G1 X62.953 Y92.26 E.02304
G1 X62.754 Y91.538 E.02303
G1 X62.631 Y90.798 E.02304
G1 X62.587 Y90.049 E.02304
G1 X62.621 Y89.3 E.02304
G1 X62.733 Y88.559 E.02304
G1 X62.922 Y87.833 E.02304
G1 X63.132 Y87.273 E.01837
G1 X63.522 Y86.461 E.02768
G1 X63.926 Y85.829 E.02304
G1 X64.394 Y85.244 E.02304
G1 X64.92 Y84.71 E.02304
G1 X65.5 Y84.234 E.02304
G1 X66.126 Y83.821 E.02304
G1 X66.791 Y83.476 E.02304
G1 X67.49 Y83.203 E.02304
G1 X68.212 Y83.004 E.02304
G1 X68.952 Y82.881 E.02304
G1 X69.695 Y82.837 E.02286
G1 X109.756 Y82.836 E1.23096
G1 X110.45 Y82.871 E.02135
G1 X111.191 Y82.983 E.02304
G1 X111.917 Y83.172 E.02304
G1 X112.618 Y83.436 E.02304
G1 X113.289 Y83.772 E.02304
G1 X113.92 Y84.176 E.02304
G1 X114.506 Y84.644 E.02304
G1 X115.04 Y85.17 E.02304
G1 X115.516 Y85.75 E.02304
G1 X115.929 Y86.376 E.02304
G1 X116.274 Y87.041 E.02304
G1 X116.475 Y87.55 E.01679
G1 X116.531 Y87.74 E.00611
M204 P1000
G1 X116.188 Y87.906 F9000
M204 P800
G1 F1200
G1 X116.382 Y88.56 E.02095
G1 X116.496 Y89.261 E.02183
G1 X116.537 Y89.97 E.02183
G1 X116.502 Y90.68 E.02183
G1 X116.394 Y91.382 E.02183
G1 X116.214 Y92.069 E.02183
G1 X115.962 Y92.733 E.02182
G1 X115.642 Y93.368 E.02183
G1 X115.258 Y93.965 E.02183
G1 X114.813 Y94.519 E.02183
G1 X114.313 Y95.024 E.02183
G1 X113.763 Y95.473 E.02183
G1 X113.169 Y95.863 E.02183
G1 X112.537 Y96.188 E.02183
G1 X111.875 Y96.445 E.02183
G1 X111.19 Y96.632 E.02182
G1 X110.489 Y96.746 E.02183
G1 X109.785 Y96.786 E.02165
G1 X69.744 Y96.787 E1.23035
G1 X69.07 Y96.752 E.02074
G1 X68.368 Y96.644 E.02183
G1 X67.681 Y96.464 E.02183
G1 X67.017 Y96.212 E.02182
G1 X66.382 Y95.892 E.02183
G1 X65.785 Y95.508 E.02183
G1 X65.231 Y95.063 E.02182
G1 X64.726 Y94.563 E.02183
G1 X64.277 Y94.013 E.02183
G1 X63.887 Y93.419 E.02183
G1 X63.562 Y92.787 E.02183
G1 X63.305 Y92.125 E.02183
G1 X63.118 Y91.44 E.02182
G1 X63.004 Y90.739 E.02183
G1 X62.963 Y90.03 E.02183
G1 X62.998 Y89.32 E.02183
G1 X63.106 Y88.618 E.02183
G1 X63.286 Y87.931 E.02183
G1 X63.484 Y87.408 E.01716
G1 X63.858 Y86.632 E.02647
G1 X64.242 Y86.035 E.02183
G1 X64.687 Y85.481 E.02183
G1 X65.187 Y84.976 E.02183
G1 X65.737 Y84.527 E.02183
G1 X66.331 Y84.137 E.02183
G1 X66.963 Y83.812 E.02183
G1 X67.625 Y83.555 E.02183
G1 X68.31 Y83.368 E.02183
G1 X69.011 Y83.254 E.02183
G1 X69.715 Y83.214 E.02165
G1 X109.756 Y83.213 E1.23035
G1 X110.43 Y83.247 E.02074
G1 X111.132 Y83.356 E.02183
G1 X111.819 Y83.536 E.02183
G1 X112.483 Y83.788 E.02183
G1 X113.118 Y84.108 E.02183
G1 X113.715 Y84.492 E.02183
G1 X114.269 Y84.937 E.02183
G1 X114.774 Y85.437 E.02183
G1 X115.223 Y85.987 E.02183
G1 X115.613 Y86.581 E.02183
G1 X115.938 Y87.213 E.02183
G1 X116.171 Y87.849 E.02082
M204 P1000
G1 X115.826 Y87.966 F9000
M204 P800
;TYPE:External perimeter
G1 F1200
G1 X116.018 Y88.658 E.02206
G1 X116.124 Y89.32 E.02062
G1 X116.16 Y89.99 E.02062
G1 X116.126 Y90.66 E.02062
G1 X116.022 Y91.323 E.02062
G1 X115.849 Y91.971 E.02062
G1 X115.61 Y92.598 E.02061
G1 X115.306 Y93.196 E.02062
G1 X114.942 Y93.76 E.02062
G1 X114.52 Y94.282 E.02062
G1 X114.047 Y94.757 E.02062
G1 X113.526 Y95.18 E.02062
G1 X112.964 Y95.546 E.02062
G1 X112.366 Y95.852 E.02062
G1 X111.74 Y96.093 E.02061
G1 X111.092 Y96.268 E.02062
G1 X110.43 Y96.374 E.02062
G1 X109.766 Y96.41 E.02044
G1 X69.744 Y96.41 E1.22975
G1 X69.09 Y96.376 E.02014
G1 X68.427 Y96.272 E.02062
G1 X67.779 Y96.099 E.02062
G1 X67.152 Y95.86 E.02061
G1 X66.554 Y95.556 E.02062
G1 X65.99 Y95.192 E.02062
G1 X65.468 Y94.77 E.02062
G1 X64.993 Y94.297 E.02062
G1 X64.57 Y93.776 E.02062
G1 X64.204 Y93.214 E.02062
G1 X63.898 Y92.616 E.02062
G1 X63.657 Y91.99 E.02061
G1 X63.482 Y91.342 E.02062
G1 X63.376 Y90.68 E.02062
G1 X63.34 Y90.01 E.02062
G1 X63.374 Y89.34 E.02062
G1 X63.478 Y88.677 E.02062
G1 X63.651 Y88.029 E.02062
G1 X63.836 Y87.543 E.01595
G1 X64.194 Y86.804 E.02526
G1 X64.558 Y86.24 E.02062
G1 X64.98 Y85.718 E.02062
G1 X65.453 Y85.243 E.02062
G1 X65.974 Y84.82 E.02062
G1 X66.536 Y84.454 E.02062
G1 X67.134 Y84.148 E.02062
G1 X67.76 Y83.907 E.02062
G1 X68.408 Y83.732 E.02062
G1 X69.07 Y83.626 E.02062
G1 X69.734 Y83.59 E.02044
G1 X109.756 Y83.59 E1.22975
G1 X110.41 Y83.624 E.02014
G1 X111.073 Y83.728 E.02062
G1 X111.721 Y83.901 E.02062
G1 X112.348 Y84.14 E.02062
G1 X112.946 Y84.444 E.02062
G1 X113.51 Y84.808 E.02062
G1 X114.032 Y85.23 E.02062
G1 X114.507 Y85.704 E.02062
G1 X114.93 Y86.224 E.02062
G1 X115.296 Y86.786 E.02062
G1 X115.602 Y87.384 E.02062
G1 X115.805 Y87.91 E.01732
M204 P1000
G1 X116.218 Y88.046 F9000
G1 E-2.24 F4200
;WIPE_START
G1 F7200
G1 X116.018 Y88.658 E-.43087
G1 X116.124 Y89.32 E-.37183
G1 X116.135 Y89.517 E-.1093
;WIPE_END
G1 E-.048 F4200
G1 Z.4 F720
G1 X128.246 Y78.777 F9000
G1 Z.2 F720
G1 E3.2 F2400
M204 P800
;TYPE:Solid infill
;WIDTH:0.421081
G1 F1200
G1 X128.841 Y79.372 E.02592
G1 X128.841 Y79.907 E.01648
G1 X127.881 Y78.947 E.04184
G1 X127.346 Y78.947 E.01648
G1 X128.841 Y80.442 E.06514
G1 X128.841 Y80.977 E.01648
G1 X126.812 Y78.947 E.08845
G1 X126.277 Y78.947 E.01648
G1 X128.841 Y81.511 E.11175
G1 X128.841 Y82.046 E.01648
G1 X125.742 Y78.947 E.13506
G1 X125.207 Y78.947 E.01648
G1 X128.841 Y82.581 E.15837
G1 X128.841 Y83.116 E.01648
G1 X124.672 Y78.947 E.18167
G1 X124.138 Y78.947 E.01648
G1 X128.841 Y83.651 E.20498
G1 X128.841 Y84.185 E.01648
G1 X123.603 Y78.947 E.22829
G1 X123.068 Y78.947 E.01648
G1 X128.841 Y84.72 E.25159
G1 X128.841 Y85.255 E.01648
G1 X122.533 Y78.947 E.2749
G1 X121.998 Y78.947 E.01648
G1 X128.841 Y85.79 E.29821
G1 X128.841 Y86.325 E.01648
G1 X121.464 Y78.947 E.32151
G1 X120.929 Y78.947 E.01648
G1 X128.841 Y86.859 E.34482
G1 X128.841 Y87.394 E.01648
G1 X120.394 Y78.947 E.36812
G1 X119.859 Y78.947 E.01648
G1 X128.841 Y87.929 E.39143
G1 X128.841 Y88.464 E.01648
G1 X119.324 Y78.947 E.41474
G1 X118.79 Y78.947 E.01648
G1 X128.841 Y88.999 E.43804
G1 X128.841 Y89.533 E.01648
G1 X118.255 Y78.947 E.46135
G1 X117.72 Y78.947 E.01648
G1 X128.841 Y90.068 E.48466
G1 X128.841 Y90.603 E.01648
M73 P1 R144
G1 X117.185 Y78.947 E.50796
G1 X116.65 Y78.947 E.01648
G1 X128.841 Y91.138 E.53127
G1 X128.841 Y91.673 E.01648
G1 X116.116 Y78.947 E.55457
G1 X115.581 Y78.947 E.01648
G1 X128.841 Y92.207 E.57788
G1 X128.841 Y92.742 E.01648
G1 X115.046 Y78.947 E.60119
G1 X114.511 Y78.947 E.01648
G1 X128.841 Y93.277 E.62449
G1 X128.841 Y93.812 E.01648
G1 X113.976 Y78.947 E.6478
G1 X113.442 Y78.947 E.01648
G1 X128.841 Y94.347 E.67111
G1 X128.841 Y94.881 E.01648
G1 X112.907 Y78.947 E.69441
G1 X112.372 Y78.947 E.01648
G1 X128.841 Y95.416 E.71772
G1 X128.841 Y95.951 E.01648
G1 X111.837 Y78.947 E.74103
G1 X111.302 Y78.947 E.01648
G1 X128.841 Y96.486 E.76433
G1 X128.841 Y97.021 E.01648
G1 X110.768 Y78.947 E.78764
G1 X110.233 Y78.947 E.01648
G1 X128.841 Y97.555 E.81094
G1 X128.841 Y98.09 E.01648
G1 X109.698 Y78.947 E.83425
G1 X109.163 Y78.947 E.01648
G1 X128.841 Y98.625 E.85756
G1 X128.841 Y99.16 E.01648
G1 X116.446 Y86.764 E.54019
G1 X116.577 Y87.026 E.00903
G1 X116.818 Y87.672 E.02123
G1 X128.841 Y99.695 E.52395
G1 X128.841 Y100.229 E.01648
G1 X117.019 Y88.407 E.51521
G1 X117.127 Y89.05 E.02008
G1 X128.841 Y100.764 E.51052
G1 X128.841 Y101.053 E.0089
G1 X128.595 Y101.053 E.00758
G1 X117.179 Y89.637 E.49751
G1 X117.188 Y90.181 E.01676
G1 X128.06 Y101.053 E.4738
G1 X127.526 Y101.053 E.01648
G1 X117.163 Y90.69 E.45161
G1 X117.095 Y91.157 E.01455
G1 X126.991 Y101.053 E.43124
G1 X126.456 Y101.053 E.01648
G1 X117.015 Y91.612 E.41145
G1 X116.901 Y92.033 E.01344
M73 P1 R143
G1 X125.921 Y101.053 E.39311
G1 X125.386 Y101.053 E.01648
G1 X116.779 Y92.446 E.3751
G1 X116.631 Y92.832 E.01276
G1 X124.852 Y101.053 E.35826
G1 X124.317 Y101.053 E.01648
G1 X116.464 Y93.2 E.34224
G1 X116.285 Y93.557 E.01229
G1 X123.782 Y101.053 E.3267
G1 X123.247 Y101.053 E.01648
G1 X116.085 Y93.891 E.31211
G1 X115.875 Y94.215 E.01191
G1 X122.712 Y101.053 E.29798
G1 X122.178 Y101.053 E.01648
G1 X115.654 Y94.529 E.2843
G1 X115.415 Y94.825 E.01172
G1 X121.643 Y101.053 E.27142
G1 X121.108 Y101.053 E.01648
G1 X115.159 Y95.104 E.25924
G1 X114.894 Y95.374 E.01165
G1 X120.573 Y101.053 E.24749
G1 X120.038 Y101.053 E.01648
G1 X114.612 Y95.627 E.23648
G1 X114.317 Y95.866 E.01172
G1 X119.504 Y101.053 E.22605
G1 X118.969 Y101.053 E.01648
G1 X114.015 Y96.1 E.21587
G1 X113.691 Y96.31 E.01191
G1 X118.434 Y101.053 E.20669
G1 X117.899 Y101.053 E.01648
G1 X113.354 Y96.507 E.1981
G1 X113.002 Y96.69 E.01222
G1 X117.364 Y101.053 E.19013
G1 X116.83 Y101.053 E.01648
G1 X112.632 Y96.855 E.18294
G1 X112.245 Y97.003 E.01276
G1 X116.295 Y101.053 E.17648
G1 X115.76 Y101.053 E.01648
G1 X111.846 Y97.139 E.17059
G1 X111.422 Y97.25 E.0135
G1 X115.225 Y101.053 E.16575
G1 X114.69 Y101.053 E.01648
G1 X110.975 Y97.337 E.16193
G1 X110.506 Y97.404 E.01459
G1 X114.156 Y101.053 E.15904
G1 X113.621 Y101.053 E.01648
G1 X110.001 Y97.433 E.15776
G1 X109.48 Y97.447 E.01605
G1 X113.086 Y101.053 E.15715
G1 X112.551 Y101.053 E.01648
G1 X108.945 Y97.447 E.15715
G1 X108.41 Y97.447 E.01648
G1 X112.016 Y101.053 E.15715
G1 X111.482 Y101.053 E.01648
G1 X107.876 Y97.447 E.15715
G1 X107.341 Y97.447 E.01648
G1 X110.947 Y101.053 E.15715
G1 X110.412 Y101.053 E.01648
G1 X106.806 Y97.447 E.15715
G1 X106.271 Y97.447 E.01648
G1 X109.877 Y101.053 E.15715
G1 X109.342 Y101.053 E.01648
G1 X105.736 Y97.447 E.15715
G1 X105.202 Y97.447 E.01648
G1 X108.808 Y101.053 E.15715
G1 X108.273 Y101.053 E.01648
G1 X104.667 Y97.447 E.15715
G1 X104.132 Y97.447 E.01648
G1 X107.738 Y101.053 E.15715
G1 X107.203 Y101.053 E.01648
G1 X103.597 Y97.447 E.15715
G1 X103.062 Y97.447 E.01648
G1 X106.668 Y101.053 E.15715
G1 X106.134 Y101.053 E.01648
G1 X102.528 Y97.447 E.15715
G1 X101.993 Y97.447 E.01648
G1 X105.599 Y101.053 E.15715
G1 X105.064 Y101.053 E.01648
G1 X101.458 Y97.447 E.15715
G1 X100.923 Y97.447 E.01648
G1 X104.529 Y101.053 E.15715
G1 X103.994 Y101.053 E.01648
G1 X100.388 Y97.447 E.15715
G1 X99.854 Y97.447 E.01648
G1 X103.46 Y101.053 E.15715
G1 X102.925 Y101.053 E.01648
G1 X99.319 Y97.447 E.15715
G1 X98.784 Y97.447 E.01648
G1 X102.39 Y101.053 E.15715
G1 X101.855 Y101.053 E.01648
G1 X98.249 Y97.447 E.15715
G1 X97.714 Y97.447 E.01648
G1 X101.32 Y101.053 E.15715
G1 X100.786 Y101.053 E.01648
G1 X97.18 Y97.447 E.15715
G1 X96.645 Y97.447 E.01648
G1 X100.251 Y101.053 E.15715
G1 X99.716 Y101.053 E.01648
G1 X96.11 Y97.447 E.15715
G1 X95.575 Y97.447 E.01648
G1 X99.181 Y101.053 E.15715
G1 X98.646 Y101.053 E.01648
G1 X95.04 Y97.447 E.15715
G1 X94.506 Y97.447 E.01648
G1 X98.112 Y101.053 E.15715
G1 X97.577 Y101.053 E.01648
G1 X93.971 Y97.447 E.15715
G1 X93.436 Y97.447 E.01648
G1 X97.042 Y101.053 E.15715
G1 X96.507 Y101.053 E.01648
G1 X92.901 Y97.447 E.15715
G1 X92.366 Y97.447 E.01648
G1 X95.972 Y101.053 E.15715
G1 X95.438 Y101.053 E.01648
G1 X91.832 Y97.447 E.15715
G1 X91.297 Y97.447 E.01648
G1 X94.903 Y101.053 E.15715
G1 X94.368 Y101.053 E.01648
G1 X90.762 Y97.447 E.15715
G1 X90.227 Y97.447 E.01648
G1 X93.833 Y101.053 E.15715
G1 X93.298 Y101.053 E.01648
G1 X89.692 Y97.447 E.15715
G1 X89.158 Y97.447 E.01648
G1 X92.764 Y101.053 E.15715
G1 X92.229 Y101.053 E.01648
G1 X88.623 Y97.447 E.15715
G1 X88.088 Y97.447 E.01648
G1 X91.694 Y101.053 E.15715
G1 X91.159 Y101.053 E.01648
G1 X87.553 Y97.447 E.15715
G1 X87.018 Y97.447 E.01648
G1 X90.624 Y101.053 E.15715
G1 X90.09 Y101.053 E.01648
G1 X86.484 Y97.447 E.15715
G1 X85.949 Y97.447 E.01648
G1 X89.555 Y101.053 E.15715
G1 X89.02 Y101.053 E.01648
G1 X85.414 Y97.447 E.15715
G1 X84.879 Y97.447 E.01648
G1 X88.485 Y101.053 E.15715
G1 X87.95 Y101.053 E.01648
G1 X84.344 Y97.447 E.15715
G1 X83.809 Y97.447 E.01648
G1 X87.416 Y101.053 E.15715
G1 X86.881 Y101.053 E.01648
G1 X83.275 Y97.447 E.15715
G1 X82.74 Y97.447 E.01648
G1 X86.346 Y101.053 E.15715
G1 X85.811 Y101.053 E.01648
G1 X82.205 Y97.447 E.15715
G1 X81.67 Y97.447 E.01648
G1 X85.276 Y101.053 E.15715
G1 X84.742 Y101.053 E.01648
G1 X81.135 Y97.447 E.15715
G1 X80.601 Y97.447 E.01648
G1 X84.207 Y101.053 E.15715
G1 X83.672 Y101.053 E.01648
G1 X80.066 Y97.447 E.15715
G1 X79.531 Y97.447 E.01648
G1 X83.137 Y101.053 E.15715
G1 X82.602 Y101.053 E.01648
G1 X78.996 Y97.447 E.15715
G1 X78.461 Y97.447 E.01648
G1 X82.068 Y101.053 E.15715
G1 X81.533 Y101.053 E.01648
G1 X77.927 Y97.447 E.15715
G1 X77.392 Y97.447 E.01648
G1 X80.998 Y101.053 E.15715
G1 X80.463 Y101.053 E.01648
