; generated by PrusaSlicer 2.5.0+linux-x64-GTK3 on 2023-03-09 at 12:27:06 UTC

; 
;

; 
;

; 
;

; 

; external perimeters extrusion width = 0.45mm
; perimeters extrusion width = 0.45mm
; infill extrusion width = 0.45mm
; solid infill extrusion width = 0.45mm
; top infill extrusion width = 0.40mm
; support material extrusion width = 0.35mm
; first layer extrusion width = 0.42mm

M73 P0 R161
M201 X2500 Y2500 Z400 E5000 ; sets maximum accelerations, mm/sec^2
M203 X180 Y180 Z12 E80 ; sets maximum feedrates, mm / sec
M204 P1250 R1250 T2500 ; sets acceleration (P, T) and retract acceleration (R), mm/sec^2
M205 X8.00 Y8.00 Z2.00 E10.00 ; sets the jerk limits, mm/sec
M205 S0 T0 ; sets the minimum extruding and travel feed rate, mm/sec
M107
;TYPE:Custom
M862.3 P "MINI" ; printer model check
G90 ; use absolute coordinates
M83 ; extruder relative mode
M104 S170 ; set extruder temp for bed leveling
M140 S60 ; set bed temp
M109 R170 ; wait for bed leveling temp
M190 S60 ; wait for bed temp
M204 T1250 ; set travel acceleration
G28 ; home all without mesh bed level
G29 ; mesh bed leveling 
M204 T2500 ; restore travel acceleration
M104 S215 ; set extruder temp
G92 E0
G1 Y-2 X179 F2400
G1 Z3 F720
M109 S215 ; wait for extruder temp

; intro line
G1 X170 F1000
G1 Z0.2 F720
G1 X110 E8 F900
G1 X40 E10 F700
G92 E0

M221 S95 ; set flow
G21 ; set units to millimeters
G90 ; use absolute coordinates
M83 ; use relative distances for extrusion
M900 K0.05 ; Filament gcode LA 1.5
M900 K30 ; Filament gcode LA 1.0
M107
;LAYER_CHANGE
;Z:0.2
;HEIGHT:0.2
;BEFORE_LAYER_CHANGE
G92 E0.0
;0.2


G1 E-3.2 F4200
G1 Z.2 F720
;AFTER_LAYER_CHANGE
;0.2
G1 Z.4
G1 X45.202 Y32.293 F9000
G1 Z.2 F720
G1 E3.2 F2400
M204 P800
;TYPE:Skirt/Brim
;WIDTH:0.42
G1 F1200
G1 X45.495 Y31.89 E.01528
G1 X46.312 Y31.061 E.03578
G1 X47.283 Y30.419 E.03577
G1 X48.367 Y29.993 E.03578
G1 X49.021 Y29.854 E.02056
G1 X49.516 Y29.802 E.01527
G1 X83.934 Y29.802 E1.0576
G1 X84.429 Y29.854 E.01527
G1 X85.556 Y30.147 E.03578
G1 X86.167 Y30.419 E.02056
G1 X87.347 Y31.231 E.04404
G1 X132.144 Y72.293 E1.86723
G1 X133.493 Y73.775 E.06159
G1 X134.674 Y75.716 E.06981
G1 X135.326 Y77.557 E.06001
G1 X135.443 Y78.291 E.02285
G1 X135.443 Y138.291 E1.84363
G1 X135.051 Y139.598 E.04193
G1 X133.605 Y140.606 E.05416
G1 X83.44 Y152.299 E1.58274
G1 X82.901 Y152.361 E.01669
M73 P0 R160
G1 X76.309 Y152.361 E.20255
G1 X74.682 Y151.717 E.05375
G1 X72.095 Y149.279 E.10925
G1 X69.989 Y146.972 E.09597
G1 X69.627 Y146.449 E.01955
G1 X44.809 Y97.743 E1.67971
G1 X44.459 Y96.762 E.032
G1 X44.273 Y95.362 E.04339
G1 X44.286 Y35.113 E1.85126
G1 X44.459 Y33.962 E.03578
G1 X44.666 Y33.325 E.02056
G1 X45.175 Y32.346 E.03392
M204 P1000
; printing object  id:0 copy 0
G1 E-2.24 F4200
;WIPE_START
G1 F7200
G1 X45.495 Y31.89 E-.30843
G1 X46.259 Y31.114 E-.60357
;WIPE_END
G1 E-.048 F4200
G1 Z.4 F720
G1 X71.543 Y74.232 F9000
G1 Z.2 F720
G1 E3.2 F2400
M204 P800
;TYPE:Support material interface
;WIDTH:0.35
G1 F1200
G1 X71.543 Y73.85 E.00956
G1 X71.745 Y73.85 E.00505
G1 X71.745 Y85.386 E.28865
G1 X72.252 Y85.386 E.01269
G1 X72.252 Y73.85 E.28865
G1 X72.759 Y73.85 E.01269
G1 X72.759 Y85.386 E.28865
G1 X73.266 Y85.386 E.01269
G1 X73.266 Y73.85 E.28865
G1 X73.62 Y73.85 E.00885
M204 P1000
G1 E-2.24 F4200
;WIPE_START
G1 F7200
G1 X73.266 Y73.85 E-.19592
G1 X73.266 Y75.143 E-.71608
;WIPE_END
G1 E-.048 F4200
G1 Z.4 F720
G1 X79.597 Y72.207 F9000
G1 Z.2 F720
G1 E3.2 F2400
M204 P800
G1 F1200
G1 X79.72 Y72.332 E.0044
G1 X79.858 Y72.332 E.00346
G1 X79.858 Y78.465 E.15346
G1 X80.365 Y78.465 E.01269
G1 X80.366 Y72.332 E.15346
G1 X80.694 Y72.332 E.00822
G1 X80.873 Y72.37 E.00457
G1 X80.873 Y78.465 E.15251
G1 X81.38 Y78.465 E.01269
G1 X81.38 Y72.478 E.14981
G1 X81.887 Y72.585 E.01297
G1 X81.887 Y78.465 E.14712
G1 X82.394 Y78.465 E.01269
G1 X82.394 Y72.705 E.14414
G1 X82.901 Y72.93 E.01389
G1 X82.901 Y78.465 E.13849
G1 X83.079 Y78.465 E.00445
G1 X83.079 Y80.772 E.05773
G1 X82.901 Y80.772 E.00445
G1 X82.901 Y90 E.23092
G1 X82.394 Y90 E.01269
G1 X82.394 Y80.772 E.23092
G1 X81.887 Y80.772 E.01269
G1 X81.887 Y90 E.23092
G1 X81.38 Y90 E.01269
G1 X81.38 Y80.772 E.23092
G1 X80.873 Y80.772 E.01269
G1 X80.873 Y90 E.23092
G1 X80.365 Y90 E.01269
G1 X80.365 Y83.079 E.17319
G1 X79.858 Y83.079 E.01269
G1 X79.858 Y90 E.17319
G1 X79.351 Y90 E.01269
G1 X79.351 Y83.079 E.17319
G1 X78.844 Y83.079 E.01269
G1 X78.844 Y90 E.17319
G1 X78.465 Y90 E.0095
G1 X78.465 Y87.693 E.05773
G1 X78.337 Y87.693 E.00319
G1 X78.337 Y71.543 E.40411
G1 X78.844 Y71.543 E.01269
G1 X78.844 Y78.465 E.17319
G1 X79.351 Y78.465 E.01269
G1 X79.351 Y71.543 E.17319
M204 P1000
G1 X78.184 Y71.543 F9000
M204 P800
G1 F1200
G1 X77.83 Y71.543 E.00885
G1 X77.83 Y87.693 E.40411
G1 X77.323 Y87.693 E.01269
G1 X77.323 Y71.543 E.40411
G1 X76.816 Y71.543 E.01269
G1 X76.816 Y87.693 E.40411
G1 X76.309 Y87.693 E.01269
G1 X76.309 Y71.543 E.40411
G1 X75.802 Y71.543 E.01269
G1 X75.802 Y87.693 E.40411
G1 X75.295 Y87.693 E.01269
G1 X75.295 Y71.543 E.40411
G1 X74.788 Y71.543 E.01269
G1 X74.788 Y87.693 E.40411
G1 X74.281 Y87.693 E.01269
G1 X74.281 Y71.543 E.40411
G1 X73.85 Y71.543 E.01076
G1 X73.85 Y73.85 E.05773
G1 X73.773 Y73.85 E.00193
G1 X73.773 Y85.386 E.28865
G1 X73.85 Y85.386 E.00193
G1 X73.85 Y87.693 E.05773
M204 P1000
G1 E-2.24 F4200
;WIPE_START
G1 F7200
G1 X73.85 Y86.047 E-.912
;WIPE_END
G1 E-.048 F4200
G1 Z.4 F720
G1 X83.147 Y87.693 F9000
G1 Z.2 F720
G1 E3.2 F2400
M204 P800
G1 F1200
G1 X83.408 Y87.693 E.00654
G1 X83.408 Y73.85 E.34638
G1 X83.915 Y73.85 E.01269
G1 X83.915 Y87.693 E.34638
G1 X84.422 Y87.693 E.01269
G1 X84.422 Y73.85 E.34638
G1 X84.549 Y73.85 E.00318
G1 X84.929 Y74.127 E.01176
G1 X84.929 Y87.693 E.33947
G1 X85.386 Y87.693 E.01143
G1 X85.386 Y85.386 E.05773
G1 X85.436 Y85.386 E.00126
G1 X85.436 Y76.158 E.23092
G1 X85.386 Y76.158 E.00126
G1 X85.386 Y74.51 E.04124
M204 P1000
G1 E-2.24 F4200
;WIPE_START
G1 F7200
G1 X85.386 Y76.155 E-.912
;WIPE_END
G1 E-.048 F4200
G1 Z.4 F720
G1 X85.59 Y76.158 F9000
G1 Z.2 F720
G1 E3.2 F2400
M204 P800
G1 F1200
G1 X85.943 Y76.158 E.00885
G1 X85.943 Y85.386 E.23092
G1 X86.45 Y85.386 E.01269
G1 X86.45 Y76.158 E.23092
G1 X86.695 Y76.158 E.00611
G1 X86.958 Y76.613 E.01315
G1 X86.958 Y85.386 E.21954
G1 X87.465 Y85.386 E.01269
G1 X87.465 Y77.812 E.18953
M204 P1000
G1 E-2.24 F4200
;WIPE_START
G1 F7200
G1 X87.465 Y79.458 E-.912
;WIPE_END
G1 E-.048 F4200
G1 Z.4 F720
G1 X87.71 Y80.772 F9000
G1 Z.2 F720
G1 E3.2 F2400
M204 P800
G1 F1200
G1 X87.972 Y80.772 E.00654
G1 X87.972 Y80.138 E.01585
G1 X88.135 Y80.285 E.00549
G1 X88.479 Y80.285 E.00861
G1 X88.479 Y80.772 E.01217
G1 X88.986 Y80.772 E.01269
G1 X88.986 Y80.285 E.01217
G1 X89.493 Y80.285 E.01269
G1 X89.493 Y80.772 E.01217
G1 X90 Y80.772 E.01269
G1 X90 Y80.285 E.01217
M204 P1000
G1 E-2.24 F4200
;WIPE_START
G1 F7200
G1 X90 Y80.772 E-.26953
G1 X89.493 Y80.772 E-.28101
G1 X89.493 Y80.285 E-.26953
G1 X89.327 Y80.285 E-.09193
;WIPE_END
G1 E-.048 F4200
G1 Z.4 F720
G1 X71.543 Y134.216 F9000
G1 Z.2 F720
G1 E3.2 F2400
M204 P800
G1 F1200
G1 X71.543 Y133.835 E.00956
G1 X71.745 Y133.835 E.00505
G1 X71.745 Y145.37 E.28865
G1 X72.252 Y145.37 E.01269
G1 X72.252 Y133.835 E.28865
G1 X72.759 Y133.835 E.01269
G1 X72.759 Y145.37 E.28865
G1 X73.266 Y145.37 E.01269
G1 X73.266 Y133.835 E.28865
G1 X73.62 Y133.835 E.00885
M204 P1000
G1 E-2.24 F4200
;WIPE_START
G1 F7200
G1 X73.266 Y133.835 E-.19592
G1 X73.266 Y135.127 E-.71608
;WIPE_END
G1 E-.048 F4200
G1 Z.4 F720
G1 X79.597 Y132.207 F9000
G1 Z.2 F720
G1 E3.2 F2400
M204 P800
G1 F1200
G1 X79.72 Y132.332 E.0044
G1 X79.858 Y132.332 E.00345
G1 X79.858 Y138.449 E.15306
G1 X80.365 Y138.449 E.01269
G1 X80.365 Y132.332 E.15306
G1 X80.694 Y132.332 E.00822
G1 X80.873 Y132.37 E.00457
G1 X80.873 Y138.449 E.15211
G1 X81.38 Y138.449 E.01269
G1 X81.38 Y132.478 E.14941
G1 X81.887 Y132.585 E.01297
G1 X81.887 Y138.449 E.14672
G1 X82.394 Y138.449 E.01269
G1 X82.394 Y132.705 E.14374
G1 X82.901 Y132.93 E.01389
G1 X82.901 Y138.449 E.13809
G1 X83.079 Y138.449 E.00445
G1 X83.079 Y140.756 E.05773
G1 X82.901 Y140.756 E.00445
G1 X82.901 Y149.984 E.23092
G1 X82.394 Y149.984 E.01269
G1 X82.394 Y140.756 E.23092
G1 X81.887 Y140.756 E.01269
G1 X81.887 Y149.984 E.23092
G1 X81.38 Y149.984 E.01269
G1 X81.38 Y140.756 E.23092
G1 X80.873 Y140.756 E.01269
G1 X80.873 Y149.984 E.23092
G1 X80.365 Y149.984 E.01269
G1 X80.365 Y143.063 E.17319
G1 X79.858 Y143.063 E.01269
G1 X79.858 Y149.984 E.17319
G1 X79.351 Y149.984 E.01269
G1 X79.351 Y143.063 E.17319
G1 X78.844 Y143.063 E.01269
G1 X78.844 Y149.984 E.17319
G1 X78.337 Y149.984 E.01269
G1 X78.337 Y131.527 E.46184
G1 X78.844 Y131.527 E.01269
G1 X78.844 Y138.449 E.17319
G1 X79.351 Y138.449 E.01269
G1 X79.351 Y131.527 E.17319
M204 P1000
G1 X78.184 Y131.527 F9000
M204 P800
G1 F1200
G1 X77.83 Y131.527 E.00885
G1 X77.83 Y149.984 E.46184
G1 X77.323 Y149.984 E.01269
G1 X77.323 Y131.527 E.46184
G1 X76.816 Y131.527 E.01269
G1 X76.816 Y149.984 E.46184
G1 X76.309 Y149.984 E.01269
G1 X76.309 Y131.527 E.46184
M204 P1000
G1 E-2.24 F4200
;WIPE_START
G1 F7200
G1 X76.309 Y133.173 E-.912
;WIPE_END
G1 E-.048 F4200
G1 Z.4 F720
G1 X76.063 Y133.835 F9000
G1 Z.2 F720
G1 E3.2 F2400
M204 P800
G1 F1200
G1 X75.802 Y133.835 E.00654
G1 X75.802 Y147.677 E.34638
G1 X75.295 Y147.677 E.01269
G1 X75.295 Y133.835 E.34638
G1 X74.788 Y133.835 E.01269
G1 X74.788 Y147.677 E.34638
G1 X74.281 Y147.677 E.01269
G1 X74.281 Y133.835 E.34638
G1 X73.773 Y133.835 E.01269
G1 X73.773 Y145.37 E.28865
G1 X73.85 Y145.37 E.00193
G1 X73.85 Y147.677 E.05773
M204 P1000
G1 E-2.24 F4200
;WIPE_START
G1 F7200
G1 X73.85 Y146.031 E-.912
;WIPE_END
G1 E-.048 F4200
G1 Z.4 F720
G1 X83.147 Y147.677 F9000
G1 Z.2 F720
G1 E3.2 F2400
M204 P800
G1 F1200
G1 X83.408 Y147.677 E.00654
G1 X83.408 Y133.835 E.34638
G1 X83.915 Y133.835 E.01269
G1 X83.915 Y147.677 E.34638
G1 X84.422 Y147.677 E.01269
G1 X84.422 Y133.835 E.34638
G1 X84.527 Y133.835 E.00263
G1 X84.929 Y134.127 E.01243
G1 X84.929 Y147.677 E.33907
G1 X85.386 Y147.677 E.01143
G1 X85.386 Y145.37 E.05773
G1 X85.436 Y145.37 E.00126
G1 X85.436 Y136.142 E.23092
G1 X85.386 Y136.142 E.00126
G1 X85.386 Y134.51 E.04084
M204 P1000
G1 E-2.24 F4200
;WIPE_START
G1 F7200
G1 X85.386 Y136.142 E-.90444
G1 X85.4 Y136.142 E-.00756
;WIPE_END
G1 E-.048 F4200
G1 Z.4 F720
G1 X85.59 Y136.142 F9000
G1 Z.2 F720
G1 E3.2 F2400
M204 P800
G1 F1200
G1 X85.943 Y136.142 E.00885
G1 X85.943 Y145.37 E.23092
G1 X86.45 Y145.37 E.01269
M73 P0 R159
G1 X86.45 Y136.142 E.23092
G1 X86.686 Y136.142 E.00588
G1 X86.958 Y136.613 E.01361
G1 X86.958 Y145.37 E.21914
G1 X87.465 Y145.37 E.01269
G1 X87.465 Y137.812 E.18913
M204 P1000
G1 E-2.24 F4200
;WIPE_START
G1 F7200
G1 X87.465 Y139.458 E-.912
;WIPE_END
G1 E-.048 F4200
G1 Z.4 F720
G1 X87.71 Y140.756 F9000
G1 Z.2 F720
G1 E3.2 F2400
M204 P800
G1 F1200
G1 X87.972 Y140.756 E.00654
G1 X87.972 Y140.138 E.01545
G1 X88.135 Y140.285 E.0055
G1 X88.479 Y140.285 E.00861
G1 X88.479 Y140.756 E.01177
G1 X88.986 Y140.756 E.01269
G1 X88.986 Y140.285 E.01177
G1 X89.493 Y140.285 E.01269
G1 X89.493 Y140.756 E.01177
G1 X90 Y140.756 E.01269
G1 X90 Y140.285 E.01177
M204 P1000
G1 E-2.24 F4200
;WIPE_START
G1 F7200
G1 X90 Y140.756 E-.2607
G1 X89.493 Y140.756 E-.28101
G1 X89.493 Y140.285 E-.2607
G1 X89.295 Y140.285 E-.10959
;WIPE_END
G1 E-.048 F4200
G1 Z.4 F720
G1 X52.373 Y96.457 F9000
G1 Z.2 F720
G1 E3.2 F2400
M204 P800
;TYPE:Perimeter
;WIDTH:0.419999
G1 F1200
G1 X52.548 Y95.967 E.01599
G1 X52.61 Y95.46 E.01569
G1 X52.57 Y94.884 E.01775
G1 X52.412 Y94.329 E.01773
G1 X52.141 Y93.819 E.01775
G1 X51.733 Y93.343 E.01924
G1 X83.812 Y93.343 E.98569
G1 X84.227 Y93.432 E.01304
G1 X84.615 Y93.604 E.01304
G1 X85.003 Y93.887 E.01476
G1 X128.245 Y133.523 E1.80242
G1 X127.311 Y133.107 E.03142
G1 X127.123 Y133.046 E.00606
G1 X125.749 Y132.754 E.04319
G1 X125.553 Y132.733 E.00605
G1 X124.147 Y132.733 E.04318
G1 X123.951 Y132.754 E.00606
G1 X122.577 Y133.046 E.04319
G1 X122.389 Y133.107 E.00606
G1 X121.105 Y133.679 E.04318
G1 X120.935 Y133.777 E.00606
G1 X119.692 Y134.694 E.04744
G1 X115.664 Y138.698 E.17451
G1 X89.346 Y138.698 E.8087
G1 X89.279 Y138.257 E.0137
G1 X88.863 Y136.978 E.04133
G1 X88.635 Y136.343 E.02074
G1 X87.607 Y134.604 E.06206
G1 X86.387 Y133.249 E.05603
G1 X86.241 Y133.117 E.00605
G1 X84.765 Y132.045 E.05603
G1 X84.595 Y131.947 E.00606
G1 X82.741 Y131.144 E.06206
G1 X81.077 Y130.79 E.05228
G1 X81.317 Y113.336 E.53638
G1 X81.304 Y113.167 E.00521
G1 X81.224 Y112.914 E.00815
M73 P1 R159
G1 X80.997 Y112.615 E.01154
G1 X80.7 Y112.438 E.01063
G1 X80.375 Y112.38 E.01015
G1 X79.638 Y112.38 E.02264
G1 X79.223 Y112.292 E.01304
G1 X78.747 Y112.08 E.016
G1 X50.617 Y98.015 E.9664
G1 X51.145 Y97.801 E.0175
G1 X51.624 Y97.479 E.01774
G1 X52.025 Y97.064 E.01774
G1 X52.331 Y96.575 E.01775
G1 X52.353 Y96.514 E.00198
M204 P1000
G1 X52.026 Y96.327 F9000
M204 P800
G1 F1200
G1 X52.171 Y95.915 E.01342
G1 X52.235 Y95.421 E.01532
G1 X52.195 Y94.924 E.01533
G1 X52.053 Y94.446 E.01532
G1 X51.814 Y94.008 E.01533
G1 X51.49 Y93.629 E.01532
G1 X51.094 Y93.326 E.01532
G1 X50.643 Y93.112 E.01533
;WIDTH:0.44981
G1 X50.161 Y92.981 E.01656
G1 X50.674 Y92.966 E.01702
;WIDTH:0.419999
G1 X83.852 Y92.966 E1.01945
G1 X84.344 Y93.071 E.01547
G1 X84.804 Y93.276 E.01547
G1 X85.242 Y93.594 E.01664
G1 X127.746 Y132.554 E1.77166
;WIDTH:0.456916
G1 X128.252 Y133.042 E.02371
;WIDTH:0.493832
G1 X128.757 Y133.531 E.02583
;WIDTH:0.526134
G1 X128.88 Y133.666 E.00719
G1 X129.412 Y134.126 E.02768
;WIDTH:0.486199
G1 X129.943 Y134.586 E.02539
;WIDTH:0.446264
G1 X130.07 Y134.716 E.00597
;WIDTH:0.438901
G1 X131.01 Y135.761 E.04535
G1 X131.133 Y135.93 E.00676
;WIDTH:0.442999
G1 X131.802 Y137.093 E.04371
G1 X131.338 Y137.093 E.0151
G1 X130.716 Y136.026 E.04027
;WIDTH:0.43892
G1 X129.776 Y134.981 E.04535
;WIDTH:0.446264
G1 X129.689 Y134.898 E.00396
;WIDTH:0.486199
G1 X129.132 Y134.468 E.02539
;WIDTH:0.526134
G1 X128.575 Y134.039 E.02768
G1 X128.456 Y133.989 E.00507
;WIDTH:0.493832
G1 X127.807 Y133.72 E.02583
;WIDTH:0.456916
G1 X127.157 Y133.451 E.02371
;WIDTH:0.419999
G1 X125.67 Y133.123 E.0468
G1 X124.147 Y133.11 E.0468
G1 X122.655 Y133.415 E.0468
G1 X121.259 Y134.023 E.0468
G1 X119.958 Y134.961 E.04928
G1 X115.82 Y139.075 E.17929
G1 X89.006 Y139.075 E.82391
G1 X88.92 Y138.374 E.02171
G1 X88.308 Y136.531 E.05965
G1 X87.327 Y134.856 E.05965
G1 X86.107 Y133.501 E.05603
G1 X84.544 Y132.35 E.05965
G1 X83.546 Y131.892 E.03372
G1 X82.663 Y131.513 E.02954
G1 X80.879 Y131.134 E.05603
G1 X80.695 Y131.121 E.00566
G1 X80.94 Y113.331 E.54671
G1 X80.932 Y113.229 E.00313
G1 X80.828 Y112.985 E.00816
G1 X80.619 Y112.813 E.00834
G1 X80.375 Y112.757 E.00769
G1 X79.598 Y112.757 E.02385
G1 X79.106 Y112.653 E.01547
G1 X78.586 Y112.421 E.01747
G1 X49.614 Y97.935 E.99533
;WIDTH:0.46809
G1 X49.118 Y97.66 E.01962
G1 X49.542 Y97.728 E.01487
;WIDTH:0.419999
G1 X50.04 Y97.74 E.01532
G1 X50.531 Y97.649 E.01532
G1 X50.991 Y97.457 E.01533
G1 X51.402 Y97.174 E.01532
G1 X51.745 Y96.812 E.01532
G1 X52.006 Y96.384 E.01539
M204 P1000
G1 X51.668 Y96.215 F9000
M204 P800
;TYPE:External perimeter
G1 F1200
G1 X51.465 Y96.559 E.01229
G1 X51.18 Y96.869 E.01291
G1 X50.838 Y97.112 E.01291
G1 X50.452 Y97.28 E.01292
G1 X50.04 Y97.363 E.01291
G1 X49.62 Y97.359 E.01291
G1 X49.21 Y97.268 E.01292
G1 X48.828 Y97.093 E.01291
G1 X48.49 Y96.842 E.01291
G1 X48.212 Y96.527 E.01291
G1 X48.006 Y96.161 E.01292
G1 X47.88 Y95.761 E.01291
G1 X47.84 Y95.382 E.01171
G1 X47.888 Y94.925 E.01412
G1 X48.022 Y94.526 E.01291
G1 X48.235 Y94.164 E.01292
G1 X48.52 Y93.855 E.01291
G1 X48.862 Y93.611 E.01291
G1 X49.248 Y93.444 E.01292
G1 X49.66 Y93.361 E.01291
G1 X50.08 Y93.365 E.01291
G1 X50.49 Y93.456 E.01292
G1 X50.872 Y93.631 E.01291
G1 X51.21 Y93.881 E.01291
G1 X51.488 Y94.196 E.01291
G1 X51.694 Y94.562 E.01292
G1 X51.82 Y94.963 E.01291
G1 X51.86 Y95.382 E.01292
G1 X51.812 Y95.799 E.01291
G1 X51.691 Y96.16 E.0117
M204 P1000
G1 X51.899 Y96.541 F9000
G1 E-2.24 F4200
;WIPE_START
G1 F7200
G1 X51.465 Y96.559 E-.25444
G1 X51.18 Y96.869 E-.23284
G1 X50.838 Y97.112 E-.23286
G1 X50.52 Y97.25 E-.19186
;WIPE_END
G1 E-.048 F4200
G1 Z.4 F720
G1 X80.375 Y113.134 F9000
G1 Z.2 F720
G1 E3.2 F2400
M204 P800
G1 F1200
G1 X79.559 Y113.134 E.02507
