; generated by PrusaSlicer 2.5.0+linux-x64-GTK3 on 2023-03-09 at 12:37:31 UTC

; 
;

; 
;

; 
;

; 

; external perimeters extrusion width = 0.45mm
; perimeters extrusion width = 0.45mm
; infill extrusion width = 0.45mm
; solid infill extrusion width = 0.45mm
; top infill extrusion width = 0.40mm
; support material extrusion width = 0.35mm
; first layer extrusion width = 0.42mm

M73 P0 R23
M201 X2500 Y2500 Z400 E5000 ; sets maximum accelerations, mm/sec^2
M203 X180 Y180 Z12 E80 ; sets maximum feedrates, mm / sec
M204 P1250 R1250 T2500 ; sets acceleration (P, T) and retract acceleration (R), mm/sec^2
M205 X8.00 Y8.00 Z2.00 E10.00 ; sets the jerk limits, mm/sec
M205 S0 T0 ; sets the minimum extruding and travel feed rate, mm/sec
M107
;TYPE:Custom
M862.3 P "MINI" ; printer model check
G90 ; use absolute coordinates
M83 ; extruder relative mode
M104 S170 ; set extruder temp for bed leveling
M140 S60 ; set bed temp
M109 R170 ; wait for bed leveling temp
M190 S60 ; wait for bed temp
M204 T1250 ; set travel acceleration
G28 ; home all without mesh bed level
G29 ; mesh bed leveling 
M204 T2500 ; restore travel acceleration
M104 S215 ; set extruder temp
G92 E0
G1 Y-2 X179 F2400
G1 Z3 F720
M109 S215 ; wait for extruder temp

; intro line
G1 X170 F1000
G1 Z0.2 F720
G1 X110 E8 F900
G1 X40 E10 F700
G92 E0

M221 S95 ; set flow
G21 ; set units to millimeters
G90 ; use absolute coordinates
M83 ; use relative distances for extrusion
M900 K0.05 ; Filament gcode LA 1.5
M900 K30 ; Filament gcode LA 1.0
M107
;LAYER_CHANGE
;Z:0.2
;HEIGHT:0.2
;BEFORE_LAYER_CHANGE
G92 E0.0
;0.2


G1 E-3.2 F4200
M73 P1 R23
G1 Z.2 F720
;AFTER_LAYER_CHANGE
;0.2
G1 Z.4
G1 X64.06 Y82.817 F9000
G1 Z.2 F720
G1 E3.2 F2400
M204 P800
;TYPE:Skirt/Brim
;WIDTH:0.42
G1 F1200
G1 X65 Y82.623 E.02948
G1 X115 Y82.623 E1.53636
G1 X116.307 Y83.015 E.04193
G1 X117.183 Y84.06 E.04193
G1 X117.377 Y85 E.02948
G1 X117.377 Y95 E.30727
G1 X116.985 Y96.307 E.04193
G1 X115.94 Y97.183 E.04193
G1 X115 Y97.377 E.02948
G1 X65 Y97.377 E1.53636
G1 X63.693 Y96.985 E.04193
M73 P1 R22
G1 X62.817 Y95.94 E.04193
G1 X62.623 Y95 E.02948
G1 X62.623 Y85 E.30727
G1 X63.015 Y83.693 E.04193
G1 X64.014 Y82.855 E.04008
M204 P1000
; printing object  id:0 copy 0
G1 E-2.24 F4200
;WIPE_START
G1 F7200
G1 X65 Y82.623 E-.56121
G1 X65.633 Y82.623 E-.35079
;WIPE_END
G1 E-.048 F4200
G1 Z.4 F720
G1 X73.836 Y93.836 F9000
G1 Z.2 F720
G1 E3.2 F2400
M204 P800
;TYPE:Perimeter
;WIDTH:0.419999
G1 F1200
G1 X66.164 Y93.836 E.23573
G1 X66.164 Y86.164 E.23573
G1 X73.836 Y86.164 E.23573
G1 X73.836 Y93.776 E.23389
M204 P1000
G1 X74.213 Y94.213 F9000
M204 P800
G1 F1200
G1 X65.787 Y94.213 E.2589
G1 X65.787 Y85.787 E.2589
G1 X74.213 Y85.787 E.2589
G1 X74.213 Y94.153 E.25706
M204 P1000
G1 X74.59 Y94.59 F9000
M204 P800
;TYPE:External perimeter
G1 F1200
G1 X65.41 Y94.59 E.28208
G1 X65.41 Y85.41 E.28208
G1 X74.59 Y85.41 E.28208
G1 X74.59 Y94.53 E.28023
M204 P1000
M73 P2 R22
G1 X74.204 Y94.486 F9000
G1 E-2.24 F4200
;WIPE_START
G1 F7200
G1 X72.944 Y94.541 E-.912
;WIPE_END
G1 E-.048 F4200
G1 Z.4 F720
G1 X73.723 Y87.041 F9000
G1 Z.2 F720
G1 E3.2 F2400
M204 P800
;TYPE:Solid infill
;WIDTH:0.420878
G1 F1200
G1 X73.128 Y86.447 E.02589
G1 X72.594 Y86.447 E.01646
G1 X73.553 Y87.406 E.04178
G1 X73.553 Y87.941 E.01646
G1 X72.059 Y86.447 E.06506
G1 X71.525 Y86.447 E.01646
G1 X73.553 Y88.475 E.08834
G1 X73.553 Y89.01 E.01646
G1 X70.99 Y86.447 E.11163
G1 X70.456 Y86.447 E.01646
G1 X73.553 Y89.544 E.13491
G1 X73.553 Y90.079 E.01646
G1 X69.921 Y86.447 E.15819
G1 X69.387 Y86.447 E.01646
G1 X73.553 Y90.613 E.18147
G1 X73.553 Y91.148 E.01646
G1 X68.852 Y86.447 E.20475
G1 X68.318 Y86.447 E.01646
G1 X73.553 Y91.682 E.22803
G1 X73.553 Y92.217 E.01646
G1 X67.783 Y86.447 E.25131
G1 X67.249 Y86.447 E.01646
G1 X73.553 Y92.751 E.2746
G1 X73.553 Y93.286 E.01646
G1 X66.714 Y86.447 E.29788
G1 X66.447 Y86.447 E.00823
G1 X66.447 Y86.714 E.00823
G1 X73.286 Y93.553 E.29787
G1 X72.751 Y93.553 E.01646
G1 X66.447 Y87.249 E.27459
G1 X66.447 Y87.783 E.01646
G1 X72.217 Y93.553 E.25131
G1 X71.682 Y93.553 E.01646
G1 X66.447 Y88.318 E.22803
G1 X66.447 Y88.852 E.01646
G1 X71.148 Y93.553 E.20475
G1 X70.613 Y93.553 E.01646
G1 X66.447 Y89.387 E.18146
G1 X66.447 Y89.921 E.01646
G1 X70.079 Y93.553 E.15818
G1 X69.544 Y93.553 E.01646
G1 X66.447 Y90.456 E.1349
G1 X66.447 Y90.99 E.01646
G1 X69.01 Y93.553 E.11162
G1 X68.475 Y93.553 E.01646
G1 X66.447 Y91.525 E.08834
G1 X66.447 Y92.059 E.01646
G1 X67.941 Y93.553 E.06506
G1 X67.406 Y93.553 E.01646
G1 X66.447 Y92.594 E.04178
G1 X66.447 Y93.128 E.01646
G1 X67.041 Y93.723 E.02589
M204 P1000
G1 E-2.24 F4200
;WIPE_START
G1 F7200
G1 X66.447 Y93.128 E-.46577
G1 X66.447 Y92.594 E-.29621
G1 X66.638 Y92.785 E-.15002
;WIPE_END
G1 E-.048 F4200
G1 Z.4 F720
G1 X93.836 Y93.836 F9000
G1 Z.2 F720
G1 E3.2 F2400
M204 P800
;TYPE:Perimeter
;WIDTH:0.419999
G1 F1200
G1 X86.164 Y93.836 E.23573
G1 X86.164 Y86.164 E.23573
G1 X93.836 Y86.164 E.23573
G1 X93.836 Y93.776 E.23389
M204 P1000
G1 X94.213 Y94.213 F9000
M204 P800
G1 F1200
G1 X85.787 Y94.213 E.2589
G1 X85.787 Y85.787 E.2589
G1 X94.213 Y85.787 E.2589
G1 X94.213 Y94.153 E.25706
M204 P1000
G1 X94.59 Y94.59 F9000
M204 P800
;TYPE:External perimeter
G1 F1200
G1 X85.41 Y94.59 E.28208
G1 X85.41 Y85.41 E.28208
G1 X94.59 Y85.41 E.28208
G1 X94.59 Y94.53 E.28023
M204 P1000
M73 P3 R22
G1 X94.204 Y94.486 F9000
G1 E-2.24 F4200
;WIPE_START
G1 F7200
G1 X92.944 Y94.541 E-.912
;WIPE_END
G1 E-.048 F4200
G1 Z.4 F720
G1 X87.529 Y91.198 F9000
G1 Z.2 F720
G1 E3.2 F2400
M204 P800
;TYPE:Perimeter
G1 F1200
G1 X87.406 Y90.947 E.00858
G1 X87.247 Y90.148 E.02504
G1 X87.278 Y89.539 E.01873
G1 X87.54 Y88.756 E.02538
G1 X87.883 Y88.227 E.01937
G1 X88.298 Y87.826 E.01774
G1 X88.788 Y87.519 E.01774
G1 X89.33 Y87.321 E.01774
G1 X89.885 Y87.242 E.01724
G1 X90.706 Y87.335 E.02538
G1 X91.294 Y87.561 E.01937
G1 X91.773 Y87.883 E.01774
G1 X92.174 Y88.298 E.01774
G1 X92.481 Y88.788 E.01774
G1 X92.679 Y89.33 E.01774
G1 X92.759 Y89.901 E.01774
G1 X92.72 Y90.477 E.01774
G1 X92.561 Y91.032 E.01774
G1 X92.29 Y91.542 E.01774
G1 X91.92 Y91.985 E.01774
G1 X91.465 Y92.34 E.01774
G1 X90.947 Y92.594 E.01772
G1 X90.148 Y92.753 E.02504
G1 X89.523 Y92.72 E.01923
G1 X88.968 Y92.561 E.01774
G1 X88.458 Y92.29 E.01774
G1 X88.015 Y91.92 E.01774
G1 X87.66 Y91.465 E.01774
G1 X87.555 Y91.252 E.0073
M204 P1000
G1 X87.773 Y90.816 F9000
M204 P800
G1 F1200
G1 X87.71 Y90.661 E.00514
G1 X87.62 Y90.089 E.01781
G1 X87.653 Y89.578 E.01574
G1 X87.893 Y88.889 E.0224
G1 X88.189 Y88.448 E.0163
G1 X88.646 Y88.036 E.01893
G1 X89.084 Y87.798 E.01532
G1 X89.561 Y87.656 E.01529
G1 X90.071 Y87.62 E.01571
G1 X90.649 Y87.708 E.01795
G1 X91.141 Y87.906 E.0163
G1 X91.637 Y88.265 E.01883
G1 X91.964 Y88.646 E.01542
G1 X92.202 Y89.084 E.01532
G1 X92.345 Y89.562 E.01532
G1 X92.384 Y90.059 E.01532
G1 X92.32 Y90.554 E.01532
G1 X92.154 Y91.024 E.01532
G1 X91.894 Y91.449 E.01532
G1 X91.552 Y91.811 E.01532
G1 X91.141 Y92.094 E.01532
G1 X90.661 Y92.29 E.01591
G1 X90.089 Y92.38 E.01782
G1 X89.562 Y92.345 E.01621
G1 X88.976 Y92.154 E.01893
G1 X88.551 Y91.894 E.01532
G1 X88.189 Y91.552 E.01532
G1 X87.906 Y91.141 E.01532
G1 X87.796 Y90.872 E.00893
M204 P1000
G1 X88.002 Y89.935 F9000
M204 P800
;TYPE:External perimeter
G1 F1200
G1 X88.039 Y89.569 E.0113
G1 X88.246 Y89.022 E.01795
G1 X88.52 Y88.641 E.01444
G1 X88.835 Y88.363 E.01291
G1 X89.201 Y88.156 E.01291
G1 X89.601 Y88.03 E.0129
G1 X90.014 Y87.993 E.01274
G1 X90.592 Y88.081 E.01795
G1 X91.022 Y88.27 E.01444
G1 X91.359 Y88.52 E.01291
G1 X91.637 Y88.835 E.01291
G1 X91.844 Y89.201 E.01291
G1 X91.97 Y89.602 E.01291
G1 X92.009 Y90.02 E.01291
G1 X91.961 Y90.437 E.01291
G1 X91.828 Y90.835 E.01291
G1 X91.614 Y91.197 E.01291
G1 X91.33 Y91.506 E.01291
G1 X90.988 Y91.75 E.01291
G1 X90.593 Y91.919 E.01319
G1 X90.029 Y92.008 E.01753
G1 X89.563 Y91.961 E.01441
G1 X89.165 Y91.828 E.01291
G1 X88.803 Y91.614 E.01291
G1 X88.494 Y91.33 E.01291
G1 X88.25 Y90.988 E.01291
G1 X88.081 Y90.593 E.01319
G1 X87.996 Y89.994 E.01858
M204 P1000
G1 X87.682 Y89.754 F9000
G1 E-2.24 F4200
;WIPE_START
G1 F7200
G1 X88.039 Y89.569 E-.23705
G1 X88.246 Y89.022 E-.32374
G1 X88.52 Y88.641 E-.26036
G1 X88.643 Y88.532 E-.09085
;WIPE_END
G1 E-.048 F4200
G1 Z.4 F720
G1 X93.723 Y87.041 F9000
G1 Z.2 F720
G1 E3.2 F2400
M204 P800
;TYPE:Solid infill
;WIDTH:0.420877
G1 F1200
G1 X93.128 Y86.447 E.02589
G1 X92.594 Y86.447 E.01646
G1 X93.553 Y87.406 E.04178
G1 X93.553 Y87.941 E.01646
G1 X92.059 Y86.447 E.06506
G1 X91.525 Y86.447 E.01646
G1 X93.553 Y88.475 E.08834
G1 X93.553 Y89.01 E.01646
G1 X90.99 Y86.447 E.11163
G1 X90.456 Y86.447 E.01646
G1 X91.233 Y87.224 E.03385
G1 X91.627 Y87.428 E.01367
G1 X91.943 Y87.657 E.01203
G1 X92.122 Y87.817 E.00739
G1 X92.388 Y88.113 E.01224
G1 X92.533 Y88.312 E.00759
G1 X92.783 Y88.775 E.0162
G1 X93.723 Y89.714 E.04092
M204 P1000
G1 X92.79 Y89.316 F9000
M204 P800
G1 F1200
G1 X93.553 Y90.079 E.03323
G1 X93.553 Y90.613 E.01646
G1 X93.038 Y90.098 E.02243
G1 X92.99 Y90.585 E.01505
G1 X93.553 Y91.148 E.02453
G1 X93.553 Y91.682 E.01646
G1 X92.867 Y90.996 E.02988
G1 X92.713 Y91.376 E.01263
G1 X93.553 Y92.217 E.03661
G1 X93.553 Y92.751 E.01646
G1 X92.515 Y91.713 E.04523
G1 X92.277 Y92.01 E.01171
G1 X93.553 Y93.286 E.05557
G1 X93.553 Y93.553 E.00823
G1 X93.286 Y93.553 E.00823
G1 X92.013 Y92.28 E.05544
G1 X91.71 Y92.512 E.01174
G1 X92.751 Y93.553 E.04535
G1 X92.217 Y93.553 E.01646
G1 X91.376 Y92.712 E.03662
G1 X91.001 Y92.871 E.01256
G1 X91.682 Y93.553 E.02969
G1 X91.148 Y93.553 E.01646
G1 X90.564 Y92.969 E.02543
G1 X90.095 Y93.035 E.01458
G1 X90.613 Y93.553 E.02257
G1 X90.079 Y93.553 E.01646
G1 X89.316 Y92.79 E.03323
M204 P1000
G1 E-2.24 F4200
;WIPE_START
G1 F7200
G1 X90.079 Y93.553 E-.59788
G1 X90.613 Y93.553 E-.29621
G1 X90.59 Y93.53 E-.01792
;WIPE_END
G1 E-.048 F4200
G1 Z.4 F720
G1 X90.693 Y87.219 F9000
G1 Z.2 F720
G1 E3.2 F2400
M204 P800
G1 F1200
G1 X89.921 Y86.447 E.03364
G1 X89.387 Y86.447 E.01646
G1 X89.9 Y86.961 E.02238
G1 X89.415 Y87.01 E.01502
G1 X88.852 Y86.447 E.02453
G1 X88.318 Y86.447 E.01646
G1 X89.002 Y87.131 E.02978
G1 X88.624 Y87.287 E.0126
G1 X87.783 Y86.447 E.03661
G1 X87.249 Y86.447 E.01646
G1 X88.287 Y87.485 E.04523
G1 X87.99 Y87.723 E.01171
G1 X86.714 Y86.447 E.05557
G1 X86.447 Y86.447 E.00823
G1 X86.447 Y86.714 E.00823
G1 X87.72 Y87.987 E.05544
G1 X87.488 Y88.29 E.01174
G1 X86.447 Y87.249 E.04535
G1 X86.447 Y87.783 E.01646
G1 X87.291 Y88.627 E.03674
G1 X87.141 Y89.012 E.01272
G1 X86.447 Y88.318 E.03024
G1 X86.447 Y88.852 E.01646
G1 X87.017 Y89.422 E.02481
G1 X86.961 Y89.901 E.01485
G1 X86.447 Y89.387 E.0224
G1 X86.447 Y89.921 E.01646
G1 X87.221 Y90.695 E.03369
M204 P1000
G1 X86.277 Y90.286 F9000
M204 P800
G1 F1200
G1 X87.224 Y91.233 E.04125
G1 X87.428 Y91.627 E.01366
G1 X87.657 Y91.943 E.01203
G1 X87.817 Y92.122 E.00739
G1 X88.113 Y92.388 E.01224
G1 X88.312 Y92.533 E.00759
G1 X88.774 Y92.783 E.01619
G1 X89.544 Y93.553 E.03353
G1 X89.01 Y93.553 E.01646
G1 X86.447 Y90.99 E.11162
G1 X86.447 Y91.525 E.01646
G1 X88.475 Y93.553 E.08834
G1 X87.941 Y93.553 E.01646
G1 X86.447 Y92.059 E.06506
G1 X86.447 Y92.594 E.01646
G1 X87.406 Y93.553 E.04178
G1 X86.872 Y93.553 E.01646
G1 X86.277 Y92.959 E.02589
M204 P1000
G1 E-2.24 F4200
;WIPE_START
G1 F7200
G1 X86.872 Y93.553 E-.46579
G1 X87.406 Y93.553 E-.29621
G1 X87.215 Y93.362 E-.15
;WIPE_END
G1 E-.048 F4200
G1 Z.4 F720
G1 X106.164 Y93.836 F9000
G1 Z.2 F720
G1 E3.2 F2400
M204 P800
;TYPE:Perimeter
;WIDTH:0.419999
G1 F1200
G1 X106.164 Y86.164 E.23573
G1 X113.836 Y86.164 E.23573
G1 X113.836 Y93.836 E.23573
G1 X106.224 Y93.836 E.23389
M204 P1000
G1 X105.787 Y94.213 F9000
M204 P800
G1 F1200
G1 X105.787 Y85.787 E.2589
G1 X114.213 Y85.787 E.2589
G1 X114.213 Y94.213 E.2589
G1 X105.847 Y94.213 E.25706
M204 P1000
G1 X105.41 Y94.59 F9000
M204 P800
;TYPE:External perimeter
G1 F1200
G1 X105.41 Y85.41 E.28208
G1 X114.59 Y85.41 E.28208
G1 X114.59 Y94.59 E.28208
G1 X105.47 Y94.59 E.28023
M204 P1000
M73 P4 R22
G1 X105.514 Y94.204 F9000
G1 E-2.24 F4200
;WIPE_START
G1 F7200
G1 X105.459 Y92.944 E-.912
;WIPE_END
G1 E-.048 F4200
G1 Z.4 F720
G1 X113.723 Y87.041 F9000
G1 Z.2 F720
G1 E3.2 F2400
M204 P800
;TYPE:Solid infill
;WIDTH:0.420878
G1 F1200
G1 X113.128 Y86.447 E.02589
G1 X112.594 Y86.447 E.01646
G1 X113.553 Y87.406 E.04178
G1 X113.553 Y87.941 E.01646
G1 X112.059 Y86.447 E.06506
G1 X111.525 Y86.447 E.01646
G1 X113.553 Y88.475 E.08834
G1 X113.553 Y89.01 E.01646
G1 X110.99 Y86.447 E.11163
G1 X110.456 Y86.447 E.01646
G1 X113.553 Y89.544 E.13491
G1 X113.553 Y90.079 E.01646
G1 X109.921 Y86.447 E.15819
G1 X109.387 Y86.447 E.01646
G1 X113.553 Y90.613 E.18147
G1 X113.553 Y91.148 E.01646
G1 X108.852 Y86.447 E.20475
G1 X108.318 Y86.447 E.01646
G1 X113.553 Y91.682 E.22803
G1 X113.553 Y92.217 E.01646
G1 X107.783 Y86.447 E.25131
G1 X107.249 Y86.447 E.01646
G1 X113.553 Y92.751 E.2746
G1 X113.553 Y93.286 E.01646
G1 X106.714 Y86.447 E.29788
G1 X106.447 Y86.447 E.00823
G1 X106.447 Y86.714 E.00823
G1 X113.286 Y93.553 E.29787
G1 X112.751 Y93.553 E.01646
G1 X106.447 Y87.249 E.27459
G1 X106.447 Y87.783 E.01646
G1 X112.217 Y93.553 E.25131
G1 X111.682 Y93.553 E.01646
G1 X106.447 Y88.318 E.22803
G1 X106.447 Y88.852 E.01646
G1 X111.148 Y93.553 E.20475
G1 X110.613 Y93.553 E.01646
G1 X106.447 Y89.387 E.18146
G1 X106.447 Y89.921 E.01646
G1 X110.079 Y93.553 E.15818
G1 X109.544 Y93.553 E.01646
G1 X106.447 Y90.456 E.1349
G1 X106.447 Y90.99 E.01646
G1 X109.01 Y93.553 E.11162
G1 X108.475 Y93.553 E.01646
G1 X106.447 Y91.525 E.08834
G1 X106.447 Y92.059 E.01646
G1 X107.941 Y93.553 E.06506
G1 X107.406 Y93.553 E.01646
G1 X106.447 Y92.594 E.04178
G1 X106.447 Y93.128 E.01646
G1 X107.041 Y93.723 E.02589
M204 P1000
; stop printing object  id:0 copy 0
M106 S84.15
;LAYER_CHANGE
;Z:0.4
;HEIGHT:0.2
;BEFORE_LAYER_CHANGE
G92 E0.0
;0.4


G1 E-2.24 F4200
;WIPE_START
G1 F7200
G1 X106.447 Y93.128 E-.46577
G1 X106.447 Y92.594 E-.29621
G1 X106.638 Y92.785 E-.15002
;WIPE_END
G1 E-.048 F4200
G1 Z.4 F720
;AFTER_LAYER_CHANGE
;0.4
M104 S213 ; set temperature
G1 Z.6
G1 X106.638 Y97.377 F9000
G1 Z.4 F720
G1 E3.2 F2400
;TYPE:Skirt/Brim
;WIDTH:0.42
G1 X65 Y97.377 E1.27943
G1 X63.693 Y96.985 E.04193
G1 X62.817 Y95.94 E.04193
G1 X62.623 Y95 E.02948
G1 X62.623 Y85 E.30727
G1 X63.015 Y83.693 E.04193
G1 X64.06 Y82.817 E.04193
G1 X65 Y82.623 E.02948
G1 X115 Y82.623 E1.53636
G1 X116.307 Y83.015 E.04193
G1 X117.183 Y84.06 E.04193
G1 X117.377 Y85 E.02948
G1 X117.377 Y95 E.30727
G1 X116.985 Y96.307 E.04193
G1 X115.94 Y97.183 E.04193
G1 X115 Y97.377 E.02948
G1 X106.698 Y97.377 E.25509
; printing object  id:0 copy 0
G1 E-2.24 F4200
;WIPE_START
G1 F7200
G1 X105.053 Y97.377 E-.912
;WIPE_END
G1 E-.048 F4200
G1 Z.6 F720
G1 X73.961 Y93.961 F9000
G1 Z.4 F720
G1 E3.2 F2400
M204 P800
;TYPE:Perimeter
;WIDTH:0.449999
G1 F1500
G1 X66.039 Y93.961 E.26278
G1 X66.039 Y86.039 E.26278
G1 X73.961 Y86.039 E.26278
G1 X73.961 Y93.901 E.26079
M204 P1000
M73 P5 R22
G1 X74.368 Y94.368 F9000
M204 P800
G1 F1500
G1 X65.632 Y94.368 E.28978
G1 X65.632 Y85.632 E.28978
G1 X74.368 Y85.632 E.28978
G1 X74.368 Y94.308 E.28779
M204 P1000
G1 X74.775 Y94.775 F9000
M204 P800
;TYPE:External perimeter
G1 F1500
G1 X65.225 Y94.775 E.31679
G1 X65.225 Y85.225 E.31679
G1 X74.775 Y85.225 E.31679
G1 X74.775 Y94.715 E.3148
M204 P1000
G1 X74.389 Y94.671 F9000
G1 E-2.24 F4200
;WIPE_START
G1 F7200
G1 X73.129 Y94.725 E-.912
;WIPE_END
G1 E-.048 F4200
G1 Z.6 F720
G1 X72.989 Y93.839 F9000
G1 Z.4 F720
G1 E3.2 F2400
;TYPE:Solid infill
;WIDTH:0.462732
G1 F8400
G1 X73.656 Y93.172 E.03226
G1 X73.656 Y92.578 E.02031
G1 X72.578 Y93.656 E.05212
G1 X71.985 Y93.656 E.02031
G1 X73.656 Y91.985 E.08084
G1 X73.656 Y91.391 E.02031
G1 X71.391 Y93.656 E.10956
G1 X70.797 Y93.656 E.02031
G1 X73.656 Y90.797 E.13829
G1 X73.656 Y90.203 E.02031
G1 X70.203 Y93.656 E.16701
G1 X69.61 Y93.656 E.02031
G1 X73.656 Y89.61 E.19573
G1 X73.656 Y89.016 E.02031
G1 X69.016 Y93.656 E.22445
G1 X68.422 Y93.656 E.02031
G1 X73.656 Y88.422 E.25318
G1 X73.656 Y87.829 E.02031
G1 X67.829 Y93.656 E.2819
G1 X67.235 Y93.656 E.02031
G1 X73.656 Y87.235 E.31062
G1 X73.656 Y86.641 E.02031
G1 X66.641 Y93.656 E.33935
G1 X66.344 Y93.656 E.01015
G1 X66.344 Y93.359 E.01016
G1 X73.359 Y86.344 E.33934
