; generated by PrusaSlicer 2.5.0+linux-x64-GTK3 on 2023-03-10 at 13:52:41 UTC

; 
;

; 
;

; 
;

; 

; external perimeters extrusion width = 0.45mm
; perimeters extrusion width = 0.45mm
; infill extrusion width = 0.45mm
; solid infill extrusion width = 0.45mm
; top infill extrusion width = 0.40mm
; first layer extrusion width = 0.42mm

M73 P0 R92
M201 X2500 Y2500 Z400 E5000 ; sets maximum accelerations, mm/sec^2
M203 X180 Y180 Z12 E80 ; sets maximum feedrates, mm / sec
M204 P1250 R1250 T2500 ; sets acceleration (P, T) and retract acceleration (R), mm/sec^2
M205 X8.00 Y8.00 Z2.00 E10.00 ; sets the jerk limits, mm/sec
M205 S0 T0 ; sets the minimum extruding and travel feed rate, mm/sec
M107
;TYPE:Custom
M862.3 P "MINI" ; printer model check
G90 ; use absolute coordinates
M83 ; extruder relative mode
M104 S170 ; set extruder temp for bed leveling
M140 S60 ; set bed temp
M109 R170 ; wait for bed leveling temp
M190 S60 ; wait for bed temp
M204 T1250 ; set travel acceleration
G28 ; home all without mesh bed level
G29 ; mesh bed leveling 
M204 T2500 ; restore travel acceleration
M104 S215 ; set extruder temp
G92 E0
G1 Y-2 X179 F2400
G1 Z3 F720
M109 S215 ; wait for extruder temp

; intro line
G1 X170 F1000
G1 Z0.2 F720
M73 P0 R91
G1 X110 E8 F900
G1 X40 E10 F700
G92 E0

M221 S95 ; set flow
G21 ; set units to millimeters
G90 ; use absolute coordinates
M83 ; use relative distances for extrusion
M900 K0.05 ; Filament gcode LA 1.5
M900 K30 ; Filament gcode LA 1.0
M107
;LAYER_CHANGE
;Z:0.2
;HEIGHT:0.2
;BEFORE_LAYER_CHANGE
G92 E0.0
;0.2


G1 E-3.2 F4200
G1 Z.2 F720
;AFTER_LAYER_CHANGE
;0.2
G1 Z.4
G1 X52.498 Y74.856 F9000
G1 Z.2 F720
G1 E3.2 F2400
M204 P800
;TYPE:Skirt/Brim
;WIDTH:0.42
G1 F1200
G1 X52.839 Y74.64 E.01242
G1 X53.604 Y74.326 E.02539
G1 X54.557 Y74.14 E.02986
G1 X94.557 Y70.89 E1.23314
G1 X125.648 Y70.893 E.95532
G1 X126.732 Y71.155 E.03426
G1 X127.757 Y71.828 E.03769
G1 X128.394 Y72.498 E.0284
G1 X128.924 Y73.604 E.03768
G1 X129.063 Y74.244 E.02012
G1 X129.118 Y74.751 E.01567
G1 X129.107 Y105.648 E.94938
G1 X128.894 Y106.623 E.03068
G1 X128.622 Y107.121 E.01745
G1 X128.172 Y107.757 E.02392
G1 X127.502 Y108.394 E.0284
G1 X127.161 Y108.61 E.01242
G1 X126.396 Y108.924 E.02539
G1 X125.25 Y109.118 E.03572
G1 X94.225 Y109.103 E.95332
G1 X54.616 Y106.864 E1.21901
G1 X53.604 Y106.674 E.03164
G1 X52.498 Y106.144 E.03768
G1 X51.828 Y105.507 E.0284
G1 X51.155 Y104.482 E.03769
G1 X50.893 Y103.391 E.03446
G1 X50.893 Y77.609 E.79222
G1 X51.106 Y76.627 E.03088
G1 X51.378 Y76.129 E.01745
G1 X51.828 Y75.493 E.02392
G1 X52.454 Y74.898 E.02656
M204 P1000
; printing object  id:0 copy 0
G1 E-2.24 F4200
;WIPE_START
G1 F7200
G1 X52.839 Y74.64 E-.25661
G1 X53.604 Y74.326 E-.45799
G1 X53.953 Y74.258 E-.1974
;WIPE_END
G1 E-.048 F4200
G1 Z.4 F720
G1 X56.287 Y78.403 F9000
G1 Z.2 F720
G1 E3.2 F2400
M204 P800
;TYPE:Perimeter
;WIDTH:0.518859
G1 F1200
G1 X55.585 Y78.998 E.03568
G1 X55.332 Y79.297 E.0152
G1 X55.332 Y78.474 E.03191
G1 X56.227 Y78.407 E.0348
M204 P1000
G1 E-2.24 F4200
;WIPE_START
G1 F7200
G1 X55.585 Y78.998 E-.48332
G1 X55.332 Y79.297 E-.21722
G1 X55.332 Y78.916 E-.21146
;WIPE_END
G1 E-.048 F4200
G1 Z.4 F720
G1 X58.165 Y77.938 F9000
G1 Z.2 F720
G1 E3.2 F2400
M204 P800
;WIDTH:0.626392
G1 F1200
G1 X58.136 Y77.954 E.00157
;WIDTH:0.60965
G1 X57.922 Y78.048 E.01078
;WIDTH:0.562238
G1 X57.709 Y78.141 E.00987
;WIDTH:0.514825
G1 X57.495 Y78.235 E.00897
;WIDTH:0.467412
G1 X57.281 Y78.328 E.00807
;WIDTH:0.419999
G1 X56.476 Y78.788 E.0285
G1 X55.784 Y79.406 E.02849
G1 X55.236 Y80.154 E.02849
G1 X54.906 Y80.862 E.02403
G1 X54.906 Y78.101 E.08486
G1 X54.959 Y78.075 E.00183
G1 X57.318 Y77.898 E.07267
;WIDTH:0.461278
G1 X57.487 Y77.906 E.00578
;WIDTH:0.502557
G1 X57.657 Y77.914 E.00635
;WIDTH:0.543835
G1 X57.826 Y77.922 E.00692
;WIDTH:0.585114
G1 X57.995 Y77.93 E.00749
;WIDTH:0.626392
G1 X58.105 Y77.935 E.00521
M204 P1000
G1 E-2.24 F4200
;WIPE_START
G1 F7200
G1 X58.136 Y77.954 E-.02046
G1 X57.922 Y78.048 E-.12931
G1 X57.709 Y78.141 E-.12931
G1 X57.495 Y78.235 E-.12931
G1 X57.281 Y78.328 E-.12931
G1 X56.695 Y78.663 E-.37431
;WIPE_END
G1 E-.048 F4200
G1 Z.4 F720
G1 X65.249 Y77.681 F9000
G1 Z.2 F720
G1 E3.2 F2400
M204 P800
;WIDTH:0.419999
G1 F1200
G1 X64.449 Y78.395 E.03295
G1 X63.86 Y79.21 E.03091
G1 X63.518 Y79.944 E.02488
G1 X63.406 Y80.337 E.01256
G1 X63.228 Y79.969 E.01256
G1 X62.634 Y79.157 E.03091
G1 X61.885 Y78.487 E.03091
G1 X61.035 Y77.997 E.03013
G1 X65.19 Y77.685 E.12802
M204 P1000
G1 E-2.24 F4200
;WIPE_START
G1 F7200
G1 X64.449 Y78.395 E-.5683
G1 X64.086 Y78.897 E-.3437
;WIPE_END
G1 E-.048 F4200
G1 Z.4 F720
G1 X67.144 Y77.208 F9000
G1 Z.2 F720
G1 E3.2 F2400
M204 P800
;WIDTH:0.51427
G1 F1200
G1 X67.117 Y77.219 E.00114
;WIDTH:0.507264
G1 X66.682 Y77.381 E.01757
;WIDTH:0.463632
G1 X66.247 Y77.544 E.01592
;WIDTH:0.419999
G1 X65.442 Y78.004 E.0285
G1 X64.75 Y78.622 E.02849
G1 X64.202 Y79.37 E.0285
G1 X63.821 Y80.215 E.02849
G1 X63.625 Y81.121 E.02849
;WIDTH:0.464009
G1 X63.598 Y81.388 E.0092
;WIDTH:0.508019
G1 X63.571 Y81.655 E.01016
;WIDTH:0.552028
G1 X63.545 Y81.921 E.01112
G1 X63.461 Y81.626 E.01275
;WIDTH:0.508019
G1 X63.377 Y81.33 E.01165
;WIDTH:0.464009
G1 X63.292 Y81.034 E.01055
;WIDTH:0.419999
G1 X62.919 Y80.186 E.02849
G1 X62.377 Y79.433 E.02849
G1 X61.69 Y78.81 E.02849
G1 X60.889 Y78.343 E.02849
G1 X60.008 Y78.053 E.02849
;WIDTH:0.4698
G1 X59.811 Y78.003 E.00709
;WIDTH:0.519601
G1 X59.613 Y77.954 E.00792
;WIDTH:0.569402
G1 X59.415 Y77.904 E.00875
;WIDTH:0.619202
G1 X59.217 Y77.855 E.00958
G1 X59.417 Y77.815 E.00958
;WIDTH:0.569402
G1 X59.617 Y77.775 E.00875
;WIDTH:0.519601
G1 X59.817 Y77.735 E.00792
;WIDTH:0.4698
G1 X60.017 Y77.695 E.00709
;WIDTH:0.419999
G1 X66.304 Y77.223 E.19373
;WIDTH:0.467135
G1 X66.724 Y77.215 E.01453
;WIDTH:0.51427
G1 X67.084 Y77.209 E.01384
M204 P1000
G1 E-2.24 F4200
;WIPE_START
G1 F7200
G1 X67.117 Y77.219 E-.01892
G1 X66.682 Y77.381 E-.25737
G1 X66.247 Y77.544 E-.25737
G1 X65.654 Y77.882 E-.37834
;WIPE_END
G1 E-.048 F4200
G1 Z.4 F720
G1 X63.886 Y84.023 F9000
G1 Z.2 F720
G1 E3.2 F2400
M204 P800
;WIDTH:0.357636
G1 F1200
G1 X63.912 Y84.254 E.00595
G1 X63.588 Y84.278 E.00832
G1 X63.579 Y84.118 E.00411
;WIDTH:0.405412
G1 X63.598 Y84.039 E.00241
;WIDTH:0.453187
G1 X63.618 Y83.96 E.00272
;WIDTH:0.500962
G1 X63.637 Y83.881 E.00304
;WIDTH:0.548738
G1 X63.657 Y83.801 E.00336
;WIDTH:0.596513
G1 X63.676 Y83.722 E.00368
;WIDTH:0.644288
G1 X63.695 Y83.643 E.00399
G1 X63.727 Y83.706 E.00347
;WIDTH:0.596174
G1 X63.759 Y83.77 E.00319
;WIDTH:0.54806
G1 X63.79 Y83.833 E.00292
;WIDTH:0.499946
G1 X63.822 Y83.897 E.00264
;WIDTH:0.451832
G1 X63.854 Y83.96 E.00236
;WIDTH:0.403718
G1 X63.859 Y83.97 E.00032
M204 P1000
G1 E-2.24 F4200
;WIPE_START
G1 F7200
G1 X63.912 Y84.254 E-.16017
G1 X63.588 Y84.278 E-.17973
G1 X63.579 Y84.118 E-.08875
G1 X63.598 Y84.039 E-.04517
G1 X63.618 Y83.96 E-.04517
G1 X63.637 Y83.881 E-.04517
G1 X63.657 Y83.801 E-.04517
G1 X63.676 Y83.722 E-.04517
G1 X63.695 Y83.643 E-.04517
G1 X63.727 Y83.706 E-.03926
G1 X63.759 Y83.77 E-.03926
G1 X63.79 Y83.833 E-.03926
G1 X63.822 Y83.897 E-.03926
G1 X63.854 Y83.96 E-.03926
G1 X63.859 Y83.97 E-.00601
;WIPE_END
G1 E-.05802 F4200
G1 Z.4 F720
G1 X72.851 Y83.24 F9000
G1 Z.2 F720
G1 E3.2 F2400
M204 P800
;WIDTH:0.36086
G1 F1200
G1 X72.889 Y83.579 E.00884
G1 X72.562 Y83.603 E.00849
G1 X72.54 Y83.267 E.00874
;WIDTH:0.403715
G1 X72.56 Y83.199 E.00208
;WIDTH:0.45183
G1 X72.58 Y83.131 E.00236
;WIDTH:0.499945
G1 X72.601 Y83.063 E.00264
;WIDTH:0.54806
G1 X72.621 Y82.995 E.00292
;WIDTH:0.596175
G1 X72.641 Y82.927 E.00319
;WIDTH:0.64429
G1 X72.661 Y82.859 E.00347
G1 X72.693 Y82.923 E.00347
;WIDTH:0.596175
G1 X72.725 Y82.986 E.00319
;WIDTH:0.54806
G1 X72.756 Y83.05 E.00292
;WIDTH:0.499945
G1 X72.788 Y83.113 E.00264
;WIDTH:0.45183
G1 X72.82 Y83.176 E.00236
;WIDTH:0.403715
G1 X72.824 Y83.186 E.00032
M204 P1000
G1 E-2.24 F4200
;WIPE_START
G1 F7200
G1 X72.889 Y83.579 E-.22059
G1 X72.562 Y83.603 E-.18157
G1 X72.54 Y83.267 E-.18685
G1 X72.56 Y83.199 E-.03926
G1 X72.58 Y83.131 E-.03926
G1 X72.601 Y83.063 E-.03926
G1 X72.621 Y82.995 E-.03926
G1 X72.641 Y82.927 E-.03926
G1 X72.661 Y82.859 E-.03926
G1 X72.693 Y82.923 E-.03926
G1 X72.725 Y82.986 E-.03926
G1 X72.732 Y83.001 E-.0089
;WIPE_END
G1 E-.048 F4200
G1 Z.4 F720
G1 X74.063 Y77.019 F9000
G1 Z.2 F720
G1 E3.2 F2400
M204 P800
;WIDTH:0.419999
G1 F1200
G1 X73.415 Y77.61 E.02695
G1 X72.826 Y78.426 E.0309
G1 X72.484 Y79.159 E.02488
G1 X72.372 Y79.552 E.01256
G1 X72.193 Y79.185 E.01256
G1 X71.6 Y78.373 E.03091
G1 X70.85 Y77.702 E.0309
G1 X70.197 Y77.309 E.02343
G1 X74.003 Y77.024 E.11729
M204 P1000
G1 E-2.24 F4200
;WIPE_START
G1 F7200
G1 X73.415 Y77.61 E-.46041
G1 X72.938 Y78.271 E-.45159
;WIPE_END
G1 E-.048 F4200
G1 Z.4 F720
G1 X76.097 Y76.482 F9000
G1 Z.2 F720
G1 E3.2 F2400
M204 P800
G1 F1200
G1 X75.213 Y76.759 E.02849
G1 X74.407 Y77.219 E.0285
G1 X73.716 Y77.837 E.02849
G1 X73.168 Y78.585 E.02849
G1 X72.787 Y79.431 E.02849
G1 X72.591 Y80.337 E.02849
;WIDTH:0.463998
G1 X72.564 Y80.603 E.00919
;WIDTH:0.507997
G1 X72.537 Y80.87 E.01016
;WIDTH:0.551995
G1 X72.51 Y81.137 E.01112
G1 X72.426 Y80.841 E.01275
;WIDTH:0.507997
G1 X72.342 Y80.545 E.01165
;WIDTH:0.463998
G1 X72.258 Y80.25 E.01055
;WIDTH:0.419999
G1 X71.885 Y79.401 E.0285
G1 X71.343 Y78.649 E.02849
G1 X70.656 Y78.025 E.02849
G1 X69.855 Y77.558 E.02849
G1 X68.974 Y77.268 E.02849
;WIDTH:0.463419
G1 X68.575 Y77.197 E.01389
;WIDTH:0.506838
G1 X68.176 Y77.126 E.01533
G1 X68.578 Y77.075 E.01533
;WIDTH:0.463419
G1 X68.98 Y77.023 E.01389
;WIDTH:0.419999
G1 X76.038 Y76.487 E.21748
M204 P1000
G1 E-2.24 F4200
;WIPE_START
G1 F7200
G1 X75.213 Y76.759 E-.48142
G1 X74.538 Y77.145 E-.43058
;WIPE_END
G1 E-.048 F4200
G1 Z.4 F720
G1 X82.888 Y76.357 F9000
G1 Z.2 F720
G1 E3.2 F2400
M204 P800
G1 F1200
G1 X82.381 Y76.826 E.02123
G1 X81.792 Y77.641 E.03091
G1 X81.45 Y78.375 E.02488
G1 X81.338 Y78.768 E.01256
G1 X81.159 Y78.4 E.01256
G1 X80.566 Y77.589 E.03091
G1 X79.816 Y76.918 E.03091
G1 X79.328 Y76.624 E.01751
G1 X82.828 Y76.361 E.10787
M204 P1000
G1 E-2.24 F4200
;WIPE_START
G1 F7200
G1 X82.381 Y76.826 E-.35749
G1 X81.795 Y77.637 E-.55451
;WIPE_END
G1 E-.048 F4200
G1 Z.4 F720
G1 X84.524 Y75.856 F9000
G1 Z.2 F720
G1 E3.2 F2400
M204 P800
G1 F1200
G1 X84.178 Y75.975 E.01123
G1 X83.373 Y76.435 E.0285
G1 X82.682 Y77.053 E.02849
G1 X82.133 Y77.801 E.0285
G1 X81.753 Y78.646 E.02849
G1 X81.556 Y79.552 E.02849
;WIDTH:0.464
G1 X81.53 Y79.819 E.00919
;WIDTH:0.508
G1 X81.503 Y80.086 E.01016
;WIDTH:0.552
G1 X81.476 Y80.352 E.01112
G1 X81.392 Y80.057 E.01275
;WIDTH:0.508
G1 X81.308 Y79.761 E.01165
;WIDTH:0.464
G1 X81.224 Y79.465 E.01055
;WIDTH:0.419999
G1 X80.85 Y78.617 E.02849
G1 X80.308 Y77.864 E.02849
G1 X79.622 Y77.241 E.02849
G1 X78.821 Y76.774 E.02849
G1 X77.94 Y76.484 E.02849
G1 X77.135 Y76.398 E.02488
G1 X84.464 Y75.861 E.22581
M204 P1000
G1 E-2.24 F4200
;WIPE_START
G1 F7200
G1 X84.178 Y75.975 E-.17051
G1 X83.373 Y76.435 E-.51394
G1 X83.067 Y76.709 E-.22755
;WIPE_END
G1 E-.048 F4200
G1 Z.4 F720
G1 X81.627 Y82.074 F9000
G1 Z.2 F720
G1 E3.2 F2400
M204 P800
;WIDTH:0.644288
G1 F1200
G1 X81.659 Y82.138 E.00347
;WIDTH:0.596174
G1 X81.69 Y82.201 E.00319
;WIDTH:0.548059
G1 X81.722 Y82.264 E.00292
;WIDTH:0.499945
G1 X81.754 Y82.328 E.00264
;WIDTH:0.45183
G1 X81.785 Y82.391 E.00236
;WIDTH:0.403716
G1 X81.817 Y82.455 E.00208
;WIDTH:0.364133
G1 X81.866 Y82.904 E.01183
G1 X81.536 Y82.929 E.00866
G1 X81.506 Y82.482 E.01172
;WIDTH:0.403716
G1 X81.526 Y82.414 E.00208
;WIDTH:0.45183
G1 X81.546 Y82.346 E.00236
;WIDTH:0.499945
G1 X81.566 Y82.278 E.00264
;WIDTH:0.548059
G1 X81.587 Y82.21 E.00292
;WIDTH:0.596174
G1 X81.607 Y82.142 E.00319
;WIDTH:0.644288
G1 X81.61 Y82.132 E.00053
M204 P1000
G1 E-2.24 F4200
;WIPE_START
G1 F7200
G1 X81.659 Y82.138 E-.02724
G1 X81.69 Y82.201 E-.03926
G1 X81.722 Y82.264 E-.03926
G1 X81.754 Y82.328 E-.03926
G1 X81.785 Y82.391 E-.03926
G1 X81.817 Y82.455 E-.03926
G1 X81.866 Y82.904 E-.25045
G1 X81.536 Y82.929 E-.18344
G1 X81.506 Y82.482 E-.24818
G1 X81.509 Y82.471 E-.00639
;WIPE_END
G1 E-.048 F4200
G1 Z.4 F720
G1 X93.636 Y75.488 F9000
G1 Z.2 F720
G1 E3.2 F2400
M204 P800
;WIDTH:0.419999
G1 F1200
G1 X93.589 Y76.251 E.02349
G1 X93.595 Y81.057 E.1477
G1 X93.61 Y81.69 E.01945
G1 X93.023 Y81.672 E.01804
G1 X90.889 Y81.824 E.06576
G1 X90.747 Y79.509 E.07129
G1 X90.537 Y78.534 E.03065
G1 X90.125 Y77.616 E.03091
G1 X89.531 Y76.804 E.03091
G1 X88.939 Y76.252 E.02488
G1 X88.458 Y75.939 E.01762
G1 X92.822 Y75.609 E.13448
G1 X93.577 Y75.496 E.02344
M204 P1000
G1 X94.098 Y74.982 F9000
M204 P800
G1 F1200
G1 X93.988 Y75.725 E.02308
G1 X93.966 Y76.25 E.01616
G1 X93.972 Y81.057 E.1477
G1 X94.005 Y81.634 E.01776
G1 X94.097 Y82.162 E.01645
G1 X93.594 Y82.067 E.01571
G1 X93.05 Y82.048 E.01673
G1 X90.534 Y82.228 E.07751
G1 X90.377 Y79.581 E.08149
G1 X90.19 Y78.681 E.02823
G1 X89.816 Y77.832 E.02849
G1 X89.274 Y77.08 E.0285
G1 X88.588 Y76.457 E.02849
G1 X87.786 Y75.99 E.02849
G1 X87.021 Y75.726 E.02488
G1 X86.794 Y75.686 E.00707
G1 X92.767 Y75.236 E.18404
G1 X93.75 Y75.089 E.03054
G1 X94.04 Y74.999 E.00935
M204 P1000
G1 E-2.24 F4200
;WIPE_START
G1 F7200
G1 X93.988 Y75.725 E-.40294
G1 X93.966 Y76.25 E-.2915
G1 X93.967 Y76.643 E-.21756
;WIPE_END
G1 E-.048 F4200
G1 Z.4 F720
G1 X84.518 Y94.235 F9000
G1 Z.2 F720
G1 E3.2 F2400
M204 P800
G1 F1200
G1 X83.949 Y94.757 E.02372
G1 X83.36 Y95.573 E.03091
G1 X83.018 Y96.306 E.02487
G1 X82.906 Y96.7 E.01256
G1 X82.728 Y96.332 E.01256
G1 X82.134 Y95.52 E.0309
G1 X81.385 Y94.849 E.03091
G1 X80.824 Y94.513 E.02009
G1 X84.458 Y94.24 E.11197
M204 P1000
G1 E-2.24 F4200
;WIPE_START
G1 F7200
G1 X83.949 Y94.757 E-.40216
G1 X83.411 Y95.503 E-.50984
;WIPE_END
G1 E-.048 F4200
G1 Z.4 F720
G1 X86.303 Y93.723 F9000
G1 Z.2 F720
G1 E3.2 F2400
M204 P800
G1 F1200
G1 X85.747 Y93.906 E.01798
G1 X84.942 Y94.367 E.02849
G1 X84.25 Y94.984 E.02849
G1 X83.702 Y95.732 E.0285
G1 X83.322 Y96.578 E.02849
G1 X83.125 Y97.484 E.02849
;WIDTH:0.464004
G1 X83.098 Y97.751 E.0092
;WIDTH:0.508009
G1 X83.072 Y98.017 E.01016
;WIDTH:0.552014
G1 X83.045 Y98.284 E.01112
G1 X82.961 Y97.988 E.01275
;WIDTH:0.508009
G1 X82.877 Y97.693 E.01165
;WIDTH:0.464004
G1 X82.793 Y97.397 E.01055
;WIDTH:0.419999
G1 X82.419 Y96.548 E.02849
G1 X81.877 Y95.796 E.02849
G1 X81.191 Y95.172 E.02849
G1 X80.389 Y94.706 E.02849
G1 X79.509 Y94.415 E.02849
;WIDTH:0.443468
G1 X78.707 Y94.305 E.02643
G1 X79.513 Y94.233 E.02643
;WIDTH:0.419999
G1 X86.243 Y93.728 E.20737
M204 P1000
G1 E-2.24 F4200
;WIPE_START
G1 F7200
G1 X85.747 Y93.906 E-.29203
G1 X84.942 Y94.367 E-.51391
G1 X84.799 Y94.494 E-.10606
;WIPE_END
G1 E-.048 F4200
G1 Z.4 F720
G1 X83.196 Y100.006 F9000
G1 Z.2 F720
G1 E3.2 F2400
M204 P800
;WIDTH:0.64429
G1 F1200
G1 X83.227 Y100.069 E.00347
;WIDTH:0.596176
G1 X83.259 Y100.133 E.00319
;WIDTH:0.548061
G1 X83.291 Y100.196 E.00292
;WIDTH:0.499946
G1 X83.322 Y100.259 E.00264
;WIDTH:0.451831
G1 X83.354 Y100.323 E.00236
;WIDTH:0.403716
G1 X83.386 Y100.386 E.00208
;WIDTH:0.362702
G1 X83.43 Y100.787 E.01051
G1 X83.101 Y100.812 E.00859
G1 X83.074 Y100.413 E.01041
;WIDTH:0.403716
G1 X83.095 Y100.346 E.00208
;WIDTH:0.451831
G1 X83.115 Y100.278 E.00236
;WIDTH:0.499946
G1 X83.135 Y100.21 E.00264
;WIDTH:0.548061
G1 X83.155 Y100.142 E.00292
;WIDTH:0.596176
G1 X83.176 Y100.074 E.00319
;WIDTH:0.64429
G1 X83.179 Y100.064 E.00053
M204 P1000
G1 E-2.24 F4200
;WIPE_START
G1 F7200
G1 X83.227 Y100.069 E-.02724
G1 X83.259 Y100.133 E-.03926
G1 X83.291 Y100.196 E-.03926
G1 X83.322 Y100.259 E-.03926
G1 X83.354 Y100.323 E-.03926
G1 X83.386 Y100.386 E-.03926
G1 X83.43 Y100.787 E-.22361
G1 X83.101 Y100.812 E-.18262
G1 X83.074 Y100.413 E-.22135
G1 X83.095 Y100.346 E-.03926
G1 X83.106 Y100.308 E-.02161
;WIPE_END
G1 E-.048 F4200
G1 Z.4 F720
G1 X74.23 Y100.791 F9000
G1 Z.2 F720
G1 E3.2 F2400
M204 P800
;WIDTH:0.644294
G1 F1200
G1 X74.262 Y100.854 E.00347
;WIDTH:0.596179
G1 X74.293 Y100.918 E.00319
;WIDTH:0.548063
G1 X74.325 Y100.981 E.00292
;WIDTH:0.499947
G1 X74.357 Y101.045 E.00264
;WIDTH:0.451831
G1 X74.388 Y101.108 E.00236
;WIDTH:0.403715
G1 X74.42 Y101.171 E.00208
;WIDTH:0.359426
G1 X74.452 Y101.462 E.00755
G1 X74.127 Y101.487 E.00841
G1 X74.109 Y101.199 E.00745
;WIDTH:0.403715
