; generated by PrusaSlicer 2.5.0+linux-x64-GTK3 on 2023-03-09 at 12:27:31 UTC

; 
;

; 
;

; 
;

; 

; external perimeters extrusion width = 0.45mm
; perimeters extrusion width = 0.45mm
; infill extrusion width = 0.45mm
; solid infill extrusion width = 0.45mm
; top infill extrusion width = 0.40mm
; first layer extrusion width = 0.42mm

M73 P0 R123
M201 X2500 Y2500 Z400 E5000 ; sets maximum accelerations, mm/sec^2
M203 X180 Y180 Z12 E80 ; sets maximum feedrates, mm / sec
M204 P1250 R1250 T2500 ; sets acceleration (P, T) and retract acceleration (R), mm/sec^2
M205 X8.00 Y8.00 Z2.00 E10.00 ; sets the jerk limits, mm/sec
M205 S0 T0 ; sets the minimum extruding and travel feed rate, mm/sec
M107
;TYPE:Custom
M862.3 P "MINI" ; printer model check
G90 ; use absolute coordinates
M83 ; extruder relative mode
M104 S170 ; set extruder temp for bed leveling
M140 S60 ; set bed temp
M109 R170 ; wait for bed leveling temp
M190 S60 ; wait for bed temp
M204 T1250 ; set travel acceleration
G28 ; home all without mesh bed level
G29 ; mesh bed leveling 
M204 T2500 ; restore travel acceleration
M104 S215 ; set extruder temp
G92 E0
G1 Y-2 X179 F2400
G1 Z3 F720
M109 S215 ; wait for extruder temp

; intro line
G1 X170 F1000
G1 Z0.2 F720
G1 X110 E8 F900
G1 X40 E10 F700
G92 E0

M221 S95 ; set flow
G21 ; set units to millimeters
G90 ; use absolute coordinates
M83 ; use relative distances for extrusion
M900 K0.05 ; Filament gcode LA 1.5
M900 K30 ; Filament gcode LA 1.0
M107
;LAYER_CHANGE
;Z:0.2
;HEIGHT:0.2
;BEFORE_LAYER_CHANGE
G92 E0.0
;0.2


G1 E-3.2 F4200
G1 Z.2 F720
;AFTER_LAYER_CHANGE
;0.2
G1 Z.4
G1 X61.35 Y54.853 F9000
G1 Z.2 F720
G1 E3.2 F2400
M204 P800
;TYPE:Skirt/Brim
;WIDTH:0.42
G1 F1200
G1 X62.395 Y53.977 E.04193
G1 X63.335 Y53.783 E.02948
G1 X68.335 Y53.783 E.15364
G1 X68.889 Y53.849 E.01712
G1 X105.817 Y62.688 E1.16676
G1 X106.997 Y63.373 E.04193
G1 X107.641 Y65 E.05376
G1 X107.641 Y115 E1.53636
G1 X107.249 Y116.307 E.04193
G1 X105.817 Y117.312 E.05376
G1 X68.889 Y126.151 E1.16676
G1 X68.335 Y126.217 E.01712
G1 X63.335 Y126.217 E.15364
G1 X62.028 Y125.825 E.04193
G1 X61.152 Y124.779 E.04193
G1 X60.958 Y123.839 E.02948
G1 X60.958 Y56.161 E2.07959
G1 X61.332 Y54.911 E.04008
M204 P1000
; printing object  id:0 copy 0
G1 E-2.24 F4200
;WIPE_START
G1 F7200
G1 X62.395 Y53.977 E-.78411
G1 X62.621 Y53.931 E-.12789
;WIPE_END
G1 E-.048 F4200
G1 Z.4 F720
G1 X87.764 Y73.61 F9000
G1 Z.2 F720
G1 E3.2 F2400
M204 P800
;TYPE:Perimeter
;WIDTH:0.419999
G1 F1200
G1 X87.567 Y73.666 E.0063
G1 X87.266 Y73.878 E.01132
G1 X87.085 Y74.148 E.00998
G1 X87.005 Y74.529 E.01195
G1 X87.005 Y105.471 E.95079
G1 X87.038 Y105.717 E.0076
G1 X87.16 Y105.989 E.00919
G1 X87.402 Y106.24 E.01071
G1 X87.661 Y106.369 E.00887
G1 X87.948 Y106.414 E.00894
G1 X101.922 Y106.414 E.42938
G1 X101.922 Y113.836 E.22805
G1 X99.842 Y113.836 E.06392
G1 X72.242 Y110.056 E.85598
G1 X71.972 Y110.058 E.00828
G1 X71.637 Y110.177 E.01092
G1 X71.411 Y110.362 E.00897
G1 X71.237 Y110.643 E.01016
G1 X71.171 Y110.99 E.01087
G1 X71.171 Y115.301 E.13245
G1 X70.3 Y116.882 E.05547
G1 X67.734 Y120.498 E.13624
G1 X64.499 Y120.498 E.09939
G1 X64.499 Y59.502 E1.87421
G1 X67.734 Y59.502 E.09939
G1 X70.3 Y63.118 E.13624
G1 X71.171 Y64.699 E.05547
G1 X71.171 Y69.01 E.13245
G1 X71.185 Y69.173 E.00502
G1 X71.314 Y69.509 E.01107
G1 X71.521 Y69.743 E.0096
G1 X71.866 Y69.919 E.0119
G1 X72.242 Y69.944 E.01156
G1 X99.842 Y66.164 E.85598
G1 X101.922 Y66.164 E.06392
G1 X101.922 Y73.586 E.22805
G1 X87.822 Y73.594 E.43324
M204 P1000
G1 X87.835 Y73.983 F9000
M204 P800
G1 F1200
G1 X87.621 Y74.067 E.00707
G1 X87.43 Y74.3 E.00924
G1 X87.382 Y74.529 E.00717
G1 X87.382 Y105.471 E.95079
G1 X87.402 Y105.619 E.00456
G1 X87.539 Y105.862 E.00857
G1 X87.719 Y105.989 E.00679
G1 X87.948 Y106.037 E.00718
G1 X102.299 Y106.037 E.44096
G1 X102.299 Y114.213 E.25122
G1 X99.816 Y114.213 E.0763
G1 X72.19 Y110.43 E.85677
G1 X72.029 Y110.431 E.00497
G1 X71.758 Y110.55 E.00909
G1 X71.588 Y110.782 E.00883
G1 X71.548 Y110.99 E.00652
G1 X71.548 Y115.398 E.13543
G1 X70.62 Y117.083 E.05911
G1 X67.929 Y120.875 E.14289
G1 X64.122 Y120.875 E.11696
G1 X64.122 Y59.125 E1.89738
G1 X67.929 Y59.125 E.11696
G1 X70.62 Y62.917 E.14289
G1 X71.548 Y64.602 E.05911
G1 X71.548 Y69.01 E.13543
G1 X71.588 Y69.218 E.00652
G1 X71.758 Y69.45 E.00883
G1 X71.965 Y69.556 E.00714
G1 X72.19 Y69.57 E.00694
G1 X99.816 Y65.787 E.85677
G1 X102.299 Y65.787 E.0763
G1 X102.299 Y73.963 E.25122
G1 X87.892 Y73.967 E.44269
M204 P1000
G1 X87.948 Y74.34 F9000
M204 P800
;TYPE:External perimeter
G1 F1200
G1 X87.811 Y74.398 E.00456
G1 X87.759 Y74.529 E.00431
G1 X87.759 Y105.471 E.95079
G1 X87.811 Y105.602 E.00431
G1 X87.948 Y105.66 E.00456
G1 X102.676 Y105.66 E.45255
G1 X102.676 Y114.59 E.27439
G1 X99.79 Y114.59 E.08867
G1 X72.139 Y110.803 E.85756
G1 X71.995 Y110.844 E.0046
M73 P0 R122
G1 X71.925 Y110.99 E.00499
G1 X71.925 Y115.495 E.13841
G1 X70.94 Y117.283 E.06274
G1 X68.123 Y121.252 E.14953
G1 X63.745 Y121.252 E.13453
G1 X63.745 Y58.748 E1.92056
G1 X68.123 Y58.748 E.13453
G1 X70.94 Y62.717 E.14953
G1 X71.925 Y64.505 E.06275
G1 X71.925 Y69.01 E.13841
G1 X71.995 Y69.156 E.00499
G1 X72.139 Y69.197 E.0046
G1 X99.79 Y65.41 E.85756
G1 X102.676 Y65.41 E.08867
G1 X102.676 Y74.34 E.27439
G1 X88.008 Y74.34 E.45071
M204 P1000
G1 X87.825 Y74.257 F9000
G1 E-2.24 F4200
;WIPE_START
G1 F7200
G1 X87.811 Y74.398 E-.11358
G1 X87.759 Y74.529 E-.07766
G1 X87.759 Y75.829 E-.72076
;WIPE_END
G1 E-.048 F4200
G1 Z.4 F720
G1 X101.045 Y66.277 F9000
G1 Z.2 F720
G1 E3.2 F2400
M204 P800
;TYPE:Solid infill
;WIDTH:0.420782
G1 F1200
G1 X101.639 Y66.872 E.02588
G1 X101.639 Y67.406 E.01645
G1 X100.68 Y66.447 E.04176
G1 X100.146 Y66.447 E.01645
G1 X101.639 Y67.94 E.06503
G1 X101.639 Y68.475 E.01645
G1 X99.641 Y66.477 E.08699
G1 X99.171 Y66.541 E.01461
G1 X101.639 Y69.009 E.10745
G1 X101.639 Y69.543 E.01645
G1 X98.701 Y66.606 E.12792
G1 X98.231 Y66.67 E.01461
G1 X101.639 Y70.078 E.14839
G1 X101.639 Y70.612 E.01645
G1 X97.761 Y66.734 E.16885
G1 X97.291 Y66.799 E.01461
G1 X101.639 Y71.147 E.18932
G1 X101.639 Y71.681 E.01645
G1 X96.821 Y66.863 E.20979
G1 X96.351 Y66.928 E.01461
G1 X101.639 Y72.215 E.23025
G1 X101.639 Y72.75 E.01645
G1 X95.881 Y66.992 E.25072
G1 X95.411 Y67.056 E.01461
G1 X101.639 Y73.284 E.27119
G1 X101.639 Y73.303 E.00059
G1 X101.124 Y73.304 E.01585
G1 X94.941 Y67.121 E.26923
G1 X94.471 Y67.185 E.01461
G1 X100.59 Y73.304 E.26645
G1 X100.056 Y73.304 E.01644
G1 X94.001 Y67.249 E.26366
G1 X93.531 Y67.314 E.01461
G1 X99.522 Y73.305 E.26088
G1 X98.988 Y73.305 E.01644
G1 X93.061 Y67.378 E.25809
G1 X92.591 Y67.442 E.01461
G1 X98.454 Y73.306 E.2553
G1 X97.92 Y73.306 E.01644
G1 X92.121 Y67.507 E.25252
G1 X91.651 Y67.571 E.01461
G1 X97.386 Y73.306 E.24973
G1 X96.852 Y73.307 E.01644
G1 X91.181 Y67.636 E.24695
G1 X90.711 Y67.7 E.01461
G1 X96.318 Y73.307 E.24416
G1 X95.784 Y73.308 E.01644
G1 X90.241 Y67.764 E.24138
G1 X89.771 Y67.829 E.01461
G1 X95.25 Y73.308 E.23859
G1 X94.716 Y73.308 E.01644
G1 X89.301 Y67.893 E.23581
G1 X88.831 Y67.957 E.01461
G1 X94.182 Y73.309 E.23302
G1 X93.648 Y73.309 E.01644
G1 X88.361 Y68.022 E.23024
G1 X87.891 Y68.086 E.01461
G1 X93.114 Y73.31 E.22745
G1 X92.58 Y73.31 E.01644
G1 X87.421 Y68.151 E.22467
G1 X86.951 Y68.215 E.01461
G1 X92.046 Y73.31 E.22188
M73 P1 R122
G1 X91.512 Y73.311 E.01644
G1 X86.481 Y68.279 E.2191
G1 X86.011 Y68.344 E.01461
G1 X90.978 Y73.311 E.21631
G1 X90.444 Y73.312 E.01644
G1 X85.541 Y68.408 E.21352
G1 X85.071 Y68.472 E.01461
G1 X89.91 Y73.312 E.21074
G1 X89.377 Y73.312 E.01644
G1 X84.601 Y68.537 E.20795
G1 X84.131 Y68.601 E.01461
G1 X88.843 Y73.313 E.20517
G1 X88.309 Y73.313 E.01644
G1 X83.661 Y68.665 E.20238
G1 X83.191 Y68.73 E.01461
G1 X87.776 Y73.315 E.19966
G1 X87.454 Y73.406 E.0103
G1 X87.377 Y73.45 E.00274
G1 X82.721 Y68.794 E.20274
G1 X82.251 Y68.859 E.01461
G1 X87.068 Y73.676 E.20977
G1 X86.924 Y73.855 E.00708
G1 X86.849 Y73.991 E.00479
G1 X81.781 Y68.923 E.22071
G1 X81.311 Y68.987 E.01461
G1 X86.737 Y74.413 E.23628
G1 X86.722 Y74.933 E.01602
G1 X80.841 Y69.052 E.25611
G1 X80.371 Y69.116 E.01461
G1 X86.722 Y75.468 E.27658
G1 X86.722 Y76.002 E.01645
G1 X79.901 Y69.18 E.29705
G1 X79.431 Y69.245 E.01461
G1 X86.722 Y76.536 E.31751
G1 X86.722 Y77.071 E.01645
G1 X78.961 Y69.309 E.33798
G1 X78.491 Y69.373 E.01461
G1 X86.722 Y77.605 E.35845
G1 X86.722 Y78.139 E.01645
G1 X78.021 Y69.438 E.37891
G1 X77.551 Y69.502 E.01461
G1 X86.722 Y78.674 E.39938
G1 X86.722 Y79.208 E.01645
G1 X77.081 Y69.567 E.41985
G1 X76.611 Y69.631 E.01461
G1 X86.722 Y79.743 E.44031
G1 X86.722 Y80.277 E.01645
G1 X76.141 Y69.695 E.46078
G1 X75.671 Y69.76 E.01461
G1 X86.722 Y80.811 E.48125
G1 X86.722 Y81.346 E.01645
G1 X75.201 Y69.824 E.50171
G1 X74.731 Y69.888 E.01461
G1 X86.722 Y81.88 E.52218
G1 X86.722 Y82.415 E.01645
G1 X74.261 Y69.953 E.54265
G1 X73.791 Y70.017 E.01461
G1 X86.722 Y82.949 E.56311
G1 X86.722 Y83.483 E.01645
G1 X73.321 Y70.081 E.58358
G1 X72.851 Y70.146 E.01461
G1 X86.722 Y84.018 E.60405
G1 X86.722 Y84.552 E.01645
G1 X72.225 Y70.055 E.63128
M204 P1000
G1 E-2.24 F4200
;WIPE_START
G1 F7200
G1 X73.389 Y71.219 E-.912
;WIPE_END
G1 E-.048 F4200
G1 Z.4 F720
G1 X69.01 Y61.496 F9000
G1 Z.2 F720
G1 E3.2 F2400
M204 P800
G1 F1200
G1 X67.299 Y59.785 E.07451
G1 X66.765 Y59.785 E.01645
G1 X69.6 Y62.621 E.12347
G1 X70.06 Y63.269 E.02447
G1 X70.485 Y64.039 E.02709
G1 X66.231 Y59.785 E.18525
G1 X65.696 Y59.785 E.01645
G1 X70.888 Y64.977 E.22609
G1 X70.888 Y65.512 E.01645
G1 X65.162 Y59.785 E.24936
G1 X64.782 Y59.785 E.01169
G1 X64.782 Y59.94 E.00476
G1 X70.888 Y66.046 E.26589
G1 X70.888 Y66.58 E.01645
G1 X64.782 Y60.474 E.26589
G1 X64.782 Y61.009 E.01645
G1 X70.888 Y67.115 E.26589
G1 X70.888 Y67.649 E.01645
G1 X64.782 Y61.543 E.26589
G1 X64.782 Y62.077 E.01645
G1 X70.888 Y68.183 E.26589
G1 X70.888 Y68.718 E.01645
G1 X64.782 Y62.612 E.26589
G1 X64.782 Y63.146 E.01645
G1 X70.925 Y69.289 E.2675
G1 X70.974 Y69.461 E.0055
G1 X71.074 Y69.659 E.00682
G1 X71.2 Y69.827 E.00647
G1 X71.343 Y69.963 E.00608
G1 X71.494 Y70.067 E.00564
G1 X71.648 Y70.144 E.00528
G1 X71.831 Y70.195 E.00585
G1 X86.722 Y85.086 E.64847
G1 X86.722 Y85.621 E.01645
G1 X64.782 Y63.681 E.95539
G1 X64.782 Y64.215 E.01645
G1 X86.722 Y86.155 E.95539
G1 X86.722 Y86.69 E.01645
G1 X64.782 Y64.749 E.95539
G1 X64.782 Y65.284 E.01645
G1 X86.722 Y87.224 E.95539
G1 X86.722 Y87.758 E.01645
G1 X64.782 Y65.818 E.95539
G1 X64.782 Y66.352 E.01645
G1 X86.722 Y88.293 E.95539
G1 X86.722 Y88.827 E.01645
G1 X64.782 Y66.887 E.95539
G1 X64.782 Y67.421 E.01645
G1 X86.722 Y89.361 E.95539
G1 X86.722 Y89.896 E.01645
G1 X64.782 Y67.956 E.95539
G1 X64.782 Y68.49 E.01645
G1 X86.722 Y90.43 E.95539
G1 X86.722 Y90.965 E.01645
M73 P1 R121
G1 X64.782 Y69.024 E.95539
G1 X64.782 Y69.559 E.01645
G1 X86.722 Y91.499 E.95539
G1 X86.722 Y92.033 E.01645
G1 X64.782 Y70.093 E.95539
G1 X64.782 Y70.627 E.01645
G1 X86.722 Y92.568 E.95539
G1 X86.722 Y93.102 E.01645
G1 X64.782 Y71.162 E.95539
G1 X64.782 Y71.696 E.01645
G1 X86.722 Y93.636 E.95539
G1 X86.722 Y94.171 E.01645
G1 X64.782 Y72.231 E.95539
G1 X64.782 Y72.765 E.01645
G1 X86.722 Y94.705 E.95539
G1 X86.722 Y95.24 E.01645
G1 X64.782 Y73.299 E.95539
G1 X64.782 Y73.834 E.01645
G1 X86.722 Y95.774 E.95539
G1 X86.722 Y96.308 E.01645
G1 X64.782 Y74.368 E.95539
G1 X64.782 Y74.902 E.01645
G1 X86.722 Y96.843 E.95539
G1 X86.722 Y97.377 E.01645
G1 X64.782 Y75.437 E.95539
G1 X64.782 Y75.971 E.01645
G1 X86.722 Y97.911 E.95539
G1 X86.722 Y98.446 E.01645
G1 X64.782 Y76.506 E.95539
G1 X64.782 Y77.04 E.01645
G1 X86.722 Y98.98 E.95539
G1 X86.722 Y99.515 E.01645
G1 X64.782 Y77.574 E.95539
G1 X64.782 Y78.109 E.01645
G1 X86.722 Y100.049 E.95539
G1 X86.722 Y100.583 E.01645
G1 X64.782 Y78.643 E.95539
G1 X64.782 Y79.177 E.01645
G1 X86.722 Y101.118 E.95539
G1 X86.722 Y101.652 E.01645
G1 X64.782 Y79.712 E.95539
G1 X64.782 Y80.246 E.01645
M73 P2 R121
G1 X86.722 Y102.186 E.95539
G1 X86.722 Y102.721 E.01645
G1 X64.782 Y80.781 E.95539
G1 X64.782 Y81.315 E.01645
G1 X86.722 Y103.255 E.95539
G1 X86.722 Y103.79 E.01645
G1 X64.782 Y81.849 E.95539
G1 X64.782 Y82.384 E.01645
G1 X86.722 Y104.324 E.95539
G1 X86.722 Y104.858 E.01645
G1 X64.782 Y82.918 E.95539
G1 X64.782 Y83.452 E.01645
G1 X86.907 Y105.577 E.96342
M204 P1000
G1 E-2.24 F4200
;WIPE_START
G1 F7200
G1 X85.743 Y104.413 E-.912
;WIPE_END
G1 E-.048 F4200
G1 Z.4 F720
G1 X101.809 Y107.12 F9000
G1 Z.2 F720
G1 E3.2 F2400
M204 P800
G1 F1200
G1 X101.386 Y106.697 E.0184
G1 X100.852 Y106.697 E.01645
G1 X101.639 Y107.484 E.03428
G1 X101.639 Y108.019 E.01645
G1 X100.317 Y106.697 E.05755
G1 X99.783 Y106.697 E.01645
G1 X101.639 Y108.553 E.08082
G1 X101.639 Y109.087 E.01645
G1 X99.249 Y106.697 E.10409
G1 X98.714 Y106.697 E.01645
G1 X101.639 Y109.622 E.12736
G1 X101.639 Y110.156 E.01645
G1 X98.18 Y106.697 E.15063
G1 X97.645 Y106.697 E.01645
G1 X101.639 Y110.69 E.1739
G1 X101.639 Y111.225 E.01645
G1 X97.111 Y106.697 E.19717
G1 X96.577 Y106.697 E.01645
G1 X101.639 Y111.759 E.22044
G1 X101.639 Y112.294 E.01645
G1 X96.042 Y106.697 E.24371
G1 X95.508 Y106.697 E.01645
G1 X101.639 Y112.828 E.26698
G1 X101.639 Y113.362 E.01645
G1 X94.974 Y106.697 E.29025
G1 X94.439 Y106.697 E.01645
G1 X101.295 Y113.553 E.29855
G1 X100.761 Y113.553 E.01645
G1 X93.905 Y106.697 E.29855
G1 X93.37 Y106.697 E.01645
G1 X100.226 Y113.553 E.29855
G1 X99.861 Y113.553 E.01126
G1 X99.665 Y113.526 E.00607
G1 X92.836 Y106.697 E.29738
G1 X92.302 Y106.697 E.01645
G1 X99.046 Y113.441 E.29369
G1 X98.427 Y113.357 E.01924
G1 X91.767 Y106.697 E.29
G1 X91.233 Y106.697 E.01645
G1 X97.808 Y113.272 E.28631
G1 X97.189 Y113.187 E.01924
G1 X90.699 Y106.697 E.28261
G1 X90.164 Y106.697 E.01645
G1 X96.569 Y113.102 E.27892
G1 X95.95 Y113.018 E.01924
G1 X89.63 Y106.697 E.27523
G1 X89.095 Y106.697 E.01645
G1 X95.331 Y112.933 E.27154
G1 X94.712 Y112.848 E.01924
G1 X88.561 Y106.697 E.26784
G1 X88.027 Y106.697 E.01645
G1 X94.093 Y112.763 E.26415
G1 X93.474 Y112.678 E.01924
G1 X64.782 Y83.987 E1.24937
G1 X64.782 Y84.521 E.01645
G1 X92.854 Y112.594 E1.22241
G1 X92.235 Y112.509 E.01924
M73 P2 R120
G1 X64.782 Y85.056 E1.19545
G1 X64.782 Y85.59 E.01645
G1 X91.616 Y112.424 E1.16849
G1 X90.997 Y112.339 E.01924
G1 X64.782 Y86.124 E1.14152
G1 X64.782 Y86.659 E.01645
G1 X90.378 Y112.254 E1.11456
G1 X89.759 Y112.17 E.01924
G1 X64.782 Y87.193 E1.0876
G1 X64.782 Y87.728 E.01645
G1 X89.139 Y112.085 E1.06064
G1 X88.52 Y112 E.01924
G1 X64.782 Y88.262 E1.03368
G1 X64.782 Y88.796 E.01645
G1 X87.901 Y111.915 E1.00672
G1 X87.282 Y111.83 E.01924
G1 X64.782 Y89.331 E.97975
G1 X64.782 Y89.865 E.01645
G1 X86.663 Y111.746 E.95279
G1 X86.044 Y111.661 E.01924
G1 X64.782 Y90.399 E.92583
G1 X64.782 Y90.934 E.01645
G1 X85.424 Y111.576 E.89887
G1 X84.805 Y111.491 E.01924
G1 X64.782 Y91.468 E.87191
G1 X64.782 Y92.003 E.01645
G1 X84.186 Y111.406 E.84494
G1 X83.567 Y111.322 E.01924
G1 X64.782 Y92.537 E.81798
G1 X64.782 Y93.071 E.01645
G1 X82.948 Y111.237 E.79102
G1 X82.329 Y111.152 E.01924
G1 X64.782 Y93.606 E.76406
G1 X64.782 Y94.14 E.01645
G1 X81.709 Y111.067 E.7371
G1 X81.09 Y110.983 E.01924
G1 X64.782 Y94.674 E.71014
G1 X64.782 Y95.209 E.01645
G1 X80.471 Y110.898 E.68317
G1 X79.852 Y110.813 E.01924
G1 X64.782 Y95.743 E.65621
G1 X64.782 Y96.278 E.01645
G1 X79.233 Y110.728 E.62925
G1 X78.614 Y110.643 E.01924
G1 X64.782 Y96.812 E.60229
G1 X64.782 Y97.346 E.01645
G1 X77.994 Y110.559 E.57533
G1 X77.375 Y110.474 E.01924
G1 X64.782 Y97.881 E.54837
G1 X64.782 Y98.415 E.01645
G1 X76.756 Y110.389 E.5214
G1 X76.137 Y110.304 E.01924
G1 X64.782 Y98.949 E.49444
G1 X64.782 Y99.484 E.01645
G1 X75.518 Y110.219 E.46748
G1 X74.899 Y110.135 E.01924
G1 X64.782 Y100.018 E.44052
G1 X64.782 Y100.553 E.01645
G1 X74.279 Y110.05 E.41356
G1 X73.66 Y109.965 E.01924
G1 X64.782 Y101.087 E.3866
G1 X64.782 Y101.621 E.01645
G1 X73.041 Y109.88 E.35963
G1 X72.422 Y109.795 E.01924
G1 X64.782 Y102.156 E.33267
G1 X64.782 Y102.69 E.01645
G1 X71.883 Y109.791 E.3092
G1 X71.648 Y109.856 E.00752
G1 X71.492 Y109.934 E.00536
G1 X64.782 Y103.224 E.29217
G1 X64.782 Y103.759 E.01645
G1 X71.198 Y110.175 E.2794
G1 X71.074 Y110.341 E.00639
G1 X70.992 Y110.503 E.00559
G1 X64.782 Y104.293 E.27041
G1 X64.782 Y104.828 E.01645
G1 X70.893 Y110.938 E.26609
