; generated by PrusaSlicer 2.6.0-alpha0 on 2023-02-28 at 19:38:43 UTC

; 
;

; 
;

; 
;

; 

; external perimeters extrusion width = 0.45mm
; perimeters extrusion width = 0.45mm
; infill extrusion width = 0.45mm
; solid infill extrusion width = 0.45mm
; top infill extrusion width = 0.40mm
; first layer extrusion width = 0.42mm

M73 P0 R4
M201 X2500 Y2500 Z400 E5000 ; sets maximum accelerations, mm/sec^2
M203 X180 Y180 Z12 E80 ; sets maximum feedrates, mm / sec
M204 P1250 R1250 T2500 ; sets acceleration (P, T) and retract acceleration (R), mm/sec^2
M205 X8.00 Y8.00 Z2.00 E10.00 ; sets the jerk limits, mm/sec
M205 S0 T0 ; sets the minimum extruding and travel feed rate, mm/sec
M107
;TYPE:Custom
M862.3 P "MINI" ; printer model check
G90 ; use absolute coordinates
M83 ; extruder relative mode
M104 S170 ; set extruder temp for bed leveling
M140 S60 ; set bed temp
M109 R170 ; wait for bed leveling temp
M190 S60 ; wait for bed temp
M204 T1250 ; set travel acceleration
G28 ; home all without mesh bed level
G29 ; mesh bed leveling 
M204 T2500 ; restore travel acceleration
M104 S215 ; set extruder temp
G92 E0
G1 Y-2 X179 F2400
G1 Z3 F720
M109 S215 ; wait for extruder temp

; intro line
M73 P1 R4
G1 X170 F1000
G1 Z0.2 F720
G1 X110 E8 F900
M73 P2 R4
G1 X40 E10 F700
G92 E0

M221 S95 ; set flow
G21 ; set units to millimeters
G90 ; use absolute coordinates
M83 ; use relative distances for extrusion
M900 K0.05 ; Filament gcode LA 1.5
M900 K30 ; Filament gcode LA 1.0
M107
;LAYER_CHANGE
;Z:0.25
;HEIGHT:0.25
;BEFORE_LAYER_CHANGE
G92 E0.0
;0.25


M73 P3 R4
G1 E-3.2 F4200
M73 P5 R4
G1 Z.2 F720
G1 Z.25
;AFTER_LAYER_CHANGE
;0.25
G1 Z.45
G1 X84.82 Y84.731 F9000
G1 Z.25 F720
G1 E3.2 F2400
M204 P800
;TYPE:Skirt/Brim
;WIDTH:0.42
G1 F1116
G1 X85.978 Y83.806 E.0649
G1 X86.59 Y83.445 E.03111
M73 P6 R4
G1 X88.027 Y82.879 E.06763
G1 X89.551 Y82.625 E.06766
G1 X91.094 Y82.692 E.06763
G1 X92.589 Y83.079 E.06762
G1 X93.411 Y83.445 E.0394
G1 X94.699 Y84.297 E.06762
G1 X95.782 Y85.399 E.06766
G1 X96.612 Y86.702 E.06765
G1 X97.153 Y88.148 E.06761
G1 X97.382 Y89.676 E.06766
G1 X97.288 Y91.218 E.06765
G1 X96.876 Y92.707 E.06765
G1 X96.163 Y94.077 E.06763
G1 X95.18 Y95.269 E.06766
G1 X93.972 Y96.231 E.06762
G1 X93.39 Y96.564 E.02936
G1 X91.973 Y97.121 E.06667
G1 X90.449 Y97.375 E.06766
G1 X88.906 Y97.308 E.06763
G1 X87.411 Y96.921 E.06762
G1 X86.028 Y96.231 E.06768
G1 X84.82 Y95.269 E.06762
G1 X83.837 Y94.077 E.06766
G1 X83.124 Y92.707 E.06763
G1 X82.712 Y91.218 E.06765
G1 X82.618 Y89.676 E.06765
G1 X82.712 Y88.782 E.03936
G1 X83.124 Y87.293 E.06765
G1 X83.837 Y85.923 E.06763
G1 X84.782 Y84.777 E.06504
M204 P1000
G1 X85.063 Y85.011 F9000
M204 P800
G1 F1116
G1 X86.164 Y84.123 E.06194
G1 X86.739 Y83.78 E.02932
G1 X88.103 Y83.237 E.06429
G1 X89.551 Y82.991 E.06432
G1 X91.018 Y83.051 E.06429
M73 P7 R4
G1 X92.44 Y83.414 E.06427
G1 X93.262 Y83.78 E.0394
G1 X94.484 Y84.594 E.0643
G1 X95.51 Y85.644 E.06428
G1 X96.295 Y86.885 E.0643
G1 X96.805 Y88.262 E.0643
G1 X97.018 Y89.714 E.06426
G1 X96.924 Y91.18 E.06433
G1 X96.527 Y92.593 E.06427
G1 X95.845 Y93.894 E.06432
G1 X94.908 Y95.024 E.06428
G1 X93.756 Y95.935 E.06431
G1 X93.241 Y96.23 E.02599
G1 X91.897 Y96.763 E.06331
G1 X90.449 Y97.009 E.06432
G1 X88.982 Y96.949 E.06429
G1 X87.56 Y96.586 E.06427
G1 X86.244 Y95.935 E.06429
G1 X85.092 Y95.024 E.06431
G1 X84.155 Y93.894 E.06428
G1 X83.473 Y92.593 E.06432
G1 X83.076 Y91.18 E.06427
G1 X82.982 Y89.714 E.06433
G1 X83.076 Y88.82 E.03936
G1 X83.473 Y87.407 E.06427
G1 X84.155 Y86.106 E.06432
G1 X85.025 Y85.057 E.05968
M204 P1000
G1 X85.306 Y85.291 F9000
M204 P800
G1 F1116
G1 X85.364 Y85.221 E.00398
G1 X86.408 Y84.399 E.05819
G1 X86.888 Y84.114 E.02444
G1 X88.179 Y83.596 E.06091
G1 X89.551 Y83.357 E.06098
G1 X90.941 Y83.409 E.06091
G1 X92.291 Y83.749 E.06096
G1 X93.113 Y84.114 E.03938
G1 X94.268 Y84.89 E.06093
G1 X95.237 Y85.889 E.06094
G1 X95.978 Y87.068 E.06098
G1 X96.457 Y88.375 E.06096
M73 P8 R4
G1 X96.653 Y89.753 E.06095
G1 X96.559 Y91.141 E.06092
G1 X96.179 Y92.48 E.06095
G1 X95.528 Y93.711 E.06098
G1 X94.636 Y94.779 E.06093
G1 X93.541 Y95.638 E.06094
G1 X93.092 Y95.895 E.02265
G1 X91.821 Y96.404 E.05995
G1 X90.449 Y96.643 E.06098
G1 X89.059 Y96.591 E.06091
G1 X87.709 Y96.251 E.06096
G1 X86.459 Y95.638 E.06096
G1 X85.364 Y94.779 E.06094
G1 X84.472 Y93.711 E.06093
G1 X83.821 Y92.48 E.06098
G1 X83.441 Y91.141 E.06095
G1 X83.347 Y89.753 E.06092
G1 X83.441 Y88.859 E.03936
G1 X83.821 Y87.52 E.06095
G1 X84.472 Y86.289 E.06098
G1 X85.267 Y85.337 E.05431
M204 P1000
; printing object 0 id:0 copy 0
G1 E-2.24 F4200
;WIPE_START
G1 F7200
G1 X85.364 Y85.221 E-.0838
G1 X86.408 Y84.399 E-.73636
G1 X86.625 Y84.27 E-.13984
;WIPE_END
G1 Z.45 F720
G1 X87.82 Y91.664 F9000
G1 Z.25 F720
G1 E3.2 F2400
M204 P800
;TYPE:Perimeter
G1 F1116
G1 X87.485 Y91.112 E.02827
G1 X87.307 Y90.535 E.02644
G1 X87.251 Y90 E.02356
G1 X87.311 Y89.428 E.02518
G1 X87.489 Y88.882 E.02515
G1 X87.776 Y88.384 E.02517
G1 X88.161 Y87.957 E.02518
G1 X88.626 Y87.619 E.02517
G1 X89.151 Y87.386 E.02515
G1 X89.713 Y87.266 E.02516
G1 X90.287 Y87.266 E.02514
G1 X90.849 Y87.386 E.02516
G1 X91.374 Y87.619 E.02515
G1 X91.839 Y87.957 E.02517
G1 X92.224 Y88.384 E.02518
G1 X92.511 Y88.882 E.02517
G1 X92.689 Y89.428 E.02515
G1 X92.749 Y90 E.02518
G1 X92.689 Y90.572 E.02518
G1 X92.511 Y91.118 E.02515
G1 X92.224 Y91.616 E.02517
G1 X91.839 Y92.043 E.02518
G1 X91.374 Y92.381 E.02517
G1 X90.849 Y92.614 E.02515
G1 X90.287 Y92.734 E.02516
M73 P9 R4
G1 X89.713 Y92.734 E.02514
G1 X89.151 Y92.614 E.02516
G1 X88.626 Y92.381 E.02515
G1 X88.161 Y92.043 E.02517
G1 X87.86 Y91.709 E.01969
M204 P1000
G1 X88.096 Y91.424 F9000
M204 P800
G1 F1116
G1 X87.823 Y90.964 E.02342
G1 X87.668 Y90.461 E.02305
G1 X87.619 Y90 E.0203
G1 X87.671 Y89.505 E.02179
G1 X87.825 Y89.032 E.02178
G1 X88.074 Y88.601 E.0218
G1 X88.407 Y88.231 E.0218
G1 X88.81 Y87.938 E.02182
G1 X89.264 Y87.736 E.02176
G1 X89.751 Y87.632 E.02181
G1 X90.249 Y87.632 E.02181
G1 X90.736 Y87.736 E.02181
G1 X91.19 Y87.938 E.02176
G1 X91.593 Y88.231 E.02182
G1 X91.926 Y88.601 E.0218
G1 X92.175 Y89.032 E.0218
G1 X92.329 Y89.505 E.02178
G1 X92.381 Y90 E.02179
G1 X92.329 Y90.495 E.02179
G1 X92.175 Y90.968 E.02178
G1 X91.926 Y91.399 E.0218
G1 X91.593 Y91.769 E.0218
G1 X91.19 Y92.062 E.02182
G1 X90.736 Y92.264 E.02176
G1 X90.249 Y92.368 E.02181
G1 X89.751 Y92.368 E.02181
G1 X89.264 Y92.264 E.02181
G1 X88.81 Y92.062 E.02176
G1 X88.407 Y91.769 E.02182
G1 X88.136 Y91.468 E.01774
M204 P1000
G1 X88.372 Y91.183 F9000
M204 P800
;TYPE:External perimeter
G1 F1116
G1 X88.161 Y90.817 E.0185
G1 X88.028 Y90.388 E.01967
G1 X87.988 Y90 E.01708
G1 X88.032 Y89.582 E.01841
G1 X88.162 Y89.182 E.01842
G1 X88.372 Y88.817 E.01844
G1 X88.654 Y88.505 E.01842
G1 X88.994 Y88.257 E.01843
G1 X89.378 Y88.086 E.01841
G1 X89.79 Y87.999 E.01844
G1 X90.21 Y87.999 E.01839
G1 X90.622 Y88.086 E.01844
G1 X91.006 Y88.257 E.01841
G1 X91.346 Y88.505 E.01843
G1 X91.628 Y88.817 E.01842
G1 X91.838 Y89.182 E.01844
G1 X91.968 Y89.582 E.01842
G1 X92.012 Y90 E.01841
G1 X91.968 Y90.418 E.01841
G1 X91.838 Y90.818 E.01842
G1 X91.628 Y91.183 E.01844
G1 X91.346 Y91.495 E.01842
G1 X91.006 Y91.743 E.01843
G1 X90.622 Y91.914 E.01841
G1 X90.21 Y92.001 E.01844
G1 X89.79 Y92.001 E.01839
G1 X89.378 Y91.914 E.01844
G1 X88.994 Y91.743 E.01841
G1 X88.654 Y91.495 E.01843
G1 X88.412 Y91.227 E.01581
M204 P1000
G1 X87.974 Y91.225 F9000
G1 E-2.24 F4200
;WIPE_START
G1 F7200
G1 X88.161 Y90.817 E-.2664
G1 X88.028 Y90.388 E-.2489
G1 X87.988 Y90 E-.21616
G1 X88.031 Y89.59 E-.22854
;WIPE_END
G1 Z.45 F720
G1 X90.972 Y87.003 F9000
G1 Z.25 F720
G1 E3.2 F2400
M204 P800
;TYPE:Perimeter
G1 F1116
G1 X91.576 Y87.271 E.02894
G1 X92.108 Y87.658 E.02881
G1 X92.549 Y88.148 E.02887
G1 X92.879 Y88.718 E.02884
G1 X93.082 Y89.345 E.02886
G1 X93.151 Y90 E.02884
G1 X93.082 Y90.655 E.02884
G1 X92.879 Y91.282 E.02886
G1 X92.549 Y91.852 E.02884
G1 X92.108 Y92.342 E.02887
G1 X91.576 Y92.729 E.02881
G1 X90.974 Y92.997 E.02886
G1 X90.329 Y93.134 E.02887
G1 X89.671 Y93.134 E.02881
G1 X89.026 Y92.997 E.02887
G1 X88.424 Y92.729 E.02886
G1 X87.892 Y92.342 E.02881
G1 X87.451 Y91.852 E.02887
G1 X87.121 Y91.282 E.02884
M73 P10 R4
G1 X86.918 Y90.655 E.02886
G1 X86.849 Y90 E.02884
G1 X86.918 Y89.345 E.02884
G1 X87.121 Y88.718 E.02886
G1 X87.451 Y88.148 E.02884
G1 X87.892 Y87.658 E.02887
G1 X88.425 Y87.271 E.02884
G1 X89.026 Y87.003 E.02882
G1 X89.671 Y86.866 E.02887
G1 X90.329 Y86.866 E.02881
G1 X90.914 Y86.99 E.02619
M204 P1000
G1 X91.086 Y86.653 F9000
M204 P800
G1 F1116
G1 X91.76 Y86.952 E.03229
G1 X92.355 Y87.385 E.03222
G1 X92.847 Y87.931 E.03218
G1 X93.215 Y88.569 E.03225
G1 X93.442 Y89.268 E.03218
G1 X93.519 Y90 E.03223
G1 X93.442 Y90.732 E.03223
G1 X93.215 Y91.431 E.03218
G1 X92.847 Y92.069 E.03225
G1 X92.355 Y92.615 E.03218
G1 X91.76 Y93.048 E.03222
G1 X91.088 Y93.347 E.03221
G1 X90.368 Y93.5 E.03223
G1 X89.632 Y93.5 E.03223
G1 X88.912 Y93.347 E.03223
G1 X88.24 Y93.048 E.03221
G1 X87.645 Y92.615 E.03222
G1 X87.153 Y92.069 E.03218
G1 X86.785 Y91.431 E.03225
G1 X86.558 Y90.732 E.03218
G1 X86.481 Y90 E.03223
G1 X86.558 Y89.268 E.03223
G1 X86.785 Y88.569 E.03218
G1 X87.153 Y87.931 E.03225
G1 X87.645 Y87.385 E.03218
G1 X88.24 Y86.952 E.03222
G1 X88.912 Y86.653 E.03221
G1 X89.632 Y86.5 E.03223
G1 X90.368 Y86.5 E.03223
G1 X91.028 Y86.64 E.02954
M204 P1000
G1 X91.18 Y86.298 F9000
M204 P800
;TYPE:External perimeter
G1 F1116
G1 X91.944 Y86.633 E.03653
G1 X92.601 Y87.111 E.03558
G1 X93.145 Y87.715 E.03559
G1 X93.552 Y88.419 E.03561
G1 X93.803 Y89.192 E.03559
G1 X93.888 Y90 E.03558
G1 X93.803 Y90.808 E.03558
G1 X93.552 Y91.581 E.03559
G1 X93.145 Y92.285 E.03561
G1 X92.601 Y92.889 E.03559
G1 X91.944 Y93.367 E.03558
G1 X91.201 Y93.697 E.0356
G1 X90.406 Y93.866 E.03559
G1 X89.594 Y93.866 E.03556
G1 X88.799 Y93.697 E.03559
G1 X88.056 Y93.367 E.0356
G1 X87.399 Y92.889 E.03558
G1 X86.855 Y92.285 E.03559
G1 X86.448 Y91.581 E.03561
G1 X86.197 Y90.808 E.03559
G1 X86.112 Y90 E.03558
G1 X86.197 Y89.192 E.03558
G1 X86.448 Y88.419 E.03559
G1 X86.855 Y87.715 E.03561
G1 X87.399 Y87.111 E.03559
G1 X88.056 Y86.633 E.03558
M73 P11 R4
G1 X88.799 Y86.303 E.0356
G1 X89.594 Y86.134 E.03559
G1 X90.406 Y86.134 E.03556
G1 X91.121 Y86.286 E.03201
M204 P1000
G1 X91.265 Y86.689 F9000
; stop printing object 0 id:0 copy 0
M106 S84.15
;LAYER_CHANGE
;Z:0.45
;HEIGHT:0.2
;BEFORE_LAYER_CHANGE
G92 E0.0
;0.45


G1 E-2.24 F4200
;WIPE_START
G1 F7200
G1 X91.944 Y86.633 E-.49496
G1 X92.601 Y87.111 E-.45025
G1 X92.619 Y87.131 E-.01479
;WIPE_END
G1 Z.45 F720
;AFTER_LAYER_CHANGE
;0.45
M104 S213 ; set temperature
G1 Z.65
G1 X95.093 Y84.698 F9000
G1 Z.45 F720
G1 E3.2 F2400
;TYPE:Skirt/Brim
G1 F1135
G1 X95.782 Y85.399 E.03544
G1 X96.612 Y86.702 E.05571
G1 X97.153 Y88.148 E.05567
G1 X97.382 Y89.676 E.05571
G1 X97.288 Y91.218 E.0557
G1 X96.876 Y92.707 E.05571
G1 X96.163 Y94.077 E.05569
G1 X95.18 Y95.269 E.05571
G1 X93.972 Y96.231 E.05568
G1 X93.39 Y96.564 E.02418
G1 X91.973 Y97.121 E.0549
G1 X90.449 Y97.375 E.05571
G1 X88.906 Y97.308 E.05569
G1 X87.411 Y96.921 E.05568
G1 X86.028 Y96.231 E.05573
G1 X84.82 Y95.269 E.05568
G1 X83.837 Y94.077 E.05571
G1 X83.124 Y92.707 E.05569
G1 X82.712 Y91.218 E.05571
G1 X82.618 Y89.676 E.0557
G1 X82.712 Y88.782 E.03241
G1 X83.124 Y87.293 E.05571
G1 X83.837 Y85.923 E.05569
G1 X84.82 Y84.731 E.05571
G1 X85.978 Y83.806 E.05344
G1 X86.59 Y83.445 E.02562
G1 X88.027 Y82.879 E.05569
G1 X89.551 Y82.625 E.05571
G1 X91.094 Y82.692 E.05569
M73 P12 R4
G1 X92.589 Y83.079 E.05568
G1 X93.411 Y83.445 E.03244
G1 X94.699 Y84.297 E.05568
G1 X95.051 Y84.656 E.01813
G1 X94.792 Y84.909 F9000
G1 F1135
G1 X95.51 Y85.644 E.03705
G1 X96.295 Y86.885 E.05295
G1 X96.805 Y88.262 E.05295
G1 X97.018 Y89.714 E.05292
G1 X96.924 Y91.18 E.05297
G1 X96.527 Y92.593 E.05292
G1 X95.845 Y93.894 E.05297
G1 X94.908 Y95.024 E.05293
G1 X93.756 Y95.935 E.05296
G1 X93.241 Y96.23 E.0214
G1 X91.897 Y96.763 E.05213
G1 X90.449 Y97.009 E.05296
G1 X88.982 Y96.949 E.05294
G1 X87.56 Y96.586 E.05292
G1 X86.244 Y95.935 E.05294
G1 X85.092 Y95.024 E.05296
G1 X84.155 Y93.894 E.05293
G1 X83.473 Y92.593 E.05297
G1 X83.076 Y91.18 E.05292
G1 X82.982 Y89.714 E.05297
G1 X83.076 Y88.82 E.03241
G1 X83.473 Y87.407 E.05292
G1 X84.155 Y86.106 E.05297
G1 X85.092 Y84.976 E.05293
G1 X86.164 Y84.123 E.0494
G1 X86.739 Y83.78 E.02414
G1 X88.103 Y83.237 E.05294
G1 X89.551 Y82.991 E.05296
G1 X91.018 Y83.051 E.05294
G1 X92.44 Y83.414 E.05292
G1 X93.262 Y83.78 E.03244
G1 X94.484 Y84.594 E.05294
G1 X94.75 Y84.866 E.01372
G1 X94.49 Y85.118 F9000
G1 F1135
G1 X95.237 Y85.889 E.03871
G1 X95.978 Y87.068 E.05021
M73 P13 R3
G1 X96.457 Y88.375 E.05019
G1 X96.653 Y89.753 E.05019
G1 X96.559 Y91.141 E.05016
G1 X96.179 Y92.48 E.05019
G1 X95.528 Y93.711 E.05021
G1 X94.636 Y94.779 E.05017
G1 X93.541 Y95.638 E.05018
G1 X93.092 Y95.895 E.01865
G1 X91.821 Y96.404 E.04937
G1 X90.449 Y96.643 E.05022
G1 X89.059 Y96.591 E.05015
G1 X87.709 Y96.251 E.0502
G1 X86.459 Y95.638 E.0502
G1 X85.364 Y94.779 E.05018
G1 X84.472 Y93.711 E.05017
G1 X83.821 Y92.48 E.05021
G1 X83.441 Y91.141 E.05019
G1 X83.347 Y89.753 E.05016
G1 X83.441 Y88.859 E.03241
G1 X83.821 Y87.52 E.05019
G1 X84.472 Y86.289 E.05021
G1 X85.364 Y85.221 E.05017
G1 X86.408 Y84.399 E.04791
G1 X86.888 Y84.114 E.02013
G1 X88.179 Y83.596 E.05016
G1 X89.551 Y83.357 E.05022
G1 X90.941 Y83.409 E.05015
G1 X92.291 Y83.749 E.0502
G1 X93.113 Y84.114 E.03243
G1 X94.268 Y84.89 E.05017
G1 X94.448 Y85.075 E.00931
; printing object 0 id:0 copy 0
G1 E-2.24 F4200
;WIPE_START
G1 F7200
G1 X95.237 Y85.889 E-.62822
G1 X95.556 Y86.396 E-.33178
;WIPE_END
G1 Z.65 F720
G1 X92.637 Y89.928 F9000
G1 Z.45 F720
G1 E3.2 F2400
M204 P800
;TYPE:Perimeter
;WIDTH:0.45
G1 F1135
G1 X92.645 Y90 E.00282
G1 X92.587 Y90.55 E.02153
G1 X92.416 Y91.076 E.02153
G1 X92.14 Y91.555 E.02152
G1 X91.77 Y91.966 E.02153
G1 X91.322 Y92.291 E.02154
G1 X90.817 Y92.515 E.0215
G1 X90.276 Y92.63 E.02153
G1 X89.724 Y92.63 E.02149
G1 X89.183 Y92.515 E.02153
M73 P14 R3
G1 X88.678 Y92.291 E.0215
G1 X88.23 Y91.966 E.02154
G1 X87.86 Y91.555 E.02153
G1 X87.58 Y91.07 E.0218
G1 X87.41 Y90.52 E.02241
G1 X87.355 Y90 E.02035
G1 X87.413 Y89.45 E.02153
G1 X87.584 Y88.924 E.02153
G1 X87.86 Y88.445 E.02152
G1 X88.23 Y88.034 E.02153
G1 X88.678 Y87.709 E.02154
G1 X89.183 Y87.485 E.0215
G1 X89.724 Y87.37 E.02153
G1 X90.276 Y87.37 E.02149
G1 X90.787 Y87.478 E.02033
G1 X91.317 Y87.705 E.02244
G1 X91.77 Y88.034 E.02179
G1 X92.14 Y88.445 E.02153
G1 X92.416 Y88.924 E.02152
G1 X92.587 Y89.45 E.02153
G1 X92.631 Y89.868 E.01636
M204 P1000
G1 X92.232 Y89.964 F9000
M204 P800
G1 F1135
G1 X92.187 Y90.465 E.01958
G1 X92.042 Y90.909 E.01818
G1 X91.809 Y91.314 E.01819
G1 X91.496 Y91.661 E.01819
G1 X91.118 Y91.936 E.0182
G1 X90.691 Y92.126 E.01819
G1 X90.234 Y92.223 E.01819
G1 X89.766 Y92.223 E.01822
G1 X89.309 Y92.126 E.01819
G1 X88.882 Y91.936 E.01819
G1 X88.504 Y91.661 E.0182
G1 X88.191 Y91.314 E.01819
G1 X87.956 Y90.906 E.01833
G1 X87.81 Y90.437 E.01912
G1 X87.764 Y90 E.0171
G1 X87.813 Y89.535 E.0182
G1 X87.958 Y89.091 E.01818
G1 X88.191 Y88.686 E.01819
G1 X88.504 Y88.339 E.01819
G1 X88.882 Y88.064 E.0182
G1 X89.309 Y87.874 E.01819
G1 X89.766 Y87.777 E.01819
G1 X90.234 Y87.777 E.01822
G1 X90.664 Y87.868 E.01711
G1 X91.114 Y88.061 E.01906
G1 X91.496 Y88.339 E.01839
G1 X91.809 Y88.686 E.01819
G1 X92.042 Y89.091 E.01819
G1 X92.187 Y89.535 E.01818
G1 X92.225 Y89.904 E.01444
M204 P1000
G1 X91.826 Y90 F9000
M204 P800
;TYPE:External perimeter
G1 F1135
G1 X91.786 Y90.38 E.01487
G1 X91.668 Y90.743 E.01486
G1 X91.477 Y91.073 E.01484
G1 X91.222 Y91.357 E.01486
G1 X90.913 Y91.582 E.01488
G1 X90.564 Y91.737 E.01486
G1 X90.191 Y91.816 E.01484
G1 X89.809 Y91.816 E.01487
G1 X89.436 Y91.737 E.01484
G1 X89.087 Y91.582 E.01486
G1 X88.778 Y91.357 E.01488
G1 X88.523 Y91.073 E.01486
G1 X88.331 Y90.741 E.01493
G1 X88.211 Y90.355 E.01573
G1 X88.174 Y90 E.01389
G1 X88.214 Y89.62 E.01487
G1 X88.332 Y89.257 E.01486
G1 X88.523 Y88.927 E.01484
G1 X88.778 Y88.643 E.01486
G1 X89.087 Y88.418 E.01488
G1 X89.436 Y88.263 E.01486
G1 X89.809 Y88.184 E.01484
G1 X90.191 Y88.184 E.01487
G1 X90.54 Y88.258 E.01389
G1 X90.912 Y88.418 E.01576
G1 X91.222 Y88.643 E.01491
