; generated by PrusaSlicer 2.5.0+linux-x64-GTK3 on 2023-03-09 at 12:27:20 UTC

; 
;

; 
;

; 
;

; 

; external perimeters extrusion width = 0.45mm
; perimeters extrusion width = 0.45mm
; infill extrusion width = 0.45mm
; solid infill extrusion width = 0.45mm
; top infill extrusion width = 0.40mm
; first layer extrusion width = 0.42mm

M73 P0 R39
M201 X2500 Y2500 Z400 E5000 ; sets maximum accelerations, mm/sec^2
M203 X180 Y180 Z12 E80 ; sets maximum feedrates, mm / sec
M204 P1250 R1250 T2500 ; sets acceleration (P, T) and retract acceleration (R), mm/sec^2
M205 X8.00 Y8.00 Z2.00 E10.00 ; sets the jerk limits, mm/sec
M205 S0 T0 ; sets the minimum extruding and travel feed rate, mm/sec
M107
;TYPE:Custom
M862.3 P "MINI" ; printer model check
G90 ; use absolute coordinates
M83 ; extruder relative mode
M104 S170 ; set extruder temp for bed leveling
M140 S60 ; set bed temp
M109 R170 ; wait for bed leveling temp
M190 S60 ; wait for bed temp
M204 T1250 ; set travel acceleration
G28 ; home all without mesh bed level
G29 ; mesh bed leveling 
M204 T2500 ; restore travel acceleration
M104 S215 ; set extruder temp
G92 E0
G1 Y-2 X179 F2400
G1 Z3 F720
M109 S215 ; wait for extruder temp

; intro line
G1 X170 F1000
G1 Z0.2 F720
G1 X110 E8 F900
G1 X40 E10 F700
G92 E0

M221 S95 ; set flow
G21 ; set units to millimeters
G90 ; use absolute coordinates
M83 ; use relative distances for extrusion
M900 K0.05 ; Filament gcode LA 1.5
M900 K30 ; Filament gcode LA 1.0
M107
;LAYER_CHANGE
;Z:0.2
;HEIGHT:0.2
;BEFORE_LAYER_CHANGE
G92 E0.0
;0.2


G1 E-3.2 F4200
G1 Z.2 F720
;AFTER_LAYER_CHANGE
;0.2
G1 Z.4
G1 X57.515 Y58.193 F9000
G1 Z.2 F720
G1 E3.2 F2400
M204 P800
;TYPE:Skirt/Brim
;WIDTH:0.42
G1 F1200
G1 X58.56 Y57.317 E.04193
G1 X59.5 Y57.123 E.02948
G1 X120.5 Y57.123 E1.87436
G1 X121.807 Y57.515 E.04193
G1 X122.683 Y58.56 E.04193
G1 X122.877 Y59.5 E.02948
G1 X122.877 Y120.5 E1.87436
G1 X122.485 Y121.807 E.04193
G1 X121.44 Y122.683 E.04193
G1 X120.5 Y122.877 E.02948
G1 X59.5 Y122.877 E1.87436
G1 X58.193 Y122.485 E.04193
M73 P1 R39
G1 X57.317 Y121.44 E.04193
G1 X57.123 Y120.5 E.02948
G1 X57.123 Y59.5 E1.87436
G1 X57.497 Y58.25 E.04008
M204 P1000
; printing object  id:0 copy 0
G1 E-2.24 F4200
;WIPE_START
G1 F7200
G1 X58.56 Y57.317 E-.78411
G1 X58.786 Y57.27 E-.12789
;WIPE_END
G1 E-.048 F4200
G1 Z.4 F720
G1 X60.664 Y60.664 F9000
G1 Z.2 F720
G1 E3.2 F2400
M204 P800
;TYPE:Perimeter
;WIDTH:0.419999
G1 F1200
G1 X119.336 Y60.664 E1.80281
G1 X119.336 Y119.336 E1.80281
G1 X60.664 Y119.336 E1.80281
G1 X60.664 Y60.724 E1.80097
M204 P1000
G1 X60.287 Y60.287 F9000
M204 P800
G1 F1200
G1 X119.713 Y60.287 E1.82599
G1 X119.713 Y119.713 E1.82599
G1 X60.287 Y119.713 E1.82599
G1 X60.287 Y60.347 E1.82414
M204 P1000
M73 P2 R39
G1 X59.91 Y59.91 F9000
M204 P800
;TYPE:External perimeter
G1 F1200
G1 X120.09 Y59.91 E1.84916
G1 X120.09 Y120.09 E1.84916
G1 X59.91 Y120.09 E1.84916
M73 P2 R38
G1 X59.91 Y59.97 E1.84732
M204 P1000
G1 X60.296 Y60.014 F9000
G1 E-2.24 F4200
;WIPE_START
G1 F7200
G1 X61.556 Y59.968 E-.912
;WIPE_END
G1 E-.048 F4200
G1 Z.4 F720
G1 X71.173 Y77.312 F9000
G1 Z.2 F720
G1 E3.2 F2400
M204 P800
;TYPE:Perimeter
G1 F1200
G1 X70.761 Y76.634 E.02438
G1 X70.449 Y75.709 E.02999
G1 X70.34 Y74.849 E.02665
G1 X70.416 Y73.929 E.02834
G1 X70.681 Y73.046 E.02834
G1 X71.124 Y72.237 E.02833
G1 X71.726 Y71.539 E.02834
G1 X72.46 Y70.98 E.02834
G1 X73.294 Y70.586 E.02834
G1 X74.191 Y70.374 E.02833
G1 X75.113 Y70.354 E.02834
G1 X76.019 Y70.525 E.02834
G1 X76.87 Y70.881 E.02833
G1 X77.628 Y71.407 E.02834
G1 X78.26 Y72.078 E.02834
G1 X78.739 Y72.866 E.02834
G1 X79.043 Y73.737 E.02834
G1 X79.16 Y74.651 E.02834
G1 X79.089 Y75.527 E.02699
G1 X78.866 Y76.31 E.02503
G1 X78.739 Y76.634 E.01067
G1 X78.376 Y77.263 E.02231
G1 X77.774 Y77.961 E.02833
G1 X77.04 Y78.52 E.02834
G1 X76.206 Y78.914 E.02834
G1 X75.309 Y79.126 E.02833
G1 X74.387 Y79.146 E.02834
G1 X73.481 Y78.975 E.02834
G1 X72.63 Y78.619 E.02833
G1 X71.872 Y78.093 E.02834
G1 X71.24 Y77.422 E.02834
G1 X71.204 Y77.363 E.00211
M204 P1000
G1 X71.487 Y77.113 F9000
M204 P800
G1 F1200
G1 X71.088 Y76.445 E.02391
G1 X70.809 Y75.597 E.02744
G1 X70.715 Y74.809 E.02438
G1 X70.791 Y73.969 E.02592
G1 X71.04 Y73.163 E.02593
G1 X71.451 Y72.426 E.02592
G1 X72.006 Y71.791 E.02592
G1 X72.681 Y71.285 E.02592
G1 X73.447 Y70.931 E.02593
G1 X74.269 Y70.743 E.02592
G1 X75.113 Y70.731 E.02592
G1 X75.941 Y70.894 E.02592
G1 X76.716 Y71.226 E.02592
G1 X77.406 Y71.712 E.02593
G1 X77.98 Y72.33 E.02592
G1 X78.412 Y73.055 E.02592
G1 X78.685 Y73.853 E.02592
G1 X78.785 Y74.691 E.02592
G1 X78.714 Y75.488 E.02458
G1 X78.507 Y76.194 E.02262
G1 X78.412 Y76.445 E.00825
G1 X78.049 Y77.074 E.02231
G1 X77.494 Y77.709 E.02592
G1 X76.819 Y78.215 E.02592
G1 X76.053 Y78.569 E.02593
G1 X75.231 Y78.757 E.02592
G1 X74.387 Y78.769 E.02592
G1 X73.559 Y78.606 E.02593
G1 X72.784 Y78.274 E.02592
G1 X72.094 Y77.788 E.02593
G1 X71.517 Y77.165 E.0261
M204 P1000
G1 X71.812 Y76.93 F9000
M204 P800
;TYPE:External perimeter
G1 F1200
G1 X71.414 Y76.257 E.02402
G1 X71.169 Y75.485 E.02489
G1 X71.09 Y74.77 E.0221
G1 X71.166 Y74.008 E.02351
G1 X71.398 Y73.279 E.02351
G1 X71.777 Y72.615 E.02351
G1 X72.286 Y72.043 E.02351
G1 X72.903 Y71.59 E.02351
G1 X73.6 Y71.275 E.02351
G1 X74.348 Y71.112 E.02351
G1 X75.113 Y71.108 E.02351
G1 X75.862 Y71.263 E.02351
G1 X76.563 Y71.57 E.02351
G1 X77.185 Y72.017 E.02351
G1 X77.7 Y72.583 E.02351
G1 X78.086 Y73.243 E.02351
G1 X78.326 Y73.97 E.02351
G1 X78.41 Y74.73 E.02351
G1 X78.339 Y75.448 E.02217
G1 X78.086 Y76.257 E.02604
G1 X77.723 Y76.885 E.02231
G1 X77.214 Y77.457 E.02351
G1 X76.597 Y77.91 E.02351
G1 X75.9 Y78.225 E.02351
G1 X75.152 Y78.388 E.02351
G1 X74.387 Y78.392 E.02351
G1 X73.638 Y78.237 E.02351
G1 X72.937 Y77.93 E.02351
G1 X72.315 Y77.483 E.02351
G1 X71.852 Y76.974 E.02115
M204 P1000
G1 X71.414 Y76.975 F9000
G1 E-2.24 F4200
;WIPE_START
G1 F7200
G1 X71.414 Y76.257 E-.46583
G1 X71.17 Y75.489 E-.44617
;WIPE_END
G1 E-.048 F4200
G1 Z.4 F720
G1 X108.792 Y77.36 F9000
G1 Z.2 F720
G1 E3.2 F2400
M204 P800
;TYPE:Perimeter
G1 F1200
G1 X108.274 Y77.961 E.02438
G1 X107.54 Y78.52 E.02834
G1 X106.706 Y78.914 E.02834
G1 X105.886 Y79.109 E.02591
G1 X105.613 Y79.146 E.00847
G1 X104.887 Y79.146 E.02231
G1 X103.981 Y78.975 E.02834
G1 X103.13 Y78.619 E.02833
G1 X102.372 Y78.093 E.02834
G1 X101.74 Y77.422 E.02833
G1 X101.261 Y76.634 E.02834
G1 X101.006 Y75.894 E.02405
G1 X100.911 Y75.527 E.01165
G1 X100.84 Y74.849 E.02096
G1 X100.916 Y73.929 E.02834
G1 X101.181 Y73.046 E.02834
G1 X101.624 Y72.237 E.02833
G1 X102.226 Y71.539 E.02834
G1 X102.96 Y70.98 E.02834
G1 X103.794 Y70.586 E.02834
G1 X104.691 Y70.374 E.02833
G1 X105.613 Y70.354 E.02834
G1 X106.519 Y70.525 E.02834
G1 X107.37 Y70.881 E.02833
G1 X108.128 Y71.407 E.02834
G1 X108.76 Y72.078 E.02834
G1 X109.239 Y72.866 E.02834
G1 X109.543 Y73.737 E.02834
G1 X109.66 Y74.651 E.02834
G1 X109.584 Y75.571 E.02834
G1 X109.319 Y76.454 E.02834
G1 X108.876 Y77.263 E.02833
G1 X108.831 Y77.315 E.00211
M204 P1000
G1 X108.506 Y77.123 F9000
M204 P800
G1 F1200
G1 X107.994 Y77.709 E.0239
G1 X107.319 Y78.215 E.02593
G1 X106.553 Y78.569 E.02593
G1 X105.808 Y78.74 E.0235
G1 X104.887 Y78.769 E.02831
G1 X104.059 Y78.606 E.02592
M73 P3 R38
G1 X103.284 Y78.274 E.02592
G1 X102.594 Y77.788 E.02593
G1 X102.02 Y77.17 E.02592
G1 X101.588 Y76.445 E.02592
G1 X101.286 Y75.488 E.03085
G1 X101.215 Y74.809 E.02096
G1 X101.291 Y73.969 E.02592
G1 X101.54 Y73.163 E.02593
G1 X101.951 Y72.426 E.02592
G1 X102.506 Y71.791 E.02592
G1 X103.181 Y71.285 E.02593
G1 X103.947 Y70.931 E.02593
G1 X104.769 Y70.743 E.02592
G1 X105.613 Y70.731 E.02592
G1 X106.441 Y70.894 E.02592
G1 X107.216 Y71.226 E.02592
G1 X107.906 Y71.712 E.02593
G1 X108.48 Y72.33 E.02592
G1 X108.912 Y73.055 E.02592
G1 X109.185 Y73.853 E.02592
G1 X109.285 Y74.691 E.02592
G1 X109.209 Y75.531 E.02592
G1 X108.96 Y76.337 E.02593
G1 X108.546 Y77.078 E.02609
M204 P1000
G1 X108.231 Y76.871 F9000
M204 P800
;TYPE:External perimeter
G1 F1200
G1 X107.714 Y77.457 E.02402
G1 X107.097 Y77.91 E.02351
G1 X106.4 Y78.225 E.02351
G1 X105.729 Y78.372 E.02109
G1 X104.887 Y78.392 E.02589
G1 X104.138 Y78.237 E.02351
G1 X103.437 Y77.93 E.02351
G1 X102.815 Y77.483 E.02352
G1 X102.3 Y76.917 E.02351
G1 X101.914 Y76.257 E.02351
G1 X101.661 Y75.448 E.02603
G1 X101.59 Y74.77 E.02096
G1 X101.666 Y74.008 E.02351
G1 X101.898 Y73.279 E.02351
G1 X102.277 Y72.615 E.02351
G1 X102.786 Y72.043 E.02351
G1 X103.403 Y71.59 E.02351
G1 X104.1 Y71.275 E.02351
G1 X104.848 Y71.112 E.02351
G1 X105.613 Y71.108 E.02351
G1 X106.362 Y71.263 E.02351
G1 X107.063 Y71.57 E.02351
G1 X107.685 Y72.017 E.02351
G1 X108.2 Y72.583 E.02351
G1 X108.586 Y73.243 E.02351
G1 X108.826 Y73.97 E.02351
G1 X108.91 Y74.73 E.02351
G1 X108.834 Y75.492 E.02351
G1 X108.602 Y76.221 E.02351
G1 X108.261 Y76.819 E.02115
M204 P1000
G1 X108.397 Y77.235 F9000
G1 E-2.24 F4200
;WIPE_START
G1 F7200
G1 X107.714 Y77.457 E-.46575
G1 X107.097 Y77.91 E-.42407
G1 X107.061 Y77.926 E-.02218
;WIPE_END
G1 E-.048 F4200
G1 Z.4 F720
G1 X102.284 Y108.5 F9000
G1 Z.2 F720
G1 E3.2 F2400
M204 P800
;TYPE:Perimeter
G1 F1200
G1 X101.74 Y107.922 E.02438
G1 X101.261 Y107.134 E.02834
G1 X100.949 Y106.209 E.02999
G1 X100.838 Y105.332 E.02716
G1 X100.916 Y104.429 E.02784
G1 X101.181 Y103.546 E.02834
G1 X101.624 Y102.738 E.02833
G1 X102.226 Y102.039 E.02834
G1 X102.96 Y101.48 E.02834
G1 X103.794 Y101.086 E.02834
G1 X104.691 Y100.874 E.02833
G1 X105.613 Y100.854 E.02834
G1 X106.519 Y101.025 E.02834
G1 X107.37 Y101.381 E.02833
G1 X108.128 Y101.907 E.02834
G1 X108.76 Y102.578 E.02834
G1 X109.239 Y103.366 E.02834
G1 X109.543 Y104.237 E.02834
G1 X109.66 Y105.151 E.02834
G1 X109.584 Y106.071 E.02834
G1 X109.319 Y106.954 E.02834
G1 X108.876 Y107.763 E.02833
G1 X108.274 Y108.461 E.02834
G1 X107.54 Y109.02 E.02834
G1 X106.706 Y109.414 E.02834
G1 X105.809 Y109.626 E.02833
G1 X104.887 Y109.646 E.02834
G1 X103.981 Y109.475 E.02834
G1 X103.13 Y109.119 E.02833
G1 X102.372 Y108.593 E.02834
G1 X102.325 Y108.543 E.00211
M204 P1000
G1 X102.549 Y108.24 F9000
M204 P800
G1 F1200
G1 X102.02 Y107.67 E.0239
G1 X101.588 Y106.945 E.02593
G1 X101.309 Y106.097 E.02744
G1 X101.214 Y105.299 E.02468
G1 X101.291 Y104.469 E.02563
G1 X101.54 Y103.663 E.02593
G1 X101.951 Y102.926 E.02592
G1 X102.506 Y102.291 E.02592
G1 X103.181 Y101.785 E.02593
G1 X103.947 Y101.431 E.02592
G1 X104.769 Y101.243 E.02592
G1 X105.613 Y101.231 E.02592
G1 X106.441 Y101.394 E.02592
G1 X107.216 Y101.726 E.02592
G1 X107.906 Y102.212 E.02593
G1 X108.48 Y102.83 E.02592
G1 X108.912 Y103.555 E.02592
G1 X109.185 Y104.353 E.02592
G1 X109.285 Y105.191 E.02592
G1 X109.209 Y106.031 E.02592
G1 X108.96 Y106.837 E.02593
G1 X108.549 Y107.574 E.02592
G1 X107.994 Y108.209 E.02592
G1 X107.319 Y108.715 E.02593
G1 X106.553 Y109.069 E.02593
G1 X105.731 Y109.257 E.02592
G1 X104.887 Y109.269 E.02592
G1 X104.059 Y109.106 E.02592
G1 X103.284 Y108.774 E.02592
G1 X102.59 Y108.284 E.0261
M204 P1000
G1 X102.829 Y107.993 F9000
M204 P800
;TYPE:External perimeter
G1 F1200
G1 X102.3 Y107.417 E.02402
G1 X101.914 Y106.757 E.02352
G1 X101.669 Y105.985 E.02489
G1 X101.589 Y105.266 E.0222
G1 X101.666 Y104.508 E.02341
G1 X101.898 Y103.779 E.02351
G1 X102.277 Y103.115 E.02351
G1 X102.786 Y102.543 E.02351
G1 X103.403 Y102.09 E.02351
G1 X104.1 Y101.775 E.02351
G1 X104.848 Y101.612 E.02351
G1 X105.613 Y101.608 E.02351
G1 X106.362 Y101.763 E.02351
G1 X107.063 Y102.07 E.02351
G1 X107.685 Y102.517 E.02351
G1 X108.2 Y103.083 E.02351
G1 X108.586 Y103.743 E.02351
G1 X108.826 Y104.47 E.02351
G1 X108.91 Y105.23 E.02351
G1 X108.834 Y105.992 E.02351
G1 X108.602 Y106.721 E.02351
G1 X108.223 Y107.385 E.02351
G1 X107.714 Y107.957 E.02351
G1 X107.097 Y108.41 E.02351
G1 X106.4 Y108.725 E.02351
G1 X105.652 Y108.888 E.02351
G1 X104.887 Y108.892 E.02351
G1 X104.138 Y108.737 E.02351
G1 X103.437 Y108.43 E.02351
G1 X102.878 Y108.028 E.02115
M204 P1000
G1 X102.45 Y108.12 F9000
G1 E-2.24 F4200
;WIPE_START
G1 F7200
G1 X102.3 Y107.417 E-.46575
G1 X101.914 Y106.757 E-.42411
G1 X101.902 Y106.719 E-.02214
;WIPE_END
G1 E-.048 F4200
G1 Z.4 F720
G1 X78.292 Y107.86 F9000
G1 Z.2 F720
G1 E3.2 F2400
M204 P800
;TYPE:Perimeter
G1 F1200
G1 X77.774 Y108.461 E.02438
G1 X77.04 Y109.02 E.02834
G1 X76.206 Y109.414 E.02834
G1 X75.309 Y109.626 E.02833
G1 X74.387 Y109.646 E.02834
G1 X73.481 Y109.475 E.02834
G1 X72.63 Y109.119 E.02833
G1 X71.872 Y108.593 E.02834
G1 X71.24 Y107.922 E.02834
G1 X70.761 Y107.134 E.02834
G1 X70.449 Y106.209 E.02999
G1 X70.34 Y105.349 E.02665
G1 X70.416 Y104.429 E.02834
G1 X70.681 Y103.546 E.02834
G1 X71.124 Y102.737 E.02833
G1 X71.726 Y102.039 E.02834
G1 X72.46 Y101.48 E.02834
G1 X73.294 Y101.086 E.02834
G1 X74.114 Y100.891 E.02591
G1 X74.387 Y100.854 E.00847
G1 X75.113 Y100.854 E.02231
G1 X76.019 Y101.025 E.02834
G1 X76.87 Y101.381 E.02833
G1 X77.628 Y101.907 E.02834
G1 X78.26 Y102.578 E.02834
G1 X78.739 Y103.366 E.02834
G1 X79.043 Y104.237 E.02834
G1 X79.16 Y105.151 E.02834
G1 X79.089 Y106.027 E.02699
G1 X78.819 Y106.954 E.02966
G1 X78.376 Y107.763 E.02833
G1 X78.331 Y107.815 E.00211
M204 P1000
G1 X78.006 Y107.623 F9000
M204 P800
G1 F1200
G1 X77.494 Y108.209 E.0239
G1 X76.819 Y108.715 E.02593
G1 X76.053 Y109.069 E.02593
G1 X75.231 Y109.257 E.02592
G1 X74.387 Y109.269 E.02592
G1 X73.559 Y109.106 E.02592
G1 X72.784 Y108.774 E.02592
G1 X72.094 Y108.288 E.02593
G1 X71.52 Y107.67 E.02592
G1 X71.088 Y106.945 E.02593
G1 X70.809 Y106.097 E.02744
G1 X70.715 Y105.309 E.02438
G1 X70.791 Y104.469 E.02592
G1 X71.04 Y103.663 E.02593
G1 X71.451 Y102.926 E.02592
G1 X72.006 Y102.291 E.02592
G1 X72.681 Y101.785 E.02593
G1 X73.447 Y101.431 E.02593
G1 X74.192 Y101.26 E.0235
G1 X75.113 Y101.231 E.02831
G1 X75.941 Y101.394 E.02593
G1 X76.716 Y101.726 E.02592
G1 X77.406 Y102.212 E.02593
G1 X77.98 Y102.83 E.02592
G1 X78.412 Y103.555 E.02592
G1 X78.685 Y104.353 E.02592
G1 X78.785 Y105.191 E.02592
G1 X78.714 Y105.988 E.02458
G1 X78.46 Y106.837 E.02725
G1 X78.046 Y107.578 E.02609
M204 P1000
G1 X77.731 Y107.371 F9000
M204 P800
;TYPE:External perimeter
G1 F1200
G1 X77.214 Y107.957 E.02402
G1 X76.597 Y108.41 E.02351
G1 X75.9 Y108.725 E.02351
G1 X75.152 Y108.888 E.02351
G1 X74.387 Y108.892 E.02351
G1 X73.638 Y108.737 E.02351
G1 X72.937 Y108.43 E.02351
G1 X72.315 Y107.983 E.02351
G1 X71.8 Y107.417 E.02351
G1 X71.414 Y106.757 E.02352
G1 X71.169 Y105.985 E.02489
G1 X71.09 Y105.27 E.0221
G1 X71.166 Y104.508 E.02351
G1 X71.398 Y103.779 E.02351
G1 X71.777 Y103.115 E.02351
G1 X72.286 Y102.543 E.02351
G1 X72.903 Y102.09 E.02351
G1 X73.6 Y101.775 E.02351
G1 X74.271 Y101.628 E.02108
G1 X75.113 Y101.608 E.02589
G1 X75.862 Y101.763 E.02351
G1 X76.563 Y102.07 E.02351
G1 X77.184 Y102.517 E.02351
G1 X77.7 Y103.083 E.02351
G1 X78.086 Y103.743 E.02351
G1 X78.326 Y104.47 E.02351
G1 X78.41 Y105.23 E.02351
G1 X78.339 Y105.948 E.02217
G1 X78.102 Y106.721 E.02483
G1 X77.761 Y107.319 E.02115
M204 P1000
G1 X77.898 Y107.734 F9000
G1 E-2.24 F4200
;WIPE_START
G1 F7200
G1 X77.214 Y107.957 E-.46575
G1 X76.597 Y108.41 E-.42407
G1 X76.561 Y108.426 E-.02218
;WIPE_END
G1 E-.048 F4200
G1 Z.4 F720
G1 X118.459 Y60.777 F9000
G1 Z.2 F720
G1 E3.2 F2400
M204 P800
;TYPE:Solid infill
;WIDTH:0.42058
G1 F1200
G1 X119.053 Y61.371 E.02584
G1 X119.053 Y61.905 E.01644
G1 X118.095 Y60.947 E.0417
G1 X117.561 Y60.947 E.01644
G1 X119.053 Y62.439 E.06495
G1 X119.053 Y62.973 E.01644
G1 X117.027 Y60.947 E.08819
G1 X116.493 Y60.947 E.01644
G1 X119.053 Y63.507 E.11144
G1 X119.053 Y64.042 E.01644
G1 X115.958 Y60.947 E.13468
G1 X115.424 Y60.947 E.01644
G1 X119.053 Y64.576 E.15793
G1 X119.053 Y65.11 E.01644
G1 X114.89 Y60.947 E.18117
G1 X114.356 Y60.947 E.01644
G1 X119.053 Y65.644 E.20442
G1 X119.053 Y66.178 E.01644
G1 X113.822 Y60.947 E.22766
G1 X113.288 Y60.947 E.01644
G1 X119.053 Y66.712 E.2509
G1 X119.053 Y67.246 E.01644
G1 X112.754 Y60.947 E.27415
G1 X112.22 Y60.947 E.01644
G1 X119.053 Y67.78 E.29739
G1 X119.053 Y68.314 E.01644
G1 X111.686 Y60.947 E.32064
G1 X111.152 Y60.947 E.01644
G1 X119.053 Y68.848 E.34388
G1 X119.053 Y69.382 E.01644
G1 X110.618 Y60.947 E.36713
G1 X110.083 Y60.947 E.01644
G1 X119.053 Y69.917 E.39037
G1 X119.053 Y70.451 E.01644
G1 X109.549 Y60.947 E.41362
