; generated by PrusaSlicer 2.5.0+linux-x64-GTK3 on 2023-03-15 at 19:13:15 UTC

; 
;

; 
;

; 
;

; 

; external perimeters extrusion width = 0.45mm
; perimeters extrusion width = 0.45mm
; infill extrusion width = 0.45mm
; solid infill extrusion width = 0.45mm
; top infill extrusion width = 0.40mm
; first layer extrusion width = 0.42mm

M73 P0 R10
M201 X2500 Y2500 Z400 E5000 ; sets maximum accelerations, mm/sec^2
M203 X180 Y180 Z12 E80 ; sets maximum feedrates, mm / sec
M204 P1250 R1250 T2500 ; sets acceleration (P, T) and retract acceleration (R), mm/sec^2
M205 X8.00 Y8.00 Z2.00 E10.00 ; sets the jerk limits, mm/sec
M205 S0 T0 ; sets the minimum extruding and travel feed rate, mm/sec
M107
;TYPE:Custom
M862.3 P "MINI" ; printer model check
G90 ; use absolute coordinates
M83 ; extruder relative mode
M104 S170 ; set extruder temp for bed leveling
M140 S60 ; set bed temp
M109 R170 ; wait for bed leveling temp
M190 S60 ; wait for bed temp
M204 T1250 ; set travel acceleration
G28 ; home all without mesh bed level
G29 ; mesh bed leveling 
M204 T2500 ; restore travel acceleration
M104 S215 ; set extruder temp
G92 E0
G1 Y-2 X179 F2400
G1 Z3 F720
M109 S215 ; wait for extruder temp

; intro line
M73 P0 R9
G1 X170 F1000
G1 Z0.2 F720
G1 X110 E8 F900
G1 X40 E10 F700
G92 E0

M221 S95 ; set flow
G21 ; set units to millimeters
G90 ; use absolute coordinates
M83 ; use relative distances for extrusion
M900 K0.05 ; Filament gcode LA 1.5
M900 K30 ; Filament gcode LA 1.0
M107
;LAYER_CHANGE
;Z:0.2
;HEIGHT:0.2
;BEFORE_LAYER_CHANGE
G92 E0.0
;0.2


M73 P1 R9
G1 E-3.2 F4200
M73 P2 R9
G1 Z.2 F720
;AFTER_LAYER_CHANGE
;0.2
G1 Z.4
G1 X75.504 Y74.576 F9000
G1 Z.2 F720
G1 E3.2 F2400
M204 P800
;TYPE:Skirt/Brim
;WIDTH:0.42
G1 F1200
G1 X76.73 Y73.76 E.04526
G1 X78.099 Y73.217 E.04525
G1 X79.55 Y72.969 E.04525
G1 X100.45 Y72.969 E.64217
G1 X101.022 Y73.03 E.01769
G1 X101.901 Y73.217 E.02762
G1 X103.27 Y73.76 E.04525
G1 X103.769 Y74.048 E.01769
G1 X104.924 Y74.962 E.04526
G1 X105.525 Y75.63 E.02762
G1 X106.313 Y76.874 E.04526
G1 X106.825 Y78.255 E.04525
M73 P3 R9
G1 X106.945 Y78.818 E.01769
G1 X107.054 Y80 E.03647
G1 X107.039 Y100.288 E.62339
G1 X106.825 Y101.745 E.04525
G1 X106.548 Y102.6 E.02762
G1 X105.864 Y103.904 E.04525
G1 X105.525 Y104.37 E.0177
G1 X104.496 Y105.424 E.04525
G1 X103.27 Y106.24 E.04526
G1 X101.901 Y106.783 E.04525
G1 X100.45 Y107.031 E.04525
G1 X79.55 Y107.031 E.64217
G1 X78.978 Y106.97 E.01769
G1 X77.551 Y106.606 E.04525
G1 X76.231 Y105.952 E.04525
G1 X75.504 Y105.424 E.02762
G1 X74.475 Y104.37 E.04525
G1 X73.687 Y103.126 E.04526
G1 X73.175 Y101.745 E.04525
G1 X72.946 Y100 E.05408
G1 X72.961 Y79.712 E.62339
G1 X73.175 Y78.255 E.04525
G1 X73.452 Y77.4 E.02762
G1 X74.136 Y76.096 E.04525
G1 X74.475 Y75.63 E.0177
G1 X75.462 Y74.619 E.04341
M204 P1000
G1 X75.726 Y74.881 F9000
M204 P800
G1 F1200
G1 X76.883 Y74.105 E.04284
G1 X78.177 Y73.585 E.04284
G1 X79.55 Y73.347 E.04284
G1 X100.45 Y73.347 E.64217
G1 X100.944 Y73.398 E.01527
G1 X101.823 Y73.585 E.02762
G1 X103.117 Y74.105 E.04284
G1 X103.547 Y74.353 E.01527
G1 X104.644 Y75.214 E.04284
M73 P4 R9
G1 X105.245 Y75.882 E.02762
G1 X105.987 Y77.063 E.04284
G1 X106.467 Y78.371 E.04284
G1 X106.57 Y78.857 E.01527
G1 X106.677 Y80 E.03526
G1 X106.664 Y100.249 E.62218
G1 X106.467 Y101.629 E.04283
G1 X106.189 Y102.484 E.02762
G1 X105.537 Y103.716 E.04283
G1 X105.245 Y104.118 E.01528
G1 X104.274 Y105.119 E.04284
G1 X103.117 Y105.895 E.04284
G1 X101.823 Y106.415 E.04284
G1 X100.45 Y106.653 E.04284
G1 X79.55 Y106.653 E.64217
G1 X79.056 Y106.602 E.01527
G1 X77.704 Y106.261 E.04284
G1 X76.453 Y105.647 E.04284
G1 X75.726 Y105.119 E.02762
G1 X74.755 Y104.118 E.04284
G1 X74.013 Y102.937 E.04284
G1 X73.533 Y101.629 E.04284
G1 X73.323 Y100 E.05046
G1 X73.336 Y79.751 E.62218
G1 X73.533 Y78.371 E.04283
G1 X73.811 Y77.516 E.02762
G1 X74.463 Y76.284 E.04283
G1 X74.755 Y75.882 E.01528
G1 X75.684 Y74.924 E.04099
M204 P1000
; printing object  id:0 copy 0
G1 E-2.24 F4200
;WIPE_START
G1 F7200
G1 X76.883 Y74.105 E-.80517
G1 X77.062 Y74.033 E-.10683
;WIPE_END
G1 E-.048 F4200
G1 Z.4 F720
G1 X83.059 Y99.408 F9000
G1 Z.2 F720
G1 E3.2 F2400
M204 P800
;TYPE:Perimeter
;WIDTH:0.409906
G1 F1200
G1 X83.08 Y99.485 E.00238
;WIDTH:0.412858
G1 X83.123 Y100.093 E.01839
G1 X83.024 Y100.782 E.02098
;WIDTH:0.40991
G1 X82.795 Y101.394 E.01953
G1 X82.444 Y101.945 E.01953
G1 X81.986 Y102.41 E.01952
G1 X81.442 Y102.77 E.01952
G1 X80.834 Y103.01 E.01953
G1 X80.191 Y103.117 E.01952
G1 X79.538 Y103.089 E.01952
G1 X78.906 Y102.925 E.01953
G1 X78.322 Y102.634 E.01952
G1 X77.811 Y102.228 E.01952
G1 X77.396 Y101.724 E.01952
G1 X77.094 Y101.144 E.01954
G1 X76.92 Y100.515 E.01952
;WIDTH:0.412983
G1 X76.867 Y100 E.01563
G1 X76.88 Y99.863 E.00413
;WIDTH:0.409927
G1 X76.976 Y99.218 E.01952
G1 X77.205 Y98.606 E.01954
G1 X77.556 Y98.056 E.01952
;WIDTH:0.41287
G1 X77.979 Y97.617 E.01839
G1 X78.558 Y97.23 E.02098
;WIDTH:0.409906
G1 X79.166 Y96.99 E.01953
G1 X79.81 Y96.883 E.01952
G1 X80.462 Y96.911 E.01952
G1 X81.094 Y97.075 E.01953
G1 X81.678 Y97.366 E.01952
M73 P5 R9
G1 X82.189 Y97.773 E.01953
G1 X82.604 Y98.276 E.01953
G1 X82.906 Y98.855 E.01952
G1 X83.043 Y99.35 E.01535
M204 P1000
G1 X83.432 Y99.271 F9000
M204 P800
;WIDTH:0.419999
G1 F1200
G1 X83.509 Y100 E.02254
G1 X83.432 Y100.729 E.02254
G1 X83.205 Y101.427 E.02254
G1 X82.839 Y102.062 E.02254
G1 X82.348 Y102.607 E.02254
G1 X81.754 Y103.039 E.02254
G1 X81.084 Y103.337 E.02254
G1 X80.367 Y103.489 E.02254
G1 X79.633 Y103.489 E.02254
G1 X78.916 Y103.337 E.02254
G1 X78.246 Y103.039 E.02254
G1 X77.652 Y102.607 E.02254
G1 X77.161 Y102.062 E.02254
G1 X76.795 Y101.427 E.02254
G1 X76.568 Y100.729 E.02254
G1 X76.491 Y100 E.02254
G1 X76.568 Y99.271 E.02254
G1 X76.795 Y98.573 E.02254
G1 X77.161 Y97.938 E.02254
G1 X77.652 Y97.393 E.02254
G1 X78.246 Y96.961 E.02254
G1 X78.916 Y96.663 E.02254
G1 X79.633 Y96.511 E.02254
G1 X80.367 Y96.511 E.02254
G1 X81.084 Y96.663 E.02254
G1 X81.754 Y96.961 E.02254
G1 X82.348 Y97.393 E.02254
G1 X82.839 Y97.938 E.02254
G1 X83.205 Y98.573 E.02254
G1 X83.413 Y99.213 E.02069
M204 P1000
G1 X83.803 Y99.192 F9000
M204 P800
;TYPE:External perimeter
G1 F1200
G1 X83.888 Y100 E.02497
G1 X83.803 Y100.808 E.02497
G1 X83.552 Y101.581 E.02497
G1 X83.145 Y102.285 E.02497
G1 X82.601 Y102.889 E.02497
G1 X81.944 Y103.367 E.02497
G1 X81.201 Y103.697 E.02497
G1 X80.406 Y103.866 E.02497
G1 X79.594 Y103.866 E.02497
G1 X78.799 Y103.697 E.02497
G1 X78.056 Y103.367 E.02497
G1 X77.399 Y102.889 E.02498
G1 X76.855 Y102.285 E.02497
G1 X76.448 Y101.581 E.02497
G1 X76.197 Y100.808 E.02498
G1 X76.112 Y100 E.02497
G1 X76.197 Y99.192 E.02497
G1 X76.448 Y98.419 E.02497
G1 X76.855 Y97.715 E.02497
G1 X77.399 Y97.111 E.02497
G1 X78.056 Y96.633 E.02497
G1 X78.799 Y96.303 E.02497
G1 X79.594 Y96.134 E.02497
G1 X80.406 Y96.134 E.02497
G1 X81.201 Y96.303 E.02497
G1 X81.944 Y96.633 E.02497
G1 X82.601 Y97.111 E.02497
G1 X83.145 Y97.715 E.02497
G1 X83.552 Y98.419 E.02497
G1 X83.784 Y99.135 E.02313
M204 P1000
G1 X83.506 Y99.459 F9000
G1 E-2.24 F4200
;WIPE_START
G1 F7200
G1 X83.888 Y100 E-.48298
G1 X83.807 Y100.77 E-.42902
;WIPE_END
G1 E-.048 F4200
G1 Z.4 F720
G1 X77.519 Y98.827 F9000
G1 Z.2 F720
G1 E3.2 F2400
M204 P800
;TYPE:Perimeter
;WIDTH:0.409914
G1 F1200
G1 X77.713 Y98.46 E.01243
G1 X78.065 Y98.039 E.0164
G1 X78.527 Y97.671 E.01765
G1 X79.055 Y97.41 E.01764
G1 X79.615 Y97.27 E.01724
G1 X80.191 Y97.25 E.01723
G1 X80.758 Y97.349 E.01724
G1 X81.293 Y97.565 E.01724
G1 X81.771 Y97.887 E.01724
G1 X82.171 Y98.301 E.01724
G1 X82.477 Y98.79 E.01724
G1 X82.675 Y99.331 E.01724
G1 X82.752 Y99.874 E.0164
G1 X82.717 Y100.464 E.01765
G1 X82.557 Y101.031 E.01764
G1 X82.287 Y101.54 E.01724
G1 X81.916 Y101.982 E.01724
G1 X81.462 Y102.337 E.01723
G1 X80.945 Y102.59 E.01723
G1 X80.385 Y102.73 E.01724
G1 X79.81 Y102.75 E.01723
G1 X79.242 Y102.651 E.01723
G1 X78.707 Y102.435 E.01724
G1 X78.229 Y102.113 E.01723
G1 X77.829 Y101.699 E.01723
G1 X77.523 Y101.21 E.01724
G1 X77.325 Y100.669 E.01724
G1 X77.245 Y100.098 E.01723
G1 X77.285 Y99.523 E.01724
G1 X77.443 Y98.969 E.01723
G1 X77.491 Y98.88 E.00303
M204 P1000
G1 X77.824 Y99.037 F9000
M204 P800
;WIDTH:0.419999
G1 F1200
G1 X78.105 Y98.55 E.01727
G1 X78.423 Y98.213 E.01423
G1 X78.858 Y97.905 E.0164
G1 X79.319 Y97.713 E.01533
G1 X79.81 Y97.622 E.01533
G1 X80.308 Y97.634 E.01532
G1 X80.793 Y97.75 E.01533
G1 X81.244 Y97.964 E.01533
G1 X81.64 Y98.267 E.01533
G1 X81.964 Y98.646 E.01533
G1 X82.203 Y99.084 E.01533
G1 X82.345 Y99.562 E.01533
G1 X82.383 Y100.023 E.01423
G1 X82.321 Y100.554 E.0164
G1 X82.155 Y101.024 E.01533
G1 X81.895 Y101.45 E.01533
G1 X81.552 Y101.812 E.01532
G1 X81.141 Y102.095 E.01532
G1 X80.681 Y102.287 E.01533
G1 X80.191 Y102.378 E.01532
G1 X79.692 Y102.366 E.01532
G1 X79.207 Y102.25 E.01533
G1 X78.756 Y102.036 E.01533
G1 X78.36 Y101.733 E.01532
G1 X78.036 Y101.354 E.01532
G1 X77.797 Y100.916 E.01533
G1 X77.655 Y100.438 E.01532
G1 X77.615 Y100.059 E.01171
G1 X77.664 Y99.503 E.01714
G1 X77.805 Y99.094 E.01332
M204 P1000
G1 X78.182 Y99.147 F9000
M204 P800
;TYPE:External perimeter
G1 F1200
G1 X78.385 Y98.802 E.01229
G1 X78.649 Y98.515 E.01198
G1 X79.012 Y98.249 E.01383
G1 X79.398 Y98.082 E.01292
G1 X79.81 Y97.999 E.01291
G1 X80.23 Y98.003 E.01291
G1 X80.64 Y98.094 E.01291
G1 X81.022 Y98.269 E.01291
G1 X81.36 Y98.519 E.01291
G1 X81.638 Y98.834 E.01291
G1 X81.844 Y99.2 E.01291
G1 X81.97 Y99.601 E.01291
G1 X82.008 Y99.989 E.01198
G1 X81.962 Y100.437 E.01383
G1 X81.828 Y100.836 E.01292
G1 X81.615 Y101.198 E.01292
G1 X81.33 Y101.507 E.01291
G1 X80.988 Y101.751 E.01291
G1 X80.602 Y101.918 E.01292
G1 X80.191 Y102.001 E.01291
G1 X79.77 Y101.997 E.01291
G1 X79.36 Y101.906 E.01292
G1 X78.978 Y101.731 E.01291
G1 X78.64 Y101.481 E.01291
G1 X78.362 Y101.166 E.01291
G1 X78.156 Y100.8 E.01292
G1 X78.03 Y100.399 E.01291
G1 X77.99 Y100.02 E.01171
G1 X78.038 Y99.563 E.01412
G1 X78.159 Y99.202 E.01169
M204 P1000
G1 X77.95 Y98.821 F9000
G1 E-2.24 F4200
;WIPE_START
G1 F7200
G1 X78.385 Y98.802 E-.25453
G1 X78.649 Y98.515 E-.21598
G1 X79.012 Y98.249 E-.24939
G1 X79.33 Y98.111 E-.1921
;WIPE_END
G1 E-.048 F4200
G1 Z.4 F720
G1 X97.135 Y101.217 F9000
G1 Z.2 F720
G1 E3.2 F2400
M204 P800
;TYPE:Perimeter
;WIDTH:0.409945
G1 F1200
G1 X97.089 Y101.129 E.00297
;WIDTH:0.414597
G1 X96.936 Y100.651 E.0152
G1 X96.88 Y100.136 E.01569
;WIDTH:0.409945
G1 X96.88 Y99.864 E.00816
G1 X96.976 Y99.218 E.01953
G1 X97.205 Y98.606 E.01953
G1 X97.556 Y98.056 E.01953
G1 X98.014 Y97.59 E.01953
G1 X98.558 Y97.23 E.01953
G1 X99.166 Y96.99 E.01953
M73 P6 R9
G1 X99.809 Y96.883 E.01953
G1 X100.462 Y96.911 E.01952
G1 X101.094 Y97.075 E.01953
G1 X101.678 Y97.366 E.01953
G1 X102.189 Y97.773 E.01953
G1 X102.604 Y98.276 E.01952
G1 X102.906 Y98.856 E.01954
G1 X103.08 Y99.485 E.01952
G1 X103.12 Y100.136 E.01953
G1 X103.024 Y100.782 E.01952
G1 X102.795 Y101.394 E.01953
G1 X102.444 Y101.944 E.01953
G1 X101.986 Y102.41 E.01952
G1 X101.442 Y102.77 E.01952
G1 X100.834 Y103.01 E.01954
G1 X100.19 Y103.117 E.01952
G1 X99.538 Y103.089 E.01952
G1 X98.906 Y102.925 E.01954
G1 X98.322 Y102.634 E.01952
G1 X97.811 Y102.228 E.01952
G1 X97.396 Y101.724 E.01953
G1 X97.162 Y101.271 E.01524
M204 P1000
G1 E-2.24 F4200
;WIPE_START
G1 F7200
G1 X97.089 Y101.129 E-.08828
G1 X96.936 Y100.651 E-.2781
G1 X96.88 Y100.136 E-.28703
G1 X96.88 Y99.864 E-.15112
G1 X96.909 Y99.672 E-.10746
;WIPE_END
G1 E-.048 F4200
G1 Z.4 F720
G1 X97.519 Y98.827 F9000
G1 Z.2 F720
G1 E3.2 F2400
M204 P800
;WIDTH:0.409905
G1 F1200
G1 X97.713 Y98.46 E.01242
G1 X98.084 Y98.018 E.01724
G1 X98.538 Y97.663 E.01724
G1 X99.055 Y97.41 E.01724
G1 X99.615 Y97.27 E.01724
G1 X100.19 Y97.25 E.01723
G1 X100.758 Y97.349 E.01724
G1 X101.293 Y97.565 E.01724
G1 X101.771 Y97.887 E.01724
G1 X102.171 Y98.301 E.01724
G1 X102.477 Y98.79 E.01723
G1 X102.675 Y99.331 E.01724
G1 X102.755 Y99.902 E.01723
G1 X102.715 Y100.477 E.01724
G1 X102.557 Y101.031 E.01723
G1 X102.287 Y101.54 E.01725
G1 X101.916 Y101.982 E.01723
G1 X101.462 Y102.337 E.01723
G1 X100.945 Y102.59 E.01723
G1 X100.385 Y102.73 E.01724
G1 X99.809 Y102.75 E.01723
G1 X99.242 Y102.651 E.01723
G1 X98.707 Y102.435 E.01724
G1 X98.229 Y102.113 E.01723
G1 X97.829 Y101.699 E.01723
G1 X97.523 Y101.21 E.01725
;WIDTH:0.412847
G1 X97.317 Y100.629 E.01859
G1 X97.245 Y100.098 E.01615
;WIDTH:0.409905
G1 X97.285 Y99.523 E.01723
G1 X97.443 Y98.969 E.01724
G1 X97.49 Y98.88 E.00302
M204 P1000
G1 X97.824 Y99.037 F9000
M204 P800
;WIDTH:0.419999
G1 F1200
G1 X98.105 Y98.55 E.01727
G1 X98.448 Y98.188 E.01533
G1 X98.859 Y97.905 E.01533
G1 X99.319 Y97.713 E.01533
G1 X99.809 Y97.622 E.01533
G1 X100.308 Y97.634 E.01532
G1 X100.793 Y97.75 E.01533
G1 X101.244 Y97.964 E.01533
G1 X101.64 Y98.267 E.01533
G1 X101.964 Y98.646 E.01532
G1 X102.203 Y99.084 E.01533
G1 X102.345 Y99.562 E.01532
G1 X102.385 Y100.059 E.01533
G1 X102.321 Y100.554 E.01532
G1 X102.155 Y101.024 E.01533
G1 X101.895 Y101.45 E.01533
G1 X101.552 Y101.812 E.01532
G1 X101.141 Y102.095 E.01532
G1 X100.681 Y102.287 E.01533
G1 X100.19 Y102.378 E.01532
G1 X99.692 Y102.366 E.01532
G1 X99.207 Y102.25 E.01533
G1 X98.756 Y102.036 E.01533
G1 X98.36 Y101.733 E.01532
G1 X98.036 Y101.354 E.01533
G1 X97.794 Y100.908 E.01557
G1 X97.652 Y100.41 E.01592
G1 X97.615 Y100.059 E.01085
G1 X97.664 Y99.503 E.01714
G1 X97.805 Y99.094 E.01332
M204 P1000
G1 X98.182 Y99.147 F9000
M204 P800
;TYPE:External perimeter
G1 F1200
G1 X98.385 Y98.802 E.01229
G1 X98.67 Y98.493 E.01291
G1 X99.012 Y98.249 E.01291
G1 X99.398 Y98.082 E.01291
G1 X99.809 Y97.999 E.01291
G1 X100.23 Y98.003 E.01291
G1 X100.64 Y98.094 E.01291
G1 X101.022 Y98.269 E.01291
G1 X101.36 Y98.519 E.01291
G1 X101.638 Y98.834 E.01291
G1 X101.844 Y99.2 E.01292
G1 X101.97 Y99.601 E.01291
G1 X102.01 Y100.02 E.01291
G1 X101.962 Y100.437 E.01291
G1 X101.828 Y100.836 E.01291
G1 X101.615 Y101.198 E.01292
G1 X101.33 Y101.507 E.01291
G1 X100.988 Y101.751 E.01291
G1 X100.602 Y101.918 E.01292
G1 X100.19 Y102.001 E.01291
G1 X99.77 Y101.997 E.01291
G1 X99.36 Y101.906 E.01292
G1 X98.978 Y101.731 E.01291
G1 X98.64 Y101.481 E.01291
G1 X98.362 Y101.166 E.01291
G1 X98.155 Y100.797 E.013
G1 X98.027 Y100.371 E.01367
G1 X97.99 Y100.02 E.01085
G1 X98.038 Y99.563 E.01412
G1 X98.159 Y99.202 E.01169
M204 P1000
G1 X97.95 Y98.821 F9000
G1 E-2.24 F4200
;WIPE_START
G1 F7200
G1 X98.385 Y98.802 E-.25454
G1 X98.67 Y98.493 E-.2329
G1 X99.012 Y98.249 E-.2329
G1 X99.329 Y98.112 E-.19167
;WIPE_END
G1 E-.048 F4200
G1 Z.4 F720
G1 X96.795 Y101.427 F9000
G1 Z.2 F720
G1 E3.2 F2400
M204 P800
;TYPE:Perimeter
G1 F1200
G1 X96.568 Y100.729 E.02254
G1 X96.491 Y100 E.02254
G1 X96.568 Y99.271 E.02254
G1 X96.795 Y98.573 E.02254
G1 X97.161 Y97.938 E.02254
G1 X97.652 Y97.393 E.02254
G1 X98.246 Y96.961 E.02254
G1 X98.916 Y96.663 E.02254
G1 X99.633 Y96.511 E.02254
G1 X100.367 Y96.511 E.02254
G1 X101.084 Y96.663 E.02254
G1 X101.754 Y96.961 E.02254
G1 X102.348 Y97.393 E.02254
G1 X102.839 Y97.938 E.02254
G1 X103.205 Y98.573 E.02254
G1 X103.432 Y99.271 E.02254
G1 X103.509 Y100 E.02254
G1 X103.432 Y100.729 E.02254
G1 X103.205 Y101.427 E.02254
G1 X102.839 Y102.062 E.02254
G1 X102.348 Y102.607 E.02254
G1 X101.754 Y103.039 E.02254
G1 X101.084 Y103.337 E.02254
G1 X100.367 Y103.489 E.02254
G1 X99.633 Y103.489 E.02254
G1 X98.916 Y103.337 E.02254
G1 X98.246 Y103.039 E.02254
G1 X97.652 Y102.607 E.02254
G1 X97.161 Y102.062 E.02254
G1 X96.825 Y101.479 E.02069
M204 P1000
G1 X96.448 Y101.581 F9000
M204 P800
;TYPE:External perimeter
G1 F1200
G1 X96.197 Y100.808 E.02498
G1 X96.112 Y100 E.02497
G1 X96.197 Y99.192 E.02497
G1 X96.448 Y98.419 E.02497
G1 X96.855 Y97.715 E.02497
G1 X97.399 Y97.111 E.02497
G1 X98.056 Y96.633 E.02497
G1 X98.799 Y96.303 E.02497
G1 X99.594 Y96.134 E.02497
G1 X100.406 Y96.134 E.02497
G1 X101.201 Y96.303 E.02497
G1 X101.944 Y96.633 E.02497
G1 X102.601 Y97.111 E.02498
G1 X103.145 Y97.715 E.02497
G1 X103.552 Y98.419 E.02497
G1 X103.803 Y99.192 E.02497
G1 X103.888 Y100 E.02497
G1 X103.803 Y100.808 E.02497
G1 X103.552 Y101.581 E.02498
G1 X103.145 Y102.285 E.02497
G1 X102.601 Y102.889 E.02497
G1 X101.944 Y103.367 E.02498
G1 X101.201 Y103.697 E.02497
G1 X100.406 Y103.866 E.02497
G1 X99.594 Y103.866 E.02497
G1 X98.799 Y103.697 E.02497
