; generated by PrusaSlicer 2.5.0+linux-x64-GTK3 on 2023-03-10 at 21:50:34 UTC

; 
;

; 
;

; 
;

; 

; external perimeters extrusion width = 0.45mm
; perimeters extrusion width = 0.45mm
; infill extrusion width = 0.45mm
; solid infill extrusion width = 0.45mm
; top infill extrusion width = 0.40mm
; first layer extrusion width = 0.42mm

M73 P0 R25
M201 X2500 Y2500 Z400 E5000 ; sets maximum accelerations, mm/sec^2
M203 X180 Y180 Z12 E80 ; sets maximum feedrates, mm / sec
M204 P1250 R1250 T2500 ; sets acceleration (P, T) and retract acceleration (R), mm/sec^2
M205 X8.00 Y8.00 Z2.00 E10.00 ; sets the jerk limits, mm/sec
M205 S0 T0 ; sets the minimum extruding and travel feed rate, mm/sec
M107
;TYPE:Custom
M862.3 P "MINI" ; printer model check
G90 ; use absolute coordinates
M83 ; extruder relative mode
M104 S170 ; set extruder temp for bed leveling
M140 S60 ; set bed temp
M109 R170 ; wait for bed leveling temp
M190 S60 ; wait for bed temp
M204 T1250 ; set travel acceleration
G28 ; home all without mesh bed level
G29 ; mesh bed leveling 
M204 T2500 ; restore travel acceleration
M104 S215 ; set extruder temp
G92 E0
G1 Y-2 X179 F2400
G1 Z3 F720
M109 S215 ; wait for extruder temp

; intro line
G1 X170 F1000
G1 Z0.2 F720
G1 X110 E8 F900
G1 X40 E10 F700
G92 E0

M221 S95 ; set flow
G21 ; set units to millimeters
G90 ; use absolute coordinates
M83 ; use relative distances for extrusion
M900 K0.05 ; Filament gcode LA 1.5
M900 K30 ; Filament gcode LA 1.0
M107
;LAYER_CHANGE
;Z:0.2
;HEIGHT:0.2
;BEFORE_LAYER_CHANGE
G92 E0.0
;0.2


G1 E-3.2 F4200
M73 P1 R25
G1 Z.2 F720
;AFTER_LAYER_CHANGE
;0.2
G1 Z.4
G1 X70.246 Y83.497 F9000
G1 Z.2 F720
G1 E3.2 F2400
M204 P800
;TYPE:Skirt/Brim
;WIDTH:0.42
G1 F1200
G1 X71.707 Y82.608 E.05252
G1 X73.133 Y82.089 E.04665
G1 X74.255 Y81.878 E.03506
G1 X75.016 Y81.825 E.02344
G1 X105.176 Y81.831 E.92676
G1 X106.68 Y82.043 E.04666
G1 X107.948 Y82.454 E.04095
G1 X109.288 Y83.167 E.04665
G1 X110.338 Y83.988 E.04095
G1 X111.354 Y85.116 E.04666
G1 X112.06 Y86.246 E.04094
G1 X112.629 Y87.653 E.04664
G1 X112.939 Y89.271 E.05062
G1 X112.946 Y90.666 E.04286
G1 X112.682 Y92.161 E.04665
G1 X112.226 Y93.414 E.04095
G1 X111.467 Y94.729 E.04666
G1 X110.611 Y95.749 E.04093
G1 X109.447 Y96.725 E.04666
G1 X108.293 Y97.392 E.04094
G1 X106.867 Y97.911 E.04665
G1 X105.745 Y98.122 E.03506
G1 X104.984 Y98.175 E.02344
G1 X75.016 Y98.175 E.92086
G1 X73.88 Y98.069 E.03506
G1 X72.769 Y97.806 E.03506
G1 X71.707 Y97.392 E.03505
G1 X70.712 Y96.833 E.03505
G1 X69.805 Y96.141 E.03507
G1 X69.003 Y95.33 E.03505
G1 X68.22 Y94.252 E.04094
G1 X67.696 Y93.238 E.03507
G1 X67.318 Y92.161 E.03505
G1 X67.054 Y90.666 E.04665
G1 X67.094 Y88.957 E.05253
G1 X67.488 Y87.293 E.05254
G1 X68.188 Y85.802 E.05061
G1 X69.003 Y84.67 E.04285
G1 X70.203 Y83.538 E.05069
M204 P1000
G1 X70.46 Y83.81 F9000
M204 P800
G1 F1200
G1 X71.86 Y82.953 E.05045
G1 X73.237 Y82.452 E.04504
G1 X75.016 Y82.202 E.05518
G1 X105.15 Y82.207 E.92595
G1 X106.602 Y82.411 E.04504
G1 X107.794 Y82.799 E.03853
G1 X109.088 Y83.487 E.04503
G1 X110.076 Y84.259 E.03853
G1 X111.057 Y85.348 E.04505
G1 X111.721 Y86.411 E.03851
G1 X112.27 Y87.77 E.04503
G1 X112.564 Y89.311 E.0482
G1 X112.571 Y90.627 E.04044
G1 X112.316 Y92.07 E.04503
G1 X111.887 Y93.248 E.03853
G1 X111.154 Y94.518 E.04504
G1 X110.349 Y95.478 E.03851
G1 X109.226 Y96.42 E.04505
G1 X108.14 Y97.047 E.03852
G1 X106.763 Y97.548 E.04504
G1 X104.984 Y97.798 E.05518
G1 X74.307 Y97.749 E.94263
G1 X73.237 Y97.548 E.03344
G1 X72.206 Y97.201 E.03344
G1 X70.912 Y96.513 E.04503
G1 X70.047 Y95.852 E.03345
G1 X69.283 Y95.077 E.03343
G1 X68.546 Y94.063 E.03852
G1 X68.045 Y93.097 E.03345
G1 X67.684 Y92.07 E.03344
G1 X67.429 Y90.627 E.04503
G1 X67.469 Y88.996 E.05011
G1 X67.847 Y87.41 E.05011
G1 X68.515 Y85.991 E.04818
G1 X69.283 Y84.923 E.04044
G1 X70.416 Y83.851 E.04792
M204 P1000
; printing object  id:0 copy 0
G1 E-2.24 F4200
;WIPE_START
G1 F7200
G1 X71.813 Y82.982 E-.912
;WIPE_END
G1 E-.048 F4200
G1 Z.4 F720
G1 X77.248 Y86.131 F9000
G1 Z.2 F720
G1 E3.2 F2400
M204 P800
;TYPE:Perimeter
;WIDTH:0.419999
G1 F1200
G1 X77.164 Y86.082 E.00299
G1 X102.725 Y86.083 E.78543
G1 X102.201 Y86.449 E.01965
G1 X100.423 Y89.529 E.10926
G1 X100.308 Y89.858 E.01072
G1 X100.308 Y90.142 E.00873
G1 X100.423 Y90.471 E.01072
G1 X102.201 Y93.551 E.10926
G1 X102.836 Y93.918 E.02255
G1 X77.275 Y93.918 E.78544
G1 X77.799 Y93.551 E.01967
M73 P2 R25
G1 X79.577 Y90.471 E.10926
G1 X79.692 Y90.142 E.01072
G1 X79.692 Y89.858 E.00873
G1 X79.577 Y89.529 E.01072
G1 X77.799 Y86.449 E.10926
G1 X77.3 Y86.161 E.01772
M204 P1000
G1 X77.15 Y86.407 F9000
M204 P800
;WIDTH:0.510887
G1 F1200
G1 X77.146 Y86.404 E.00019
;WIDTH:0.556342
G1 X76.983 Y86.287 E.0084
G1 X74.664 Y86.302 E.09701
;WIDTH:0.526039
G1 X74.23 Y86.317 E.01708
;WIDTH:0.506987
G1 X73.427 Y86.312 E.03038
;WIDTH:0.545739
G1 X73.265 Y86.336 E.00671
;WIDTH:0.58449
G1 X73.103 Y86.36 E.00723
G1 X73.252 Y86.259 E.00792
;WIDTH:0.545739
G1 X73.4 Y86.158 E.00735
;WIDTH:0.506987
G1 X74.199 Y85.867 E.03216
;WIDTH:0.526039
G1 X74.639 Y85.82 E.01744
;WIDTH:0.55633
G1 X75.08 Y85.773 E.01853
G1 X76.983 Y85.773 E.07961
G1 X77.326 Y85.751 E.01437
;WIDTH:0.510887
G1 X77.668 Y85.728 E.0131
;WIDTH:0.465443
G1 X78.011 Y85.705 E.01183
;WIDTH:0.419999
G1 X101.989 Y85.706 E.73678
;WIDTH:0.465387
G1 X102.332 Y85.728 E.01182
;WIDTH:0.510775
G1 X102.675 Y85.751 E.01309
;WIDTH:0.55615
G1 X103.017 Y85.774 E.01436
G1 X104.923 Y85.774 E.07971
G1 X105.542 Y85.827 E.02596
;WIDTH:0.52716
G1 X106.395 Y86.074 E.03507
;WIDTH:0.571876
G1 X106.874 Y86.354 E.02391
G1 X106.573 Y86.297 E.01322
;WIDTH:0.535828
G1 X106.339 Y86.301 E.00941
;WIDTH:0.52716
G1 X105.475 Y86.301 E.03408
;WIDTH:0.556163
G1 X103.017 Y86.287 E.10279
;WIDTH:0.562909
G1 X102.907 Y86.293 E.00467
G1 X102.781 Y86.408 E.00724
;WIDTH:0.515273
G1 X102.654 Y86.523 E.00658
;WIDTH:0.467636
G1 X102.527 Y86.638 E.00592
;WIDTH:0.419999
G1 X100.75 Y89.717 E.10926
G1 X100.674 Y90 E.009
G1 X100.75 Y90.283 E.009
G1 X102.527 Y93.362 E.10926
;WIDTH:0.465447
G1 X102.691 Y93.479 E.00692
;WIDTH:0.510895
G1 X102.854 Y93.596 E.00766
;WIDTH:0.556342
G1 X103.017 Y93.713 E.0084
G1 X105.343 Y93.698 E.09732
;WIDTH:0.525526
G1 X105.784 Y93.682 E.01735
;WIDTH:0.530812
G1 X106.108 Y93.692 E.01287
;WIDTH:0.566914
G1 X106.431 Y93.701 E.01382
;WIDTH:0.603016
G1 X106.755 Y93.711 E.01477
G1 X106.63 Y93.791 E.00676
;WIDTH:0.566914
G1 X106.506 Y93.871 E.00632
;WIDTH:0.530812
G1 X106.381 Y93.952 E.00589
;WIDTH:0.494709
G1 X105.816 Y94.132 E.02186
;WIDTH:0.525526
G1 X105.368 Y94.179 E.01771
;WIDTH:0.556343
G1 X104.92 Y94.227 E.01884
G1 X103.017 Y94.227 E.07961
G1 X102.674 Y94.249 E.01437
;WIDTH:0.510895
G1 X102.332 Y94.272 E.0131
;WIDTH:0.465447
G1 X101.989 Y94.295 E.01183
;WIDTH:0.419999
G1 X78.011 Y94.295 E.73677
;WIDTH:0.465447
G1 X77.668 Y94.272 E.01183
;WIDTH:0.510895
G1 X77.326 Y94.249 E.0131
;WIDTH:0.556343
G1 X76.983 Y94.227 E.01437
G1 X75.097 Y94.227 E.07888
G1 X74.613 Y94.177 E.02037
;WIDTH:0.525501
G1 X74.164 Y94.129 E.01774
;WIDTH:0.494658
G1 X73.631 Y93.956 E.02065
;WIDTH:0.538135
G1 X73.429 Y93.825 E.00971
;WIDTH:0.581612
G1 X73.227 Y93.694 E.01057
G1 X73.45 Y93.688 E.00982
;WIDTH:0.538135
G1 X73.674 Y93.682 E.00903
;WIDTH:0.494658
G1 X74.215 Y93.682 E.01993
;WIDTH:0.525501
G1 X74.656 Y93.698 E.01735
;WIDTH:0.556343
G1 X76.983 Y93.713 E.09733
;WIDTH:0.56309
G1 X77.093 Y93.707 E.00467
G1 X77.219 Y93.592 E.00725
;WIDTH:0.515393
G1 X77.346 Y93.477 E.00658
;WIDTH:0.467696
G1 X77.473 Y93.362 E.00592
;WIDTH:0.419999
G1 X79.25 Y90.283 E.10926
G1 X79.326 Y90 E.009
G1 X79.25 Y89.717 E.009
G1 X77.473 Y86.638 E.10926
;WIDTH:0.465443
G1 X77.309 Y86.521 E.00692
;WIDTH:0.510887
G1 X77.199 Y86.442 E.00518
M204 P1000
G1 E-2.24 F4200
;WIPE_START
G1 F7200
G1 X77.146 Y86.404 E-.036
G1 X76.983 Y86.287 E-.11131
G1 X75.603 Y86.296 E-.76468
;WIPE_END
G1 E-.048 F4200
G1 Z.4 F720
G1 X71.017 Y90.134 F9000
G1 Z.2 F720
G1 E3.2 F2400
M204 P800
;WIDTH:0.581648
G1 F1200
G1 X71.134 Y90.325 E.00983
;WIDTH:0.538173
G1 X71.251 Y90.516 E.00903
;WIDTH:0.494698
G1 X71.521 Y90.984 E.01993
;WIDTH:0.524443
G1 X71.721 Y91.36 E.0167
;WIDTH:0.554187
G1 X71.921 Y91.736 E.01773
G1 X72.358 Y92.463 E.03535
;WIDTH:0.524601
G1 X72.629 Y92.933 E.02132
;WIDTH:0.528029
G1 X72.89 Y93.389 E.02077
;WIDTH:0.571892
G1 X73.126 Y93.646 E.01501
G1 X72.786 Y93.48 E.01631
;WIDTH:0.528029
G1 X72.353 Y93.141 E.02172
;WIDTH:0.524601
G1 X71.949 Y92.718 E.02296
;WIDTH:0.554187
G1 X71.462 Y91.959 E.03756
G1 X71.286 Y91.561 E.01814
;WIDTH:0.524443
G1 X71.109 Y91.164 E.01708
;WIDTH:0.494698
G1 X70.992 Y90.615 E.02066
;WIDTH:0.538173
G1 X71.004 Y90.374 E.00972
;WIDTH:0.581648
G1 X71.014 Y90.194 E.00794
M204 P1000
G1 E-2.24 F4200
;WIPE_START
G1 F7200
G1 X71.134 Y90.325 E-.09841
G1 X71.251 Y90.516 E-.12403
G1 X71.521 Y90.984 E-.3
G1 X71.721 Y91.36 E-.2358
G1 X71.851 Y91.605 E-.15376
;WIPE_END
G1 E-.048 F4200
G1 Z.4 F720
G1 X73.008 Y86.42 F9000
G1 Z.2 F720
G1 E3.2 F2400
M204 P800
;WIDTH:0.594312
G1 F1200
G1 X72.875 Y86.602 E.01012
;WIDTH:0.564767
G1 X72.627 Y87.05 E.02176
;WIDTH:0.544543
G1 X71.779 Y88.52 E.06938
G1 X71.534 Y88.99 E.02165
;WIDTH:0.503662
G1 X71.123 Y89.696 E.03069
;WIDTH:0.537794
G1 X71.066 Y89.859 E.00697
;WIDTH:0.571926
G1 X71.008 Y90.022 E.00745
G1 X70.988 Y89.863 E.00693
;WIDTH:0.542875
G1 X70.968 Y89.703 E.00655
;WIDTH:0.513824
G1 X70.973 Y89.642 E.00237
;WIDTH:0.503662
G1 X71.123 Y88.798 E.03218
;WIDTH:0.544493
G1 X71.344 Y88.269 E.02343
G1 X71.799 Y87.493 E.03677
G1 X72.388 Y86.842 E.03588
;WIDTH:0.564767
G1 X72.797 Y86.534 E.02176
;WIDTH:0.594312
G1 X72.955 Y86.449 E.00808
M204 P1000
G1 E-2.24 F4200
;WIPE_START
G1 F7200
G1 X72.875 Y86.602 E-.09576
G1 X72.627 Y87.05 E-.28358
G1 X72.147 Y87.882 E-.53266
;WIPE_END
G1 E-.048 F4200
G1 Z.4 F720
G1 X76.983 Y86.732 F9000
G1 Z.2 F720
G1 E3.2 F2400
M204 P800
;TYPE:External perimeter
;WIDTH:0.419998
G1 F1200
G1 X77.146 Y86.826 E.00579
G1 X78.924 Y89.906 E.10926
G1 X78.939 Y90.06 E.00477
G1 X78.924 Y90.094 E.00115
G1 X77.146 Y93.174 E.10926
G1 X76.983 Y93.268 E.00579
G1 X73.427 Y93.268 E.10926
G1 X73.27 Y93.184 E.00547
M73 P2 R24
G1 X71.486 Y90.094 E.10962
G1 X71.479 Y89.919 E.00539
G1 X73.264 Y86.826 E.10972
G1 X73.409 Y86.733 E.0053
G1 X76.923 Y86.732 E.10798
M204 P1000
G1 X77.126 Y86.61 F9000
G1 E-2.24 F4200
;WIPE_START
G1 F7200
G1 X77.146 Y86.826 E-.13431
G1 X77.848 Y88.042 E-.77769
;WIPE_END
G1 E-.048 F4200
G1 Z.4 F720
G1 X107.078 Y93.445 F9000
G1 Z.2 F720
G1 E3.2 F2400
M204 P800
;TYPE:Perimeter
;WIDTH:0.589058
G1 F1200
G1 X107.117 Y93.394 E.00289
;WIDTH:0.545585
G1 X107.378 Y92.922 E.02208
;WIDTH:0.526391
G1 X107.65 Y92.451 E.02143
;WIDTH:0.555555
G1 X108.207 Y91.507 E.04575
;WIDTH:0.546158
G1 X108.642 Y90.753 E.03571
;WIDTH:0.59407
G1 X108.994 Y90.113 E.03279
G1 X109 Y90.352 E.01074
;WIDTH:0.565719
G1 X108.933 Y90.883 E.02277
;WIDTH:0.546158
G1 X108.647 Y91.751 E.0375
;WIDTH:0.555555
G1 X108.371 Y92.255 E.02399
G1 X108.034 Y92.74 E.02466
;WIDTH:0.526391
G1 X107.633 Y93.151 E.02263
;WIDTH:0.557725
G1 X107.294 Y93.378 E.01711
;WIDTH:0.589058
G1 X106.955 Y93.605 E.01815
G1 X107.041 Y93.493 E.00629
M204 P1000
G1 E-2.24 F4200
;WIPE_START
G1 F7200
G1 X107.117 Y93.394 E-.06929
G1 X107.378 Y92.922 E-.29879
G1 X107.65 Y92.451 E-.30146
G1 X107.873 Y92.074 E-.24246
;WIPE_END
G1 E-.048 F4200
G1 Z.4 F720
G1 X108.999 Y90.001 F9000
G1 Z.2 F720
G1 E3.2 F2400
M204 P800
;WIDTH:0.584254
G1 F1200
G1 X108.939 Y89.848 E.00724
;WIDTH:0.546638
G1 X108.879 Y89.695 E.00673
;WIDTH:0.509021
G1 X108.466 Y88.99 E.03104
;WIDTH:0.545823
G1 X108.214 Y88.507 E.02232
;WIDTH:0.555094
G1 X107.722 Y87.674 E.04039
;WIDTH:0.525431
G1 X107.497 Y87.315 E.01665
;WIDTH:0.538683
G1 X107.234 Y86.863 E.02113
;WIDTH:0.581598
G1 X106.971 Y86.411 E.02296
G1 X107.092 Y86.467 E.00588
;WIDTH:0.553775
G1 X107.214 Y86.523 E.00558
;WIDTH:0.525951
G1 X107.872 Y87.062 E.03348
;WIDTH:0.525431
G1 X108.133 Y87.423 E.01752
;WIDTH:0.555094
G1 X108.394 Y87.784 E.0186
G1 X108.669 Y88.295 E.02419
;WIDTH:0.545823
G1 X108.887 Y88.837 E.02393
;WIDTH:0.509021
G1 X109.024 Y89.642 E.03104
;WIDTH:0.546638
G1 X109.011 Y89.821 E.00737
;WIDTH:0.584254
G1 X109.003 Y89.941 E.00527
M204 P1000
G1 E-2.24 F4200
;WIPE_START
G1 F7200
G1 X108.939 Y89.848 E-.06251
G1 X108.879 Y89.695 E-.09091
G1 X108.466 Y88.99 E-.45287
G1 X108.214 Y88.507 E-.30182
G1 X108.211 Y88.501 E-.00389
;WIPE_END
G1 E-.048 F4200
G1 Z.4 F720
G1 X106.738 Y93.171 F9000
G1 Z.2 F720
G1 E3.2 F2400
M204 P800
;TYPE:External perimeter
;WIDTH:0.419999
G1 F1200
G1 X106.625 Y93.261 E.00443
G1 X105.784 Y93.268 E.02584
G1 X103.017 Y93.268 E.08502
G1 X102.854 Y93.174 E.00579
G1 X101.076 Y90.094 E.10926
G1 X101.061 Y89.94 E.00477
G1 X102.854 Y86.826 E.1104
G1 X103.017 Y86.732 E.00579
G1 X106.573 Y86.732 E.10926
G1 X106.728 Y86.814 E.00539
G1 X108.514 Y89.906 E.10972
G1 X108.536 Y90.033 E.00396
G1 X106.768 Y93.119 E.10929
M204 P1000
G1 X106.778 Y93.309 F9000
G1 E-2.24 F4200
;WIPE_START
G1 F7200
G1 X106.625 Y93.261 E-.11158
G1 X105.784 Y93.268 E-.46601
G1 X105.181 Y93.268 E-.33441
;WIPE_END
G1 E-.048 F4200
G1 Z.4 F720
G1 X75.049 Y85.328 F9000
G1 Z.2 F720
G1 E3.2 F2400
M204 P800
G1 F1200
G1 X104.96 Y85.329 E.91909
G1 X105.604 Y85.396 E.01989
G1 X106.546 Y85.667 E.03013
G1 X107.409 Y86.126 E.03002
G1 X108.157 Y86.754 E.03002
G1 X108.758 Y87.521 E.02995
G1 X109.065 Y88.099 E.0201
G1 X109.287 Y88.709 E.01995
G1 X109.458 Y89.677 E.03021
G1 X109.458 Y90.331 E.0201
G1 X109.368 Y90.969 E.01978
G1 X109.064 Y91.904 E.03023
G1 X108.759 Y92.477 E.01991
G1 X108.376 Y93.005 E.02005
G1 X107.929 Y93.468 E.01978
G1 X107.129 Y94.05 E.03038
G1 X106.546 Y94.334 E.01993
G1 X105.929 Y94.535 E.01995
G1 X104.951 Y94.672 E.03033
G1 X75.048 Y94.672 E.91883
G1 X74.071 Y94.534 E.03033
M73 P3 R24
G1 X73.457 Y94.335 E.01985
G1 X72.589 Y93.873 E.03021
G1 X72.073 Y93.47 E.0201
G1 X71.626 Y93.007 E.01978
G1 X71.078 Y92.194 E.03012
G1 X70.711 Y91.285 E.03011
G1 X70.577 Y90.653 E.01985
G1 X70.543 Y89.674 E.03012
G1 X70.713 Y88.708 E.03011
G1 X70.934 Y88.102 E.01985
G1 X71.424 Y87.253 E.03013
G1 X72.076 Y86.528 E.02995
G1 X72.591 Y86.125 E.0201
G1 X73.153 Y85.8 E.01995
G1 X74.074 Y85.465 E.03012
G1 X74.989 Y85.337 E.02839
M204 P1000
G1 X75.276 Y85.657 F9000
G1 E-2.24 F4200
;WIPE_START
G1 F7200
G1 X76.635 Y85.336 E-.912
;WIPE_END
G1 E-.048 F4200
G1 Z.4 F720
G1 X106.955 Y93.605 F9000
G1 Z.2 F720
G1 E3.2 F2400
M204 P800
;TYPE:Perimeter
;WIDTH:0.603016
G1 F1200
G1 X106.755 Y93.711 E.01036
M204 P1000
G1 E-2.24 F4200
;WIPE_START
G1 F7200
G1 X106.955 Y93.605 E-.12577
;WIPE_END
G1 E-.83423 F4200
G1 Z.4 F720
G1 X101.941 Y86.673 F9000
G1 Z.2 F720
G1 E3.2 F2400
M204 P800
;TYPE:Solid infill
;WIDTH:0.421753
G1 F1200
G1 X101.634 Y86.365 E.01341
G1 X101.098 Y86.365 E.01654
G1 X101.621 Y86.888 E.02282
G1 X101.425 Y87.228 E.01211
G1 X100.563 Y86.365 E.03765
G1 X100.027 Y86.365 E.01654
G1 X101.229 Y87.567 E.05247
G1 X101.033 Y87.907 E.01211
G1 X99.491 Y86.365 E.0673
G1 X98.955 Y86.365 E.01654
G1 X100.837 Y88.247 E.08213
G1 X100.64 Y88.586 E.01211
G1 X98.42 Y86.365 E.09696
G1 X97.884 Y86.365 E.01654
G1 X100.444 Y88.926 E.11179
G1 X100.248 Y89.266 E.01211
G1 X97.348 Y86.365 E.12662
G1 X96.812 Y86.365 E.01654
G1 X100.073 Y89.627 E.14237
G1 X100.028 Y89.815 E.00598
G1 X100.022 Y90.111 E.00915
G1 X96.276 Y86.365 E.16352
G1 X95.741 Y86.365 E.01654
G1 X100.438 Y91.063 E.20506
G1 X101.17 Y92.33 E.04518
G1 X95.205 Y86.365 E.2604
G1 X94.669 Y86.365 E.01654
G1 X101.923 Y93.635 E.31702
G1 X101.403 Y93.635 E.01605
G1 X94.133 Y86.365 E.31736
G1 X93.598 Y86.365 E.01654
G1 X100.867 Y93.635 E.31736
G1 X100.331 Y93.635 E.01654
G1 X93.062 Y86.365 E.31736
G1 X92.526 Y86.365 E.01654
G1 X99.796 Y93.635 E.31736
G1 X99.26 Y93.635 E.01654
G1 X91.99 Y86.365 E.31736
G1 X91.455 Y86.365 E.01654
G1 X98.724 Y93.635 E.31736
G1 X98.188 Y93.635 E.01654
G1 X90.919 Y86.365 E.31736
G1 X90.383 Y86.365 E.01654
G1 X97.653 Y93.635 E.31736
G1 X97.117 Y93.635 E.01654
G1 X89.847 Y86.365 E.31736
G1 X89.312 Y86.365 E.01654
G1 X96.581 Y93.635 E.31736
G1 X96.045 Y93.635 E.01654
G1 X88.776 Y86.365 E.31736
G1 X88.24 Y86.365 E.01654
G1 X95.51 Y93.635 E.31736
G1 X94.974 Y93.635 E.01654
G1 X87.704 Y86.365 E.31737
