; generated by PrusaSlicer 2.5.0+linux-x64-GTK3 on 2023-03-09 at 13:44:00 UTC

; 
;

; 
;

; 
;

; 

; external perimeters extrusion width = 0.45mm
; perimeters extrusion width = 0.45mm
; infill extrusion width = 0.45mm
; solid infill extrusion width = 0.45mm
; top infill extrusion width = 0.40mm
; support material extrusion width = 0.35mm
; first layer extrusion width = 0.42mm

M73 P0 R144
M201 X2500 Y2500 Z400 E5000 ; sets maximum accelerations, mm/sec^2
M203 X180 Y180 Z12 E80 ; sets maximum feedrates, mm / sec
M204 P1250 R1250 T2500 ; sets acceleration (P, T) and retract acceleration (R), mm/sec^2
M205 X8.00 Y8.00 Z2.00 E10.00 ; sets the jerk limits, mm/sec
M205 S0 T0 ; sets the minimum extruding and travel feed rate, mm/sec
M107
;TYPE:Custom
M862.3 P "MINI" ; printer model check
G90 ; use absolute coordinates
M83 ; extruder relative mode
M104 S170 ; set extruder temp for bed leveling
M140 S60 ; set bed temp
M109 R170 ; wait for bed leveling temp
M190 S60 ; wait for bed temp
M204 T1250 ; set travel acceleration
G28 ; home all without mesh bed level
G29 ; mesh bed leveling 
M204 T2500 ; restore travel acceleration
M104 S215 ; set extruder temp
G92 E0
G1 Y-2 X179 F2400
G1 Z3 F720
M109 S215 ; wait for extruder temp

; intro line
M73 P0 R143
G1 X170 F1000
G1 Z0.2 F720
G1 X110 E8 F900
G1 X40 E10 F700
G92 E0

M221 S95 ; set flow
G21 ; set units to millimeters
G90 ; use absolute coordinates
M83 ; use relative distances for extrusion
M900 K0.05 ; Filament gcode LA 1.5
M900 K30 ; Filament gcode LA 1.0
M107
;LAYER_CHANGE
;Z:0.2
;HEIGHT:0.2
;BEFORE_LAYER_CHANGE
G92 E0.0
;0.2


G1 E-3.2 F4200
G1 Z.2 F720
;AFTER_LAYER_CHANGE
;0.2
G1 Z.4
G1 X56.537 Y56.537 F9000
G1 Z.2 F720
G1 E3.2 F2400
M204 P800
;TYPE:Skirt/Brim
;WIDTH:0.42
G1 F1200
G1 X62.305 Y50.77 E.25063
G1 X62.923 Y50.324 E.0234
G1 X67.537 Y48.017 E.15852
G1 X68.575 Y47.766 E.03281
G1 X82.174 Y47.623 E.41788
G1 X97.968 Y47.623 E.48531
G1 X111.425 Y47.766 E.41354
G1 X112.463 Y48.017 E.03281
G1 X117.077 Y50.324 E.15852
G1 X117.695 Y50.77 E.0234
G1 X129.231 Y62.305 E.50127
G1 X129.676 Y62.923 E.0234
G1 X134.29 Y72.151 E.31703
G1 X134.541 Y73.214 E.03356
G1 X134.541 Y106.786 E1.03157
G1 X134.29 Y107.849 E.03356
G1 X129.676 Y117.077 E.31703
G1 X129.231 Y117.695 E.0234
G1 X117.695 Y129.231 E.50127
G1 X117.077 Y129.676 E.0234
G1 X107.849 Y134.29 E.31703
G1 X106.786 Y134.541 E.03356
G1 X73.214 Y134.541 E1.03157
G1 X72.151 Y134.29 E.03356
G1 X62.923 Y129.676 E.31703
G1 X62.305 Y129.231 E.0234
G1 X50.77 Y117.695 E.50127
G1 X50.324 Y117.077 E.0234
G1 X45.71 Y107.849 E.31703
G1 X45.459 Y106.786 E.03356
G1 X45.459 Y73.214 E1.03157
G1 X45.71 Y72.151 E.03356
G1 X50.324 Y62.923 E.31703
G1 X50.77 Y62.305 E.0234
G1 X56.495 Y56.58 E.24879
M204 P1000
; printing object  id:0 copy 0
G1 E-2.24 F4200
;WIPE_START
G1 F7200
G1 X57.658 Y55.416 E-.912
;WIPE_END
G1 E-.048 F4200
G1 Z.4 F720
G1 X81.408 Y50.175 F9000
G1 Z.2 F720
G1 E3.2 F2400
M204 P800
;TYPE:Support material
G1 F1200
G1 X80.789 Y50.929 E.02995
G1 X73.617 Y60.789 E.37465
G1 X73.062 Y61.748 E.03405
G1 X72.703 Y62.836 E.0352
G1 X72.578 Y63.987 E.03559
G1 X72.578 Y78.013 E.43095
G1 X72.702 Y79.158 E.03539
G1 X76.884 Y92.845 E.43977
G1 X77.754 Y95.506 E.08602
G1 X79.167 Y97.944 E.08659
G1 X81.02 Y100.001 E.08505
G1 X83.34 Y101.687 E.08813
G1 X85.917 Y102.828 E.08659
G1 X88.674 Y103.409 E.08659
G1 X91.492 Y103.404 E.08659
G1 X94.248 Y102.812 E.08659
G1 X96.82 Y101.661 E.08659
G1 X99.097 Y100.001 E.08659
G1 X100.979 Y97.903 E.08659
G1 X102.383 Y95.46 E.08659
G1 X103.233 Y92.845 E.08448
G1 X107.424 Y79.113 E.44118
G1 X107.538 Y78.013 E.03399
G1 X107.538 Y63.987 E.43095
G1 X107.413 Y62.836 E.03559
G1 X107.075 Y61.794 E.03366
G1 X106.513 Y60.81 E.03482
G1 X100.434 Y52.45 E.3176
G1 X100.899 Y52.45 E.01429
G1 X100.899 Y50.143 E.07089
G1 X111.4 Y50.143 E.32267
G1 X111.4 Y52.45 E.07089
G1 X116.014 Y52.45 E.14178
G1 X116.014 Y54.757 E.07089
G1 X118.321 Y54.757 E.07089
G1 X118.321 Y57.065 E.07089
G1 X120.628 Y57.065 E.07089
G1 X120.628 Y59.372 E.07089
G1 X122.935 Y59.372 E.07089
G1 X122.935 Y61.679 E.07089
G1 X125.243 Y61.679 E.07089
G1 X125.243 Y63.986 E.07089
G1 X127.55 Y63.986 E.07089
G1 X127.55 Y68.6 E.14178
G1 X129.857 Y68.6 E.07089
G1 X129.857 Y73.214 E.14178
G1 X132.164 Y73.214 E.07089
G1 X132.164 Y106.786 E1.03157
G1 X129.857 Y106.786 E.07089
G1 X129.857 Y111.4 E.14178
G1 X127.55 Y111.4 E.07089
G1 X127.55 Y116.014 E.14178
G1 X125.243 Y116.014 E.07089
G1 X125.243 Y118.321 E.07089
G1 X122.935 Y118.321 E.07089
G1 X122.935 Y120.628 E.07089
G1 X120.628 Y120.628 E.07089
G1 X120.628 Y122.935 E.07089
G1 X118.321 Y122.935 E.07089
G1 X118.321 Y125.243 E.07089
G1 X116.014 Y125.243 E.07089
G1 X116.014 Y127.55 E.07089
G1 X111.4 Y127.55 E.14178
G1 X111.4 Y129.857 E.07089
G1 X106.786 Y129.857 E.14178
G1 X106.786 Y132.164 E.07089
G1 X73.214 Y132.164 E1.03157
G1 X73.214 Y129.857 E.07089
G1 X68.6 Y129.857 E.14178
G1 X68.6 Y127.55 E.07089
G1 X63.986 Y127.55 E.14178
G1 X63.986 Y125.243 E.07089
G1 X61.679 Y125.243 E.07089
G1 X61.679 Y122.935 E.07089
G1 X59.372 Y122.935 E.07089
G1 X59.372 Y120.628 E.07089
G1 X57.065 Y120.628 E.07089
G1 X57.065 Y118.321 E.07089
G1 X54.757 Y118.321 E.07089
G1 X54.757 Y116.014 E.07089
G1 X52.45 Y116.014 E.07089
G1 X52.45 Y111.4 E.14178
G1 X50.143 Y111.4 E.07089
G1 X50.143 Y106.786 E.14178
G1 X47.836 Y106.786 E.07089
G1 X47.836 Y73.214 E1.03157
G1 X50.143 Y73.214 E.07089
G1 X50.143 Y68.6 E.14178
G1 X52.45 Y68.6 E.07089
G1 X52.45 Y63.986 E.14178
G1 X54.757 Y63.986 E.07089
G1 X54.757 Y61.679 E.07089
G1 X57.065 Y61.679 E.07089
G1 X57.065 Y59.372 E.07089
G1 X59.372 Y59.372 E.07089
G1 X59.372 Y57.065 E.07089
G1 X61.679 Y57.065 E.07089
G1 X61.679 Y54.757 E.07089
G1 X63.986 Y54.757 E.07089
G1 X63.986 Y52.45 E.07089
G1 X68.6 Y52.45 E.14178
G1 X68.6 Y50.143 E.07089
G1 X81.384 Y50.143 E.39281
M204 P1000
G1 E-2.24 F4200
;WIPE_START
G1 F7200
G1 X79.738 Y50.143 E-.912
;WIPE_END
G1 E-.048 F4200
G1 Z.4 F720
G1 X131.479 Y106.616 F9000
G1 Z.2 F720
G1 E3.2 F2400
M204 P800
G1 F1200
G1 X131.479 Y73.553 E1.01593
G1 X131.06 Y73.553 E.01287
G1 X131.06 Y106.447 E1.01071
G1 X130.641 Y106.447 E.01287
G1 X130.641 Y73.553 E1.01071
G1 X130.222 Y73.553 E.01287
G1 X130.222 Y106.447 E1.01071
G1 X129.803 Y106.447 E.01287
G1 X129.803 Y73.553 E1.01071
G1 X129.517 Y73.553 E.00877
G1 X129.517 Y68.939 E.14178
G1 X129.384 Y68.939 E.0041
G1 X129.384 Y111.061 E1.29427
G1 X128.965 Y111.061 E.01287
M73 P0 R142
G1 X128.965 Y68.939 E1.29427
G1 X128.546 Y68.939 E.01287
G1 X128.546 Y111.061 E1.29427
G1 X128.127 Y111.061 E.01287
G1 X128.127 Y68.939 E1.29427
G1 X127.708 Y68.939 E.01287
G1 X127.708 Y111.061 E1.29427
G1 X127.289 Y111.061 E.01287
G1 X127.289 Y68.939 E1.29427
G1 X127.21 Y68.939 E.00242
G1 X127.21 Y64.325 E.14178
G1 X126.87 Y64.325 E.01046
G1 X126.87 Y115.675 E1.57783
G1 X126.451 Y115.675 E.01287
G1 X126.451 Y64.325 E1.57783
G1 X126.032 Y64.325 E.01287
G1 X126.032 Y115.675 E1.57783
G1 X125.613 Y115.675 E.01287
G1 X125.613 Y64.325 E1.57783
G1 X125.194 Y64.325 E.01287
M73 P1 R142
G1 X125.194 Y115.675 E1.57783
G1 X124.903 Y115.675 E.00894
G1 X124.903 Y117.982 E.07089
G1 X124.775 Y117.982 E.00394
G1 X124.775 Y62.018 E1.71961
G1 X124.356 Y62.018 E.01287
G1 X124.356 Y117.982 E1.71961
G1 X123.937 Y117.982 E.01287
G1 X123.937 Y62.018 E1.71961
G1 X123.518 Y62.018 E.01287
G1 X123.518 Y117.982 E1.71961
G1 X123.099 Y117.982 E.01287
G1 X123.099 Y62.018 E1.71961
G1 X122.68 Y62.018 E.01287
G1 X122.68 Y117.982 E1.71961
G1 X122.596 Y117.982 E.00258
G1 X122.596 Y120.289 E.07089
G1 X122.261 Y120.289 E.01029
G1 X122.261 Y59.711 E1.8614
G1 X121.842 Y59.711 E.01287
G1 X121.842 Y120.289 E1.8614
G1 X121.423 Y120.289 E.01287
G1 X121.423 Y59.711 E1.8614
G1 X121.004 Y59.711 E.01287
G1 X121.004 Y120.289 E1.8614
G1 X120.585 Y120.289 E.01287
G1 X120.585 Y59.711 E1.8614
G1 X120.289 Y59.711 E.0091
G1 X120.289 Y57.404 E.07089
G1 X120.166 Y57.404 E.00377
G1 X120.166 Y122.596 E2.00318
G1 X119.747 Y122.596 E.01287
M73 P1 R141
G1 X119.747 Y57.404 E2.00318
G1 X119.328 Y57.404 E.01287
G1 X119.328 Y122.596 E2.00318
G1 X118.909 Y122.596 E.01287
G1 X118.909 Y57.404 E2.00318
G1 X118.49 Y57.404 E.01287
G1 X118.49 Y122.596 E2.00318
G1 X118.071 Y122.596 E.01287
G1 X118.071 Y57.404 E2.00318
G1 X117.982 Y57.404 E.00275
G1 X117.982 Y55.097 E.07089
G1 X117.652 Y55.097 E.01012
G1 X117.652 Y124.903 E2.14496
G1 X117.234 Y124.903 E.01287
G1 X117.234 Y55.097 E2.14496
G1 X116.815 Y55.097 E.01287
G1 X116.815 Y124.903 E2.14496
G1 X116.396 Y124.903 E.01287
G1 X116.396 Y55.097 E2.14496
G1 X115.977 Y55.097 E.01287
G1 X115.977 Y124.903 E2.14496
G1 X115.675 Y124.903 E.00927
G1 X115.675 Y127.21 E.07089
G1 X115.558 Y127.21 E.0036
G1 X115.558 Y52.79 E2.28674
G1 X115.139 Y52.79 E.01287
G1 X115.139 Y127.21 E2.28674
G1 X114.72 Y127.21 E.01287
G1 X114.72 Y52.79 E2.28674
G1 X114.301 Y52.79 E.01287
G1 X114.301 Y127.21 E2.28674
G1 X113.882 Y127.21 E.01287
M73 P2 R141
G1 X113.882 Y52.79 E2.28674
G1 X113.463 Y52.79 E.01287
G1 X113.463 Y127.21 E2.28674
G1 X113.044 Y127.21 E.01287
G1 X113.044 Y52.79 E2.28674
G1 X112.625 Y52.79 E.01287
M73 P2 R140
G1 X112.625 Y127.21 E2.28674
G1 X112.206 Y127.21 E.01287
G1 X112.206 Y52.79 E2.28674
G1 X111.787 Y52.79 E.01287
G1 X111.787 Y127.21 E2.28674
G1 X111.368 Y127.21 E.01287
G1 X111.368 Y52.79 E2.28674
G1 X111.061 Y52.79 E.00944
G1 X111.061 Y50.483 E.07089
G1 X110.949 Y50.483 E.00344
G1 X110.949 Y129.517 E2.42852
G1 X110.53 Y129.517 E.01287
G1 X110.53 Y50.483 E2.42852
G1 X110.111 Y50.483 E.01287
G1 X110.111 Y129.517 E2.42852
G1 X109.692 Y129.517 E.01287
G1 X109.692 Y50.483 E2.42852
G1 X109.273 Y50.483 E.01287
G1 X109.273 Y129.517 E2.42852
G1 X108.854 Y129.517 E.01287
G1 X108.854 Y50.483 E2.42852
G1 X108.435 Y50.483 E.01287
G1 X108.435 Y129.517 E2.42852
G1 X108.016 Y129.517 E.01287
G1 X108.016 Y50.483 E2.42852
G1 X107.597 Y50.483 E.01287
G1 X107.597 Y62.304 E.36323
G1 X107.392 Y61.672 E.0204
G1 X107.178 Y61.284 E.01362
G1 X107.178 Y50.483 E.33189
G1 X106.759 Y50.483 E.01287
G1 X106.759 Y60.57 E.30995
G1 X106.34 Y59.994 E.02189
G1 X106.34 Y50.483 E.29225
G1 X105.921 Y50.483 E.01287
G1 X105.921 Y59.418 E.27455
G1 X105.502 Y58.842 E.02189
G1 X105.502 Y50.483 E.25685
G1 X105.083 Y50.483 E.01287
G1 X105.083 Y58.266 E.23915
G1 X104.664 Y57.689 E.02189
G1 X104.664 Y50.483 E.22145
G1 X104.245 Y50.483 E.01287
G1 X104.245 Y57.113 E.20375
G1 X103.826 Y56.537 E.02189
G1 X103.826 Y50.483 E.18605
G1 X103.407 Y50.483 E.01287
G1 X103.407 Y55.961 E.16834
G1 X102.988 Y55.385 E.02189
G1 X102.988 Y50.483 E.15064
G1 X102.569 Y50.483 E.01287
G1 X102.569 Y54.809 E.13294
G1 X102.15 Y54.233 E.02189
G1 X102.15 Y50.483 E.11524
G1 X101.731 Y50.483 E.01287
G1 X101.731 Y53.657 E.09754
G1 X101.312 Y53.081 E.02189
G1 X101.312 Y50.313 E.08506
M204 P1000
G1 E-2.24 F4200
;WIPE_START
G1 F7200
G1 X101.312 Y51.959 E-.912
;WIPE_END
G1 E-.048 F4200
G1 Z.4 F720
G1 X107.597 Y129.687 F9000
G1 Z.2 F720
G1 E3.2 F2400
M204 P800
G1 F1200
G1 X107.597 Y79.722 E1.53527
G1 X107.178 Y81.094 E.04406
G1 X107.178 Y129.517 E1.48793
G1 X106.759 Y129.517 E.01287
M73 P2 R139
G1 X106.759 Y82.465 E1.44579
G1 X106.34 Y83.836 E.04406
G1 X106.34 Y131.824 E1.47455
G1 X105.921 Y131.824 E.01287
G1 X105.921 Y85.207 E1.43241
G1 X105.502 Y86.579 E.04406
G1 X105.502 Y131.824 E1.39028
G1 X105.083 Y131.824 E.01287
G1 X105.083 Y87.95 E1.34815
G1 X104.664 Y89.321 E.04406
G1 X104.664 Y131.824 E1.30601
G1 X104.245 Y131.824 E.01287
M73 P3 R139
G1 X104.245 Y90.692 E1.26388
G1 X103.826 Y92.063 E.04406
G1 X103.826 Y131.824 E1.22175
G1 X103.407 Y131.824 E.01287
G1 X103.407 Y93.406 E1.1805
G1 X102.988 Y94.695 E.04166
G1 X102.988 Y131.824 E1.14088
G1 X102.569 Y131.824 E.01287
G1 X102.569 Y95.826 E1.10612
G1 X102.15 Y96.552 E.02575
G1 X102.15 Y131.824 E1.08382
G1 X101.731 Y131.824 E.01287
G1 X101.731 Y97.278 E1.06152
G1 X101.312 Y98.003 E.02575
G1 X101.312 Y131.824 E1.03922
G1 X100.893 Y131.824 E.01287
G1 X100.893 Y98.513 E1.02358
G1 X100.474 Y98.978 E.01924
G1 X100.474 Y131.824 E1.00928
G1 X100.055 Y131.824 E.01287
G1 X100.055 Y99.443 E.99498
G1 X99.636 Y99.909 E.01924
G1 X99.636 Y131.824 E.98069
G1 X99.217 Y131.824 E.01287
G1 X99.217 Y100.339 E.96746
G1 X98.799 Y100.643 E.01591
G1 X98.799 Y131.824 E.95811
G1 X98.38 Y131.824 E.01287
G1 X98.38 Y100.948 E.94875
G1 X97.961 Y101.252 E.01591
G1 X97.961 Y131.824 E.9394
G1 X97.542 Y131.824 E.01287
G1 X97.542 Y101.557 E.93005
G1 X97.123 Y101.861 E.01591
G1 X97.123 Y131.824 E.92069
G1 X96.704 Y131.824 E.01287
G1 X96.704 Y102.09 E.91364
G1 X96.285 Y102.277 E.01409
G1 X96.285 Y131.824 E.90791
G1 X95.866 Y131.824 E.01287
G1 X95.866 Y102.464 E.90218
G1 X95.447 Y102.65 E.01409
G1 X95.447 Y131.824 E.89645
G1 X95.028 Y131.824 E.01287
G1 X95.028 Y102.837 E.89071
G1 X94.609 Y103.023 E.01409
G1 X94.609 Y131.824 E.88498
G1 X94.19 Y131.824 E.01287
G1 X94.19 Y103.177 E.88025
G1 X93.771 Y103.266 E.01316
G1 X93.771 Y131.824 E.87752
G1 X93.352 Y131.824 E.01287
G1 X93.352 Y103.355 E.87478
G1 X92.933 Y103.444 E.01316
M73 P3 R138
G1 X92.933 Y131.824 E.87204
G1 X92.514 Y131.824 E.01287
G1 X92.514 Y103.533 E.86931
G1 X92.095 Y103.622 E.01316
G1 X92.095 Y131.824 E.86657
G1 X91.676 Y131.824 E.01287
G1 X91.676 Y103.711 E.86383
G1 X91.46 Y103.748 E.00673
G1 X91.257 Y103.748 E.00624
G1 X91.257 Y131.824 E.86271
G1 X90.838 Y131.824 E.01287
G1 X90.838 Y103.748 E.86271
G1 X90.419 Y103.748 E.01287
G1 X90.419 Y131.824 E.86271
G1 X90 Y131.824 E.01287
G1 X90 Y103.748 E.86271
G1 X89.581 Y103.748 E.01287
G1 X89.581 Y131.824 E.86271
G1 X89.162 Y131.824 E.01287
G1 X89.162 Y103.748 E.86271
G1 X88.743 Y103.748 E.01287
G1 X88.743 Y131.824 E.86271
G1 X88.324 Y131.824 E.01287
G1 X88.324 Y103.687 E.86459
G1 X87.905 Y103.598 E.01316
G1 X87.905 Y131.824 E.86733
G1 X87.486 Y131.824 E.01287
G1 X87.486 Y103.509 E.87007
G1 X87.067 Y103.42 E.01316
G1 X87.067 Y131.824 E.8728
G1 X86.648 Y131.824 E.01287
G1 X86.648 Y103.33 E.87554
G1 X86.229 Y103.241 E.01316
G1 X86.229 Y131.824 E.87828
G1 X85.81 Y131.824 E.01287
G1 X85.81 Y103.15 E.88108
G1 X85.391 Y102.971 E.014
G1 X85.391 Y131.824 E.88658
G1 X84.972 Y131.824 E.01287
G1 X84.972 Y102.785 E.89231
G1 X84.553 Y102.598 E.01409
G1 X84.553 Y131.824 E.89804
G1 X84.134 Y131.824 E.01287
G1 X84.134 Y102.412 E.90377
G1 X83.715 Y102.225 E.01409
G1 X83.715 Y131.824 E.9095
G1 X83.296 Y131.824 E.01287
G1 X83.296 Y102.039 E.91523
G1 X83.111 Y101.946 E.00635
G1 X82.877 Y101.776 E.00889
G1 X82.877 Y131.824 E.92329
G1 X82.458 Y131.824 E.01287
G1 X82.458 Y101.472 E.93264
G1 X82.039 Y101.168 E.01591
G1 X82.039 Y131.824 E.942
G1 X81.62 Y131.824 E.01287
G1 X81.62 Y100.863 E.95135
G1 X81.201 Y100.559 E.01591
M73 P4 R138
G1 X81.201 Y131.824 E.9607
G1 X80.783 Y131.824 E.01287
G1 X80.783 Y100.244 E.97038
G1 X80.364 Y99.779 E.01922
G1 X80.364 Y131.824 E.98466
G1 X79.945 Y131.824 E.01287
G1 X79.945 Y99.314 E.99896
G1 X79.526 Y98.849 E.01924
G1 X79.526 Y131.824 E1.01326
G1 X79.107 Y131.824 E.01287
G1 X79.107 Y98.383 E1.02755
G1 X78.853 Y98.088 E.01196
G1 X78.688 Y97.802 E.01016
G1 X78.688 Y131.824 E1.04542
G1 X78.269 Y131.824 E.01287
G1 X78.269 Y97.076 E1.06772
G1 X77.85 Y96.351 E.02575
G1 X77.85 Y131.824 E1.09001
G1 X77.431 Y131.824 E.01287
G1 X77.431 Y95.614 E1.11263
G1 X77.012 Y94.337 E.04131
G1 X77.012 Y131.824 E1.15188
G1 X76.593 Y131.824 E.01287
M73 P4 R137
G1 X76.593 Y93.047 E1.19151
G1 X76.174 Y91.682 E.04387
G1 X76.174 Y131.824 E1.23345
G1 X75.755 Y131.824 E.01287
G1 X75.755 Y90.311 E1.27558
G1 X75.336 Y88.94 E.04406
G1 X75.336 Y131.824 E1.31772
G1 X74.917 Y131.824 E.01287
G1 X74.917 Y87.569 E1.35985
G1 X74.498 Y86.198 E.04406
G1 X74.498 Y131.824 E1.40199
G1 X74.079 Y131.824 E.01287
G1 X74.079 Y84.826 E1.44412
G1 X73.66 Y83.455 E.04406
G1 X73.66 Y131.824 E1.48625
G1 X73.553 Y131.824 E.00327
G1 X73.553 Y129.517 E.07089
G1 X73.241 Y129.517 E.0096
G1 X73.241 Y82.084 E1.4575
G1 X72.822 Y80.713 E.04406
G1 X72.822 Y129.517 E1.49963
G1 X72.403 Y129.517 E.01287
G1 X72.403 Y50.483 E2.42852
G1 X72.822 Y50.483 E.01287
G1 X72.822 Y61.486 E.33809
G1 X73.241 Y60.76 E.02575
G1 X73.241 Y50.483 E.31579
G1 X73.66 Y50.483 E.01287
G1 X73.66 Y60.154 E.29716
G1 X74.079 Y59.578 E.02189
G1 X74.079 Y50.483 E.27946
G1 X74.498 Y50.483 E.01287
G1 X74.498 Y59.002 E.26176
