; generated by PrusaSlicer 2.6.0-alpha0 on 2023-03-02 at 16:18:36 UTC

; 
;

; 
;

; 
;

; 

; external perimeters extrusion width = 0.45mm
; perimeters extrusion width = 0.45mm
; infill extrusion width = 0.45mm
; solid infill extrusion width = 0.45mm
; top infill extrusion width = 0.40mm
; first layer extrusion width = 0.42mm

M73 P0 R42
M201 X2500 Y2500 Z400 E5000 ; sets maximum accelerations, mm/sec^2
M203 X180 Y180 Z12 E80 ; sets maximum feedrates, mm / sec
M204 P1250 R1250 T2500 ; sets acceleration (P, T) and retract acceleration (R), mm/sec^2
M205 X8.00 Y8.00 Z2.00 E10.00 ; sets the jerk limits, mm/sec
M205 S0 T0 ; sets the minimum extruding and travel feed rate, mm/sec
M107
;TYPE:Custom
M862.3 P "MINI" ; printer model check
G90 ; use absolute coordinates
M83 ; extruder relative mode
M104 S170 ; set extruder temp for bed leveling
M140 S60 ; set bed temp
M109 R170 ; wait for bed leveling temp
M190 S60 ; wait for bed temp
M204 T1250 ; set travel acceleration
G28 ; home all without mesh bed level
G29 ; mesh bed leveling 
M204 T2500 ; restore travel acceleration
M104 S215 ; set extruder temp
G92 E0
G1 Y-2 X179 F2400
G1 Z3 F720
M109 S215 ; wait for extruder temp

; intro line
M73 P0 R41
G1 X170 F1000
G1 Z0.2 F720
G1 X110 E8 F900
G1 X40 E10 F700
G92 E0

M221 S95 ; set flow
G21 ; set units to millimeters
G90 ; use absolute coordinates
M83 ; use relative distances for extrusion
M900 K0.05 ; Filament gcode LA 1.5
M900 K30 ; Filament gcode LA 1.0
M107
;LAYER_CHANGE
;Z:0.25
;HEIGHT:0.25
;BEFORE_LAYER_CHANGE
G92 E0.0
;0.25


G1 E-3.2 F4200
G1 Z.2 F720
G1 Z.25
;AFTER_LAYER_CHANGE
;0.25
G1 Z.45
G1 X75.446 Y74.27 F9000
G1 Z.25 F720
G1 E3.2 F2400
M204 P800
;TYPE:Skirt/Brim
;WIDTH:0.42
G1 F1200
G1 X75.979 Y73.729 E.03326
G1 X78.571 Y71.814 E.14112
G1 X81.693 Y70.192 E.15406
G1 X84.39 Y69.262 E.12492
G1 X88.221 Y68.595 E.17028
G1 X91.443 Y68.569 E.14109
G1 X94.922 Y69.093 E.15406
G1 X97.995 Y70.064 E.14112
G1 X101.46 Y71.828 E.17026
G1 X103.764 Y73.511 E.12494
G1 X106.271 Y75.979 E.15405
G1 X108.186 Y78.571 E.14112
G1 X109.953 Y82.035 E.17028
G1 X110.828 Y84.75 E.12491
G1 X111.285 Y87.501 E.12212
G1 X111.437 Y88.591 E.04819
G1 X111.457 Y91.073 E.10869
G1 X110.907 Y94.922 E.17026
G1 X109.936 Y97.995 E.14112
G1 X108.172 Y101.46 E.17026
G1 X106.489 Y103.764 E.12494
G1 X104.021 Y106.271 E.15405
G1 X101.429 Y108.186 E.14112
G1 X97.965 Y109.953 E.17028
G1 X95.25 Y110.828 E.12491
G1 X92.499 Y111.285 E.12212
G1 X91.409 Y111.437 E.04819
G1 X88.927 Y111.457 E.10869
G1 X85.078 Y110.907 E.17026
G1 X82.005 Y109.936 E.14112
G1 X78.54 Y108.172 E.17026
G1 X76.236 Y106.489 E.12494
G1 X73.729 Y104.021 E.15405
G1 X71.814 Y101.429 E.14112
G1 X70.048 Y97.965 E.17026
G1 X69.172 Y95.25 E.12492
G1 X68.715 Y92.499 E.12212
G1 X68.563 Y91.409 E.04819
G1 X68.543 Y88.927 E.10869
G1 X69.093 Y85.078 E.17026
G1 X70.064 Y82.005 E.14112
G1 X71.828 Y78.54 E.17026
G1 X73.511 Y76.236 E.12494
G1 X75.404 Y74.313 E.11816
M204 P1000
; printing object 0 id:0 copy 0
G1 E-2.24 F4200
;WIPE_START
G1 F7200
G1 X75.979 Y73.729 E-.45417
G1 X76.713 Y73.187 E-.50583
;WIPE_END
G1 Z.45 F720
G1 X85.886 Y92.989 F9000
G1 Z.25 F720
G1 E3.2 F2400
M204 P800
;TYPE:Perimeter
G1 F1200
G1 X86.315 Y92.026 E.04616
G1 X85.272 Y91.872 E.04617
G1 X86.126 Y90.794 E.06022
G1 X86.051 Y90.194 E.02648
G1 X86.006 Y90.16 E.00247
G1 X86.026 Y90 E.00706
G1 X86.006 Y89.84 E.00706
G1 X86.051 Y89.806 E.00247
G1 X86.126 Y89.206 E.02648
G1 X85.272 Y88.128 E.06022
G1 X86.315 Y87.974 E.04617
G1 X85.886 Y87.011 E.04616
G1 X87.254 Y87.155 E.06023
G1 X87.72 Y86.77 E.02647
G1 X87.835 Y85.399 E.06025
G1 X88.7 Y86 E.04612
G1 X89.047 Y85.005 E.04614
G1 X89.946 Y86.046 E.06023
G1 X90.549 Y86.084 E.02646
G1 X90.591 Y86.046 E.00248
G1 X90.745 Y86.096 E.00709
G1 X90.906 Y86.107 E.00707
G1 X90.931 Y86.157 E.00245
G1 X91.506 Y86.344 E.02648
G1 X92.725 Y85.706 E.06025
G1 X92.681 Y86.76 E.04619
G1 X93.707 Y86.519 E.04615
G1 X93.402 Y87.528 E.04616
G1 X94.456 Y87.55 E.04616
G1 X93.91 Y88.452 E.04617
G1 X94.926 Y88.735 E.04618
G1 X93.943 Y89.698 E.06026
G1 X93.943 Y90.302 E.02645
G1 X94.926 Y91.265 E.06026
G1 X93.91 Y91.548 E.04618
M73 P1 R41
G1 X94.456 Y92.45 E.04617
G1 X93.402 Y92.472 E.04616
G1 X93.707 Y93.481 E.04616
G1 X92.681 Y93.24 E.04615
G1 X92.725 Y94.294 E.04619
G1 X91.506 Y93.656 E.06025
G1 X90.931 Y93.843 E.02648
G1 X90.906 Y93.893 E.00245
G1 X90.745 Y93.904 E.00707
G1 X90.591 Y93.954 E.00709
G1 X90.549 Y93.916 E.00248
G1 X89.946 Y93.954 E.02646
G1 X89.047 Y94.995 E.06023
G1 X88.7 Y94 E.04614
G1 X87.835 Y94.601 E.04612
G1 X87.72 Y93.231 E.0602
G1 X87.254 Y92.845 E.0265
G1 X85.946 Y92.983 E.05759
M204 P1000
G1 X86.479 Y92.558 F9000
M204 P800
G1 F1200
G1 X86.846 Y91.734 E.0395
G1 X85.953 Y91.602 E.03953
G1 X86.513 Y90.895 E.03949
G1 X86.396 Y89.996 E.0397
G1 X86.513 Y89.105 E.03935
G1 X85.953 Y88.398 E.03949
G1 X86.846 Y88.266 E.03953
G1 X86.479 Y87.442 E.0395
G1 X87.376 Y87.536 E.03949
G1 X88.071 Y86.961 E.0395
G1 X88.147 Y86.062 E.03951
G1 X88.888 Y86.577 E.03951
G1 X89.184 Y85.724 E.03954
G1 X89.774 Y86.407 E.03952
G1 X90.679 Y86.46 E.0397
G1 X91.533 Y86.743 E.0394
G1 X92.332 Y86.325 E.03949
G1 X92.294 Y87.226 E.03949
G1 X93.173 Y87.02 E.03953
G1 X92.912 Y87.884 E.03952
G1 X93.814 Y87.903 E.03951
G1 X93.347 Y88.675 E.03951
G1 X94.216 Y88.918 E.03951
G1 X93.571 Y89.549 E.03951
G1 X93.571 Y90.451 E.0395
G1 X94.216 Y91.082 E.03951
G1 X93.347 Y91.325 E.03951
G1 X93.814 Y92.097 E.03951
G1 X92.912 Y92.116 E.03951
G1 X93.173 Y92.98 E.03952
G1 X92.294 Y92.774 E.03953
G1 X92.332 Y93.675 E.03949
G1 X91.533 Y93.257 E.03949
G1 X90.679 Y93.54 E.0394
G1 X89.774 Y93.593 E.0397
G1 X89.184 Y94.276 E.03952
G1 X88.888 Y93.423 E.03954
G1 X88.147 Y93.938 E.03951
G1 X88.071 Y93.039 E.03951
G1 X87.376 Y92.464 E.0395
G1 X86.538 Y92.552 E.0369
M204 P1000
G1 X87.071 Y92.128 F9000
M204 P800
;TYPE:External perimeter
G1 F1200
G1 X87.377 Y91.442 E.03289
G1 X86.634 Y91.333 E.03288
G1 X87.1 Y90.745 E.03285
G1 X86.845 Y90.637 E.01213
G1 X86.786 Y90.167 E.02074
G1 X87.006 Y90 E.01209
G1 X86.786 Y89.833 E.01209
G1 X86.845 Y89.363 E.02074
G1 X87.1 Y89.255 E.01213
G1 X86.634 Y88.667 E.03285
G1 X87.377 Y88.558 E.03288
G1 X87.071 Y87.872 E.03289
G1 X87.818 Y87.951 E.03289
G1 X87.771 Y87.678 E.01213
G1 X88.136 Y87.376 E.02074
G1 X88.396 Y87.472 E.01214
G1 X88.459 Y86.725 E.03283
G1 X89.075 Y87.153 E.03285
G1 X89.322 Y86.444 E.03288
G1 X89.812 Y87.012 E.03285
G1 X89.965 Y86.781 E.01213
G1 X90.438 Y86.811 E.02075
G1 X90.561 Y87.059 E.01212
G1 X90.767 Y86.874 E.01212
G1 X91.217 Y87.02 E.02072
G1 X91.275 Y87.291 E.01214
G1 X91.94 Y86.944 E.03285
G1 X91.908 Y87.693 E.03283
G1 X92.639 Y87.522 E.03287
G1 X92.422 Y88.24 E.03285
G1 X93.172 Y88.256 E.03285
G1 X92.783 Y88.898 E.03287
G1 X93.506 Y89.1 E.03287
G1 X92.97 Y89.625 E.03285
G1 X93.21 Y89.763 E.01212
G1 X93.21 Y90.237 E.02076
G1 X92.97 Y90.375 E.01212
G1 X93.506 Y90.9 E.03285
G1 X92.783 Y91.102 E.03287
G1 X93.172 Y91.744 E.03287
G1 X92.422 Y91.76 E.03285
G1 X92.639 Y92.478 E.03285
G1 X91.908 Y92.307 E.03287
G1 X91.94 Y93.056 E.03283
G1 X91.275 Y92.709 E.03285
G1 X91.217 Y92.98 E.01214
G1 X90.767 Y93.126 E.02072
G1 X90.561 Y92.941 E.01212
G1 X90.438 Y93.189 E.01212
G1 X89.965 Y93.219 E.02075
G1 X89.812 Y92.988 E.01213
G1 X89.322 Y93.556 E.03285
G1 X89.075 Y92.847 E.03288
G1 X88.459 Y93.275 E.03285
G1 X88.396 Y92.528 E.03283
G1 X88.136 Y92.624 E.01214
G1 X87.771 Y92.322 E.02074
G1 X87.818 Y92.049 E.01213
G1 X87.131 Y92.122 E.03025
M204 P1000
G1 X86.698 Y91.983 F9000
G1 E-2.24 F4200
;WIPE_START
G1 F7200
G1 X87.377 Y91.442 E-.40073
G1 X86.634 Y91.333 E-.41615
G1 X86.794 Y91.131 E-.14312
;WIPE_END
G1 Z.45 F720
G1 X106.604 Y86.451 F9000
G1 Z.25 F720
G1 E3.2 F2400
M204 P800
;TYPE:Perimeter
G1 F1200
G1 X106.775 Y87.478 E.04559
G1 X106.625 Y87.458 E.00663
G1 X106.731 Y89.781 E.10183
G1 X106.694 Y91.706 E.08431
G1 X106.888 Y91.756 E.00877
G1 X106.733 Y92.785 E.04557
G1 X106.521 Y92.684 E.01028
G1 X106.217 Y94.123 E.0644
G1 X105.914 Y95.171 E.04777
G1 X105.335 Y96.772 E.07455
G1 X105.519 Y96.889 E.00955
G1 X105.054 Y97.819 E.04553
G1 X104.902 Y97.676 E.00914
G1 X104.033 Y99.113 E.07354
G1 X103.407 Y100.012 E.04797
G1 X102.483 Y101.169 E.06484
G1 X102.631 Y101.347 E.01014
G1 X101.901 Y102.088 E.04555
G1 X101.808 Y101.919 E.00845
G1 X100.359 Y103.141 E.083
G1 X99.478 Y103.79 E.04792
G1 X98.417 Y104.469 E.05516
G1 X98.506 Y104.695 E.01064
G1 X97.582 Y105.174 E.04557
G1 X97.551 Y105.004 E.00757
G1 X95.586 Y105.773 E.0924
G1 X94.542 Y106.105 E.04797
G1 X93.533 Y106.354 E.04551
G1 X93.549 Y106.604 E.01097
G1 X92.522 Y106.775 E.04559
G1 X92.542 Y106.625 E.00663
G1 X90.219 Y106.731 E.10183
G1 X88.294 Y106.694 E.08431
G1 X88.244 Y106.888 E.00877
G1 X87.215 Y106.733 E.04557
G1 X87.316 Y106.521 E.01028
G1 X85.877 Y106.217 E.0644
G1 X84.829 Y105.914 E.04777
G1 X83.228 Y105.335 E.07455
G1 X83.112 Y105.519 E.00952
G1 X82.181 Y105.054 E.04557
G1 X82.324 Y104.902 E.00914
G1 X80.887 Y104.033 E.07354
G1 X79.988 Y103.407 E.04797
G1 X78.831 Y102.483 E.06484
G1 X78.653 Y102.631 E.01014
G1 X77.912 Y101.901 E.04555
G1 X78.081 Y101.808 E.00845
G1 X76.859 Y100.359 E.083
G1 X76.21 Y99.478 E.04792
G1 X75.531 Y98.417 E.05516
G1 X75.305 Y98.506 E.01064
G1 X74.826 Y97.582 E.04557
G1 X74.996 Y97.551 E.00757
G1 X74.227 Y95.586 E.0924
G1 X73.895 Y94.542 E.04797
G1 X73.646 Y93.533 E.04551
G1 X73.396 Y93.549 E.01097
G1 X73.225 Y92.522 E.04559
G1 X73.375 Y92.542 E.00663
G1 X73.269 Y90.219 E.10183
G1 X73.306 Y88.294 E.08431
G1 X73.112 Y88.244 E.00877
G1 X73.267 Y87.215 E.04557
G1 X73.479 Y87.316 E.01028
G1 X73.783 Y85.877 E.0644
G1 X74.086 Y84.829 E.04777
G1 X74.665 Y83.228 E.07455
G1 X74.481 Y83.112 E.00952
G1 X74.946 Y82.181 E.04557
G1 X75.098 Y82.324 E.00914
G1 X75.967 Y80.887 E.07354
G1 X76.593 Y79.988 E.04797
G1 X77.517 Y78.831 E.06484
G1 X77.369 Y78.653 E.01014
G1 X78.099 Y77.912 E.04555
G1 X78.192 Y78.081 E.00845
G1 X79.641 Y76.859 E.083
G1 X80.522 Y76.21 E.04792
G1 X81.583 Y75.531 E.05516
G1 X81.494 Y75.305 E.01064
G1 X82.418 Y74.826 E.04557
G1 X82.449 Y74.996 E.00757
G1 X84.414 Y74.227 E.0924
G1 X85.458 Y73.895 E.04797
G1 X86.467 Y73.646 E.04551
G1 X86.451 Y73.396 E.01097
G1 X87.478 Y73.225 E.04559
G1 X87.458 Y73.375 E.00663
G1 X89.781 Y73.269 E.10183
G1 X91.706 Y73.306 E.08431
G1 X91.756 Y73.112 E.00877
G1 X92.785 Y73.267 E.04557
G1 X92.689 Y73.468 E.00975
G1 X94.119 Y73.782 E.06411
G1 X95.171 Y74.086 E.04795
G1 X96.772 Y74.665 E.07455
G1 X96.889 Y74.481 E.00955
G1 X97.819 Y74.946 E.04553
G1 X97.676 Y75.098 E.00914
G1 X99.113 Y75.967 E.07354
G1 X100.012 Y76.593 E.04797
G1 X101.169 Y77.517 E.06484
G1 X101.347 Y77.369 E.01014
G1 X102.088 Y78.099 E.04555
G1 X101.919 Y78.192 E.00845
G1 X103.141 Y79.641 E.083
G1 X103.79 Y80.522 E.04792
G1 X104.469 Y81.583 E.05516
G1 X104.695 Y81.494 E.01064
G1 X105.174 Y82.418 E.04557
G1 X105.004 Y82.449 E.00757
G1 X105.773 Y84.414 E.0924
G1 X106.105 Y85.458 E.04797
G1 X106.354 Y86.467 E.04551
G1 X106.544 Y86.455 E.00834
M204 P1000
G1 X106.911 Y86.065 F9000
M204 P800
G1 F1200
G1 X107.217 Y87.905 E.08168
G1 X107.011 Y87.878 E.0091
G1 X107.098 Y89.776 E.0832
G1 X107.066 Y91.423 E.07213
G1 X107.299 Y91.483 E.01054
G1 X107.022 Y93.328 E.0817
G1 X106.784 Y93.215 E.01154
G1 X106.573 Y94.212 E.04462
G1 X106.263 Y95.284 E.04887
G1 X105.78 Y96.62 E.06221
G1 X105.994 Y96.756 E.0111
G1 X105.16 Y98.425 E.0817
G1 X104.98 Y98.254 E.01087
G1 X104.341 Y99.313 E.05416
G1 X103.701 Y100.231 E.049
G1 X102.955 Y101.164 E.05231
G1 X103.124 Y101.368 E.0116
G1 X101.815 Y102.698 E.08172
G1 X101.701 Y102.489 E.01042
G1 X100.586 Y103.428 E.06383
G1 X99.685 Y104.092 E.04901
G1 X98.869 Y104.615 E.04244
G1 X98.969 Y104.867 E.01187
G1 X97.313 Y105.727 E.08171
G1 X97.272 Y105.507 E.0098
G1 X95.708 Y106.119 E.07354
G1 X94.641 Y106.457 E.04901
G1 X93.918 Y106.636 E.03262
G1 X93.935 Y106.911 E.01207
G1 X92.095 Y107.217 E.08168
G1 X92.122 Y107.011 E.0091
G1 X90.224 Y107.098 E.0832
G1 X88.577 Y107.066 E.07213
G1 X88.517 Y107.299 E.01054
G1 X86.672 Y107.022 E.0817
G1 X86.785 Y106.784 E.01154
G1 X85.788 Y106.573 E.04462
G1 X84.716 Y106.263 E.04887
G1 X83.38 Y105.78 E.06221
G1 X83.244 Y105.994 E.0111
G1 X81.575 Y105.16 E.0817
G1 X81.746 Y104.98 E.01087
G1 X80.687 Y104.341 E.05416
G1 X79.769 Y103.701 E.049
G1 X78.836 Y102.955 E.05231
G1 X78.632 Y103.124 E.0116
G1 X77.302 Y101.815 E.08172
G1 X77.511 Y101.701 E.01042
G1 X76.572 Y100.586 E.06383
G1 X75.908 Y99.685 E.04901
G1 X75.385 Y98.869 E.04244
G1 X75.133 Y98.969 E.01187
G1 X74.273 Y97.313 E.08171
G1 X74.493 Y97.272 E.0098
G1 X73.881 Y95.708 E.07354
G1 X73.543 Y94.641 E.04901
G1 X73.364 Y93.918 E.03262
G1 X73.089 Y93.935 E.01207
G1 X72.783 Y92.095 E.08168
G1 X72.989 Y92.122 E.0091
G1 X72.902 Y90.224 E.0832
G1 X72.934 Y88.577 E.07213
G1 X72.701 Y88.517 E.01054
G1 X72.978 Y86.672 E.0817
G1 X73.216 Y86.785 E.01154
G1 X73.427 Y85.788 E.04462
G1 X73.737 Y84.716 E.04887
G1 X74.22 Y83.38 E.06221
G1 X74.006 Y83.244 E.0111
G1 X74.84 Y81.575 E.0817
G1 X75.02 Y81.746 E.01087
G1 X75.659 Y80.687 E.05416
G1 X76.299 Y79.769 E.049
G1 X77.045 Y78.836 E.05231
G1 X76.876 Y78.632 E.0116
G1 X78.185 Y77.302 E.08172
G1 X78.299 Y77.511 E.01042
G1 X79.414 Y76.572 E.06383
G1 X80.315 Y75.908 E.04901
G1 X81.131 Y75.385 E.04244
G1 X81.031 Y75.133 E.01187
G1 X82.687 Y74.273 E.08171
G1 X82.728 Y74.493 E.0098
G1 X84.292 Y73.881 E.07354
G1 X85.359 Y73.543 E.04901
G1 X86.082 Y73.364 E.03262
G1 X86.065 Y73.089 E.01207
G1 X87.905 Y72.783 E.08168
G1 X87.878 Y72.989 E.0091
G1 X89.776 Y72.902 E.0832
G1 X91.423 Y72.934 E.07213
G1 X91.483 Y72.701 E.01054
G1 X93.328 Y72.978 E.0817
G1 X93.218 Y73.209 E.0112
G1 X94.209 Y73.427 E.04443
G1 X95.284 Y73.737 E.04899
G1 X96.62 Y74.221 E.06222
G1 X96.756 Y74.006 E.01114
G1 X98.425 Y74.84 E.0817
G1 X98.254 Y75.02 E.01087
G1 X99.313 Y75.659 E.05416
G1 X100.231 Y76.299 E.049
G1 X101.164 Y77.045 E.05231
G1 X101.368 Y76.876 E.0116
G1 X102.698 Y78.185 E.08172
G1 X102.489 Y78.299 E.01042
G1 X103.428 Y79.414 E.06383
G1 X104.092 Y80.315 E.04901
G1 X104.615 Y81.131 E.04244
G1 X104.867 Y81.031 E.01187
G1 X105.727 Y82.687 E.08171
G1 X105.507 Y82.728 E.0098
G1 X106.119 Y84.292 E.07354
G1 X106.457 Y85.359 E.04901
G1 X106.636 Y86.082 E.03262
G1 X106.851 Y86.068 E.00943
M204 P1000
G1 X107.218 Y85.678 F9000
M204 P800
;TYPE:External perimeter
G1 F1200
G1 X107.66 Y88.332 E.11782
G1 X107.397 Y88.298 E.01161
G1 X107.465 Y89.771 E.06457
G1 X107.438 Y91.14 E.05996
G1 X107.711 Y91.21 E.01234
G1 X107.311 Y93.871 E.11783
G1 X107.046 Y93.745 E.01285
G1 X106.928 Y94.301 E.02489
G1 X106.611 Y95.397 E.04996
G1 X106.224 Y96.468 E.04987
G1 X106.47 Y96.624 E.01276
G1 X105.267 Y99.031 E.11783
G1 X105.059 Y98.833 E.01258
G1 X104.648 Y99.513 E.03479
G1 X103.995 Y100.45 E.05001
G1 X103.427 Y101.16 E.03982
G1 X103.617 Y101.389 E.01303
G1 X101.73 Y103.307 E.11782
G1 X101.594 Y103.058 E.01242
G1 X100.813 Y103.716 E.04472
G1 X99.893 Y104.394 E.05004
G1 X99.321 Y104.761 E.02976
G1 X99.431 Y105.04 E.01313
G1 X97.043 Y106.28 E.11783
G1 X96.993 Y106.009 E.01207
G1 X95.83 Y106.464 E.05469
G1 X94.741 Y106.81 E.05004
G1 X94.303 Y106.918 E.01975
G1 X94.322 Y107.218 E.01316
G1 X91.668 Y107.66 E.11782
G1 X91.702 Y107.397 E.01161
G1 X90.229 Y107.465 E.06457
G1 X88.86 Y107.438 E.05996
G1 X88.79 Y107.711 E.01234
G1 X86.129 Y107.311 E.11783
G1 X86.255 Y107.046 E.01285
G1 X85.699 Y106.928 E.02489
G1 X84.603 Y106.611 E.04996
G1 X83.532 Y106.224 E.04987
G1 X83.376 Y106.47 E.01276
G1 X80.969 Y105.267 E.11783
G1 X81.167 Y105.059 E.01258
G1 X80.487 Y104.648 E.03479
G1 X79.55 Y103.995 E.05001
G1 X78.84 Y103.427 E.03982
G1 X78.611 Y103.617 E.01303
G1 X76.693 Y101.73 E.11782
G1 X76.942 Y101.594 E.01242
G1 X76.284 Y100.813 E.04472
G1 X75.606 Y99.893 E.05004
G1 X75.239 Y99.321 E.02976
G1 X74.96 Y99.431 E.01313
G1 X73.72 Y97.043 E.11783
G1 X73.991 Y96.993 E.01207
G1 X73.536 Y95.83 E.05469
G1 X73.19 Y94.741 E.05004
G1 X73.082 Y94.303 E.01975
G1 X72.782 Y94.322 E.01316
G1 X72.34 Y91.668 E.11782
G1 X72.603 Y91.702 E.01161
G1 X72.535 Y90.229 E.06457
G1 X72.562 Y88.86 E.05996
G1 X72.289 Y88.79 E.01234
G1 X72.689 Y86.129 E.11783
G1 X72.954 Y86.255 E.01285
G1 X73.072 Y85.699 E.02489
G1 X73.389 Y84.603 E.04996
G1 X73.776 Y83.532 E.04987
