; generated by PrusaSlicer 2.6.0-alpha0 on 2023-03-01 at 12:46:25 UTC

; 
;

; 
;

; 
;

; 

; external perimeters extrusion width = 0.45mm
; perimeters extrusion width = 0.45mm
; infill extrusion width = 0.45mm
; solid infill extrusion width = 0.45mm
; top infill extrusion width = 0.40mm
; first layer extrusion width = 0.42mm

M73 P0 R100
M201 X2500 Y2500 Z400 E5000 ; sets maximum accelerations, mm/sec^2
M203 X180 Y180 Z12 E80 ; sets maximum feedrates, mm / sec
M204 P1250 R1250 T2500 ; sets acceleration (P, T) and retract acceleration (R), mm/sec^2
M205 X8.00 Y8.00 Z2.00 E10.00 ; sets the jerk limits, mm/sec
M205 S0 T0 ; sets the minimum extruding and travel feed rate, mm/sec
M107
;TYPE:Custom
M862.3 P "MINI" ; printer model check
G90 ; use absolute coordinates
M83 ; extruder relative mode
M104 S170 ; set extruder temp for bed leveling
M140 S60 ; set bed temp
M109 R170 ; wait for bed leveling temp
M190 S60 ; wait for bed temp
M204 T1250 ; set travel acceleration
G28 ; home all without mesh bed level
G29 ; mesh bed leveling 
M204 T2500 ; restore travel acceleration
M104 S215 ; set extruder temp
G92 E0
G1 Y-2 X179 F2400
G1 Z3 F720
M109 S215 ; wait for extruder temp

; intro line
G1 X170 F1000
G1 Z0.2 F720
G1 X110 E8 F900
G1 X40 E10 F700
G92 E0

M221 S95 ; set flow
G21 ; set units to millimeters
G90 ; use absolute coordinates
M83 ; use relative distances for extrusion
M900 K0.05 ; Filament gcode LA 1.5
M900 K30 ; Filament gcode LA 1.0
M107
;LAYER_CHANGE
;Z:0.25
;HEIGHT:0.25
;BEFORE_LAYER_CHANGE
G92 E0.0
;0.25


G1 E-3.2 F4200
G1 Z.2 F720
G1 Z.25
;AFTER_LAYER_CHANGE
;0.25
G1 Z.45
G1 X52.405 Y74.865 F9000
G1 Z.25 F720
G1 E3.2 F2400
M204 P800
;TYPE:Skirt/Brim
;WIDTH:0.42
G1 F1200
G1 X52.861 Y74.577 E.02362
G1 X53.622 Y74.265 E.03602
G1 X54.558 Y74.082 E.04176
G1 X94.558 Y70.832 E1.75734
G1 X115.109 Y70.824 E.89991
G1 X125.648 Y70.854 E.4615
G1 X126.619 Y71.065 E.04351
G1 X127.751 Y71.738 E.05767
G1 X128.385 Y72.405 E.0403
G1 X128.673 Y72.861 E.02362
G1 X128.985 Y73.622 E.03602
G1 X129.176 Y74.752 E.05018
G1 X129.146 Y105.648 E1.35291
G1 X128.935 Y106.619 E.04351
G1 X128.577 Y107.305 E.03388
G1 X128.262 Y107.751 E.02391
G1 X127.595 Y108.385 E.0403
G1 X127.139 Y108.673 E.02362
G1 X126.378 Y108.985 E.03602
G1 X125.25 Y109.176 E.0501
G1 X94.226 Y109.142 E1.35852
G1 X54.618 Y106.922 E1.73713
G1 X53.622 Y106.735 E.04438
G1 X52.861 Y106.423 E.03602
G1 X52.405 Y106.135 E.02362
G1 X51.738 Y105.501 E.0403
G1 X51.201 Y104.667 E.04344
G1 X51.065 Y104.369 E.01434
G1 X50.854 Y103.391 E.04381
G1 X50.854 Y77.609 E1.12897
G1 X51.065 Y76.631 E.04381
M73 P0 R99
G1 X51.423 Y75.945 E.03388
G1 X51.738 Y75.499 E.02391
G1 X52.362 Y74.907 E.03766
M204 P1000
; printing object 0 id:0 copy 0
G1 E-2.24 F4200
;WIPE_START
G1 F7200
G1 X52.861 Y74.577 E-.33153
G1 X53.622 Y74.265 E-.45579
G1 X53.928 Y74.205 E-.17268
;WIPE_END
G1 Z.45 F720
G1 X82.913 Y96.769 F9000
G1 Z.25 F720
G1 E3.2 F2400
M204 P800
;TYPE:Perimeter
G1 F1200
G1 X82.766 Y96.424 E.01642
G1 X82.19 Y95.602 E.04395
G1 X81.457 Y94.918 E.0439
G1 X80.642 Y94.428 E.04164
G1 X84.678 Y94.125 E.17723
G1 X84.025 Y94.693 E.0379
G1 X83.421 Y95.494 E.04393
G1 X82.997 Y96.403 E.04392
G1 X82.926 Y96.71 E.0138
M204 P1000
G1 E-2.24 F4200
;WIPE_START
G1 F7200
G1 X82.766 Y96.424 E-.18161
G1 X82.19 Y95.602 E-.55623
G1 X81.897 Y95.328 E-.22216
;WIPE_END
G1 Z.45 F720
G1 X73.947 Y97.553 F9000
G1 Z.25 F720
G1 E3.2 F2400
M204 P800
G1 F1200
G1 X73.8 Y97.208 E.01642
G1 X73.225 Y96.386 E.04393
G1 X72.491 Y95.702 E.04393
G1 X71.631 Y95.185 E.04394
G1 X71.437 Y95.118 E.00899
G1 X75.877 Y94.785 E.19497
G1 X75.816 Y94.819 E.00306
G1 X75.059 Y95.477 E.04392
G1 X74.455 Y96.278 E.04393
G1 X74.031 Y97.188 E.04396
G1 X73.96 Y97.495 E.0138
M204 P1000
G1 E-2.24 F4200
;WIPE_START
G1 F7200
G1 X73.8 Y97.208 E-.18209
G1 X73.225 Y96.386 E-.55591
G1 X72.932 Y96.113 E-.222
;WIPE_END
G1 Z.45 F720
G1 X64.981 Y98.338 F9000
G1 Z.25 F720
G1 E3.2 F2400
M204 P800
G1 F1200
G1 X64.834 Y97.992 E.01646
G1 X64.259 Y97.171 E.04389
G1 X63.525 Y96.486 E.04396
G1 X62.665 Y95.97 E.04392
G1 X62.204 Y95.811 E.02135
G1 X67.145 Y95.44 E.21697
G1 X66.85 Y95.603 E.01476
G1 X66.093 Y96.262 E.04395
G1 X65.489 Y97.063 E.04393
G1 X65.065 Y97.972 E.04392
G1 X64.995 Y98.279 E.01379
M204 P1000
G1 E-2.24 F4200
;WIPE_START
G1 F7200
G1 X64.834 Y97.992 E-.18236
G1 X64.259 Y97.171 E-.55546
G1 X63.966 Y96.897 E-.22218
;WIPE_END
G1 Z.45 F720
G1 X55.122 Y102.602 F9000
G1 Z.25 F720
G1 E3.2 F2400
M204 P800
G1 F1200
G1 X55.122 Y96.342 E.27412
G1 X58.412 Y96.095 E.14447
G1 X57.885 Y96.388 E.0264
G1 X57.128 Y97.046 E.04392
G1 X56.524 Y97.847 E.04393
G1 X56.1 Y98.757 E.04396
G1 X55.874 Y99.734 E.04391
G1 X55.857 Y100.694 E.04204
G1 X56.073 Y102.531 E.081
G1 X55.181 Y102.598 E.03917
M204 P1000
G1 E-2.24 F4200
;WIPE_START
G1 F7200
G1 X55.165 Y100.866 E-.96
;WIPE_END
G1 Z.45 F720
G1 X83.122 Y100.869 F9000
G1 Z.25 F720
G1 E3.2 F2400
M204 P800
G1 F1200
G1 X82.977 Y98.335 E.11114
G1 X82.806 Y97.455 E.03926
G1 X82.444 Y96.602 E.04058
G1 X81.912 Y95.843 E.04059
G1 X81.235 Y95.212 E.04053
G1 X80.441 Y94.735 E.04056
G1 X79.565 Y94.433 E.04057
G1 X78.646 Y94.32 E.04055
G1 X77.723 Y94.401 E.04057
G1 X76.837 Y94.672 E.04057
G1 X76.027 Y95.121 E.04055
G1 X75.328 Y95.728 E.04054
G1 X74.771 Y96.468 E.04056
G1 X74.379 Y97.308 E.04059
G1 X74.171 Y98.21 E.04053
G1 X74.155 Y99.107 E.03929
G1 X74.44 Y101.521 E.10644
G1 X74.15 Y101.542 E.01273
G1 X74.011 Y99.12 E.10623
G1 X73.84 Y98.239 E.0393
G1 X73.478 Y97.387 E.04054
G1 X72.947 Y96.628 E.04056
G1 X72.269 Y95.996 E.04059
G1 X71.475 Y95.519 E.04056
G1 X70.6 Y95.217 E.04053
G1 X69.68 Y95.105 E.04058
G1 X68.757 Y95.185 E.04057
G1 X67.872 Y95.456 E.04053
G1 X67.062 Y95.905 E.04055
G1 X66.363 Y96.513 E.04057
G1 X65.805 Y97.253 E.04058
G1 X65.414 Y98.092 E.04053
G1 X65.205 Y98.995 E.04059
G1 X65.19 Y99.891 E.03924
G1 X65.461 Y102.194 E.10154
G1 X65.178 Y102.215 E.01243
G1 X65.045 Y99.904 E.10136
G1 X64.874 Y99.024 E.03926
G1 X64.512 Y98.171 E.04058
G1 X63.981 Y97.412 E.04056
G1 X63.304 Y96.781 E.04053
G1 X62.51 Y96.303 E.04058
G1 X61.634 Y96.002 E.04056
G1 X60.714 Y95.889 E.04059
G1 X59.792 Y95.97 E.04053
G1 X58.906 Y96.24 E.04056
G1 X58.096 Y96.689 E.04055
G1 X57.397 Y97.297 E.04057
G1 X56.839 Y98.037 E.04058
G1 X56.448 Y98.876 E.04053
G1 X56.24 Y99.779 E.04058
G1 X56.224 Y100.676 E.03929
G1 X56.482 Y102.867 E.09661
G1 X54.901 Y102.986 E.06943
G1 X54.755 Y102.915 E.00711
G1 X54.755 Y96.085 E.29908
G1 X54.956 Y95.987 E.00979
G1 X87.474 Y93.548 E1.42794
G1 X86.689 Y93.617 E.03451
G1 X85.803 Y93.887 E.04056
G1 X84.993 Y94.336 E.04055
G1 X84.294 Y94.944 E.04057
G1 X83.737 Y95.684 E.04056
G1 X83.345 Y96.523 E.04055
G1 X83.137 Y97.426 E.04058
G1 X83.121 Y98.323 E.03929
G1 X83.419 Y100.847 E.11129
G1 X83.182 Y100.865 E.01041
M204 P1000
G1 E-2.24 F4200
;WIPE_START
G1 F7200
G1 X83.042 Y99.138 E-.96
;WIPE_END
G1 Z.45 F720
G1 X92.439 Y99.81 F9000
G1 Z.25 F720
G1 E3.2 F2400
M204 P800
G1 F1200
G1 X92.307 Y97.505 E.1011
G1 X92.124 Y96.563 E.04202
G1 X91.732 Y95.639 E.04395
G1 X91.156 Y94.817 E.04395
G1 X90.422 Y94.133 E.04393
G1 X89.773 Y93.743 E.03316
G1 X92.58 Y93.532 E.12326
G1 X93.128 Y93.48 E.0241
G1 X93.641 Y93.383 E.02286
G1 X93.615 Y93.71 E.01436
G1 X93.607 Y94.747 E.04541
G1 X93.613 Y99.279 E.19845
G1 X93.644 Y99.795 E.02264
G1 X93.083 Y99.766 E.0246
G1 X92.499 Y99.806 E.02563
M204 P1000
G1 X92.095 Y100.201 F9000
M204 P800
G1 F1200
G1 X91.943 Y97.551 E.11623
G1 X91.771 Y96.67 E.03931
G1 X91.41 Y95.818 E.04052
G1 X90.878 Y95.059 E.04059
G1 X90.201 Y94.427 E.04056
G1 X89.407 Y93.95 E.04056
G1 X88.531 Y93.649 E.04056
G1 X87.62 Y93.537 E.04019
G1 X93.076 Y93.117 E.23962
G1 X93.637 Y93.011 E.025
G1 X94.084 Y92.855 E.02073
G1 X94.024 Y93.174 E.01421
G1 X93.981 Y93.725 E.0242
G1 X93.974 Y94.748 E.0448
G1 X93.979 Y99.268 E.19793
G1 X94.012 Y99.814 E.02395
G1 X94.087 Y100.269 E.02019
G1 X93.608 Y100.16 E.02151
G1 X93.086 Y100.133 E.02289
G1 X92.154 Y100.197 E.04091
M204 P1000
G1 E-2.24 F4200
;WIPE_START
G1 F7200
G1 X92.016 Y98.47 E-.96
;WIPE_END
G1 Z.45 F720
G1 X90.873 Y81.924 F9000
G1 Z.25 F720
G1 E3.2 F2400
M204 P800
G1 F1200
G1 X90.738 Y79.574 E.10307
G1 X90.555 Y78.631 E.04206
G1 X90.163 Y77.708 E.04391
G1 X89.587 Y76.886 E.04395
G1 X88.854 Y76.202 E.0439
G1 X88.277 Y75.855 E.02948
G1 X92.762 Y75.518 E.19695
G1 X93.306 Y75.466 E.02393
G1 X93.657 Y75.4 E.01564
G1 X93.623 Y75.69 E.01279
G1 X93.607 Y77.246 E.06814
G1 X93.613 Y81.279 E.1766
G1 X93.645 Y81.803 E.02299
G1 X93.019 Y81.771 E.02745
G1 X90.933 Y81.92 E.09158
M204 P1000
G1 X90.528 Y82.316 F9000
M204 P800
G1 F1200
G1 X90.374 Y79.619 E.11829
G1 X90.203 Y78.739 E.03926
G1 X89.841 Y77.886 E.04058
G1 X89.309 Y77.127 E.04059
G1 X88.632 Y76.496 E.04053
G1 X87.838 Y76.019 E.04056
G1 X86.962 Y75.717 E.04057
G1 X86.3 Y75.636 E.0292
G1 X92.731 Y75.153 E.2824
G1 X93.255 Y75.103 E.02305
G1 X93.812 Y74.998 E.02482
G1 X94.121 Y74.889 E.01435
G1 X94.056 Y75.146 E.01161
G1 X93.989 Y75.713 E.025
G1 X93.974 Y77.247 E.06718
G1 X93.979 Y81.268 E.17608
G1 X94.012 Y81.814 E.02395
G1 X94.087 Y82.269 E.02019
G1 X93.572 Y82.162 E.02303
G1 X93.024 Y82.138 E.02402
G1 X90.588 Y82.312 E.10694
M204 P1000
G1 E-2.24 F4200
;WIPE_START
G1 F7200
G1 X90.451 Y80.585 E-.96
;WIPE_END
G1 Z.45 F720
G1 X81.344 Y78.837 F9000
G1 Z.25 F720
G1 E3.2 F2400
M204 P800
G1 F1200
G1 X81.197 Y78.492 E.01642
G1 X80.622 Y77.67 E.04393
G1 X79.888 Y76.986 E.04393
G1 X79.146 Y76.54 E.03791
G1 X83.047 Y76.247 E.1713
G1 X82.456 Y76.761 E.0343
G1 X81.852 Y77.563 E.04396
G1 X81.428 Y78.472 E.04392
G1 X81.357 Y78.779 E.0138
M204 P1000
G1 E-2.24 F4200
;WIPE_START
G1 F7200
G1 X81.197 Y78.492 E-.18209
G1 X80.622 Y77.67 E-.55591
G1 X80.329 Y77.397 E-.222
;WIPE_END
G1 Z.45 F720
G1 X72.378 Y79.622 F9000
G1 Z.25 F720
G1 E3.2 F2400
M204 P800
G1 F1200
G1 X72.231 Y79.276 E.01646
G1 X71.656 Y78.455 E.04389
G1 X70.922 Y77.77 E.04396
G1 X70.062 Y77.254 E.04392
G1 X69.985 Y77.227 E.00357
G1 X74.222 Y76.909 E.18606
G1 X73.49 Y77.546 E.04249
G1 X72.886 Y78.347 E.04393
G1 X72.462 Y79.256 E.04392
G1 X72.391 Y79.563 E.0138
M204 P1000
G1 E-2.24 F4200
;WIPE_START
G1 F7200
G1 X72.231 Y79.276 E-.18209
G1 X71.656 Y78.455 E-.55546
G1 X71.363 Y78.181 E-.22245
;WIPE_END
G1 Z.45 F720
G1 X63.412 Y80.406 F9000
G1 Z.25 F720
G1 E3.2 F2400
M204 P800
G1 F1200
G1 X63.266 Y80.061 E.0164
G1 X62.69 Y79.239 E.04395
G1 X61.957 Y78.555 E.0439
G1 X61.097 Y78.038 E.04394
G1 X60.753 Y77.92 E.01593
G1 X65.473 Y77.566 E.20727
G1 X65.281 Y77.672 E.0096
G1 X64.524 Y78.33 E.04392
G1 X63.921 Y79.131 E.0439
G1 X63.497 Y80.041 E.04396
G1 X63.426 Y80.348 E.0138
M204 P1000
G1 E-2.24 F4200
;WIPE_START
G1 F7200
G1 X63.266 Y80.061 E-.18209
G1 X62.69 Y79.239 E-.55623
G1 X62.398 Y78.966 E-.22168
;WIPE_END
G1 Z.45 F720
G1 X55.122 Y79.695 F9000
G1 Z.25 F720
G1 E3.2 F2400
M204 P800
G1 F1200
G1 X55.122 Y78.342 E.05925
G1 X56.741 Y78.221 E.07109
G1 X56.316 Y78.456 E.02127
G1 X55.559 Y79.115 E.04395
G1 X55.158 Y79.647 E.02917
M204 P1000
G1 E-2.24 F4200
;WIPE_START
G1 F7200
G1 X55.122 Y78.342 E-.72346
G1 X55.548 Y78.31 E-.23654
;WIPE_END
G1 Z.45 F720
G1 X63.898 Y84.311 F9000
G1 Z.25 F720
G1 E3.2 F2400
M204 P800
G1 F1200
G1 X63.612 Y84.333 E.01256
G1 X63.477 Y81.973 E.10351
G1 X63.305 Y81.092 E.03931
G1 X62.943 Y80.239 E.04058
G1 X62.412 Y79.481 E.04053
G1 X61.735 Y78.849 E.04056
G1 X60.941 Y78.372 E.04056
G1 X60.065 Y78.07 E.04057
G1 X59.146 Y77.958 E.04054
G1 X58.223 Y78.038 E.04057
G1 X57.337 Y78.309 E.04057
G1 X56.527 Y78.758 E.04055
G1 X55.828 Y79.366 E.04057
G1 X55.271 Y80.106 E.04056
G1 X54.879 Y80.945 E.04055
G1 X54.755 Y81.481 E.02409
G1 X54.755 Y78.085 E.14871
G1 X54.956 Y77.987 E.00979
G1 X84.95 Y75.737 E1.31711
G1 X84.234 Y75.956 E.03279
G1 X83.424 Y76.405 E.04055
G1 X82.725 Y77.013 E.04057
G1 X82.168 Y77.752 E.04052
G1 X81.776 Y78.592 E.04059
G1 X81.568 Y79.494 E.04053
G1 X81.552 Y80.391 E.03929
G1 X81.855 Y82.964 E.11345
G1 X81.556 Y82.987 E.01313
G1 X81.408 Y80.404 E.11329
G1 X81.237 Y79.523 E.0393
G1 X80.875 Y78.671 E.04054
G1 X80.344 Y77.912 E.04056
G1 X79.666 Y77.28 E.04059
G1 X78.872 Y76.803 E.04056
G1 X77.996 Y76.502 E.04056
G1 X77.077 Y76.389 E.04055
G1 X76.154 Y76.469 E.04057
G1 X75.269 Y76.74 E.04053
G1 X74.459 Y77.189 E.04055
G1 X73.759 Y77.797 E.0406
G1 X73.202 Y78.537 E.04056
G1 X72.811 Y79.376 E.04053
G1 X72.602 Y80.279 E.04059
G1 X72.587 Y81.176 E.03928
G1 X72.877 Y83.638 E.10855
G1 X72.584 Y83.66 E.01287
G1 X72.442 Y81.188 E.10843
G1 X72.271 Y80.308 E.03926
G1 X71.909 Y79.455 E.04058
G1 X71.378 Y78.696 E.04056
G1 X70.7 Y78.065 E.04056
G1 X69.907 Y77.588 E.04052
G1 X69.031 Y77.286 E.04057
G1 X68.111 Y77.173 E.04059
G1 X67.189 Y77.254 E.04053
G1 X66.303 Y77.525 E.04057
G1 X65.493 Y77.974 E.04055
G1 X64.794 Y78.581 E.04054
G1 X64.236 Y79.321 E.04058
G1 X63.845 Y80.161 E.04057
G1 X63.636 Y81.063 E.04054
G1 X63.621 Y81.96 E.03928
G1 X63.891 Y84.252 E.10106
M204 P1000
G1 E-2.24 F4200
;WIPE_START
G1 F7200
G1 X63.612 Y84.333 E-.161
G1 X63.53 Y82.894 E-.799
;WIPE_END
G1 Z.45 F720
G1 X54.901 Y84.986 F9000
G1 Z.25 F720
G1 E3.2 F2400
M204 P800
G1 F1200
G1 X54.755 Y84.915 E.00711
G1 X54.755 Y83.595 E.0578
G1 X54.914 Y84.943 E.05944
M204 P1000
G1 E-2.24 F4200
;WIPE_START
G1 F7200
G1 X54.755 Y84.915 E-.08947
G1 X54.755 Y83.595 E-.7315
G1 X54.784 Y83.844 E-.13903
;WIPE_END
G1 Z.45 F720
G1 X94.54 Y105.46 F9000
G1 Z.25 F720
G1 E3.2 F2400
M204 P800
;TYPE:External perimeter
G1 F1200
G1 X125.501 Y105.46 E1.35576
G1 X125.686 Y105.506 E.00835
G1 X125.512 Y105.664 E.01029
G1 X125.202 Y105.816 E.01512
G1 X95.421 Y105.816 E1.30409
G1 X94.492 Y105.799 E.04069
G1 X94.184 Y105.199 E.02953
G1 X94.184 Y100.666 E.1985
G1 X93.558 Y100.525 E.0281
G1 X93.088 Y100.5 E.02061
G1 X91.75 Y100.591 E.05873
G1 X91.578 Y97.597 E.13132
G1 X91.419 Y96.778 E.03653
G1 X91.087 Y95.996 E.0372
G1 X90.6 Y95.301 E.03716
G1 X89.979 Y94.721 E.03721
G1 X89.251 Y94.284 E.03718
G1 X88.448 Y94.008 E.03718
G1 X87.605 Y93.904 E.03719
G1 X86.759 Y93.978 E.03719
G1 X85.947 Y94.226 E.03718
G1 X85.204 Y94.638 E.0372
G1 X84.563 Y95.195 E.03719
G1 X84.052 Y95.874 E.03721
G1 X83.694 Y96.643 E.03714
G1 X83.502 Y97.471 E.03722
G1 X83.488 Y98.304 E.03648
G1 X83.827 Y101.184 E.12698
G1 X82.778 Y101.263 E.04606
G1 X82.613 Y98.381 E.12641
G1 X82.453 Y97.562 E.03654
G1 X82.122 Y96.781 E.03714
G1 X81.634 Y96.085 E.03722
G1 X81.013 Y95.506 E.03718
G1 X80.285 Y95.068 E.0372
G1 X79.482 Y94.792 E.03718
G1 X78.64 Y94.689 E.03715
G1 X77.794 Y94.763 E.03719
G1 X76.981 Y95.011 E.03722
G1 X76.239 Y95.423 E.03716
G1 X75.598 Y95.98 E.03719
G1 X75.087 Y96.658 E.03718
G1 X74.728 Y97.428 E.0372
G1 X74.537 Y98.255 E.03717
G1 X74.522 Y99.089 E.03653
G1 X74.848 Y101.857 E.12205
G1 X73.806 Y101.935 E.04576
G1 X73.647 Y99.165 E.1215
G1 X73.488 Y98.347 E.03649
G1 X73.156 Y97.565 E.0372
G1 X72.669 Y96.869 E.0372
G1 X72.048 Y96.29 E.03718
G1 X71.32 Y95.853 E.03718
G1 X70.517 Y95.576 E.0372
G1 X69.674 Y95.473 E.03719
G1 X68.828 Y95.547 E.03719
G1 X68.016 Y95.795 E.03718
G1 X67.273 Y96.207 E.0372
G1 X66.632 Y96.764 E.03719
G1 X66.121 Y97.442 E.03718
G1 X65.762 Y98.212 E.0372
G1 X65.571 Y99.039 E.03717
G1 X65.556 Y99.873 E.03653
G1 X65.869 Y102.531 E.1172
M73 P1 R99
G1 X64.833 Y102.608 E.04549
G1 X64.681 Y99.95 E.11658
G1 X64.522 Y99.131 E.03653
G1 X64.19 Y98.35 E.03716
G1 X63.703 Y97.654 E.0372
G1 X63.082 Y97.075 E.03718
G1 X62.354 Y96.637 E.0372
G1 X61.551 Y96.361 E.03718
G1 X60.708 Y96.257 E.03719
G1 X59.862 Y96.331 E.03719
G1 X59.05 Y96.58 E.03719
G1 X58.307 Y96.991 E.03718
G1 X57.666 Y97.548 E.03719
G1 X57.155 Y98.227 E.03721
G1 X56.796 Y98.996 E.03716
G1 X56.605 Y99.824 E.03721
G1 X56.591 Y100.658 E.03653
G1 X56.891 Y103.204 E.11226
G1 X54.83 Y103.359 E.0905
G1 X54.389 Y103.144 E.02148
G1 X54.389 Y95.856 E.31914
G1 X54.859 Y95.627 E.02289
G1 X92.517 Y92.802 E1.65365
G1 X93.025 Y92.754 E.02234
G1 X93.542 Y92.656 E.02304
G1 X94.184 Y92.431 E.02979
G1 X94.184 Y82.663 E.42773
G1 X93.526 Y82.526 E.02943
G1 X93.029 Y82.505 E.02178
G1 X90.184 Y82.708 E.1249
G1 X90.009 Y79.665 E.13347
G1 X89.85 Y78.847 E.03649
G1 X89.519 Y78.065 E.03718
G1 X89.031 Y77.369 E.03722
G1 X88.41 Y76.79 E.03718
G1 X87.682 Y76.353 E.03718
G1 X86.879 Y76.076 E.0372
G1 X86.037 Y75.973 E.03715
