; generated by PrusaSlicer 2.5.0+linux-x64-GTK3 on 2023-03-09 at 12:27:03 UTC

; 
;

; 
;

; 
;

; 

; external perimeters extrusion width = 0.45mm
; perimeters extrusion width = 0.45mm
; infill extrusion width = 0.45mm
; solid infill extrusion width = 0.45mm
; top infill extrusion width = 0.40mm
; first layer extrusion width = 0.42mm

M73 P0 R14
M201 X2500 Y2500 Z400 E5000 ; sets maximum accelerations, mm/sec^2
M203 X180 Y180 Z12 E80 ; sets maximum feedrates, mm / sec
M204 P1250 R1250 T2500 ; sets acceleration (P, T) and retract acceleration (R), mm/sec^2
M205 X8.00 Y8.00 Z2.00 E10.00 ; sets the jerk limits, mm/sec
M205 S0 T0 ; sets the minimum extruding and travel feed rate, mm/sec
M107
;TYPE:Custom
M862.3 P "MINI" ; printer model check
G90 ; use absolute coordinates
M83 ; extruder relative mode
M104 S170 ; set extruder temp for bed leveling
M140 S60 ; set bed temp
M109 R170 ; wait for bed leveling temp
M190 S60 ; wait for bed temp
M204 T1250 ; set travel acceleration
G28 ; home all without mesh bed level
G29 ; mesh bed leveling 
M204 T2500 ; restore travel acceleration
M104 S215 ; set extruder temp
G92 E0
G1 Y-2 X179 F2400
G1 Z3 F720
M109 S215 ; wait for extruder temp

; intro line
G1 X170 F1000
G1 Z0.2 F720
G1 X110 E8 F900
G1 X40 E10 F700
G92 E0

M221 S95 ; set flow
G21 ; set units to millimeters
G90 ; use absolute coordinates
M83 ; use relative distances for extrusion
M900 K0.05 ; Filament gcode LA 1.5
M900 K30 ; Filament gcode LA 1.0
M107
;LAYER_CHANGE
;Z:0.2
;HEIGHT:0.2
;BEFORE_LAYER_CHANGE
G92 E0.0
;0.2


M73 P1 R14
G1 E-3.2 F4200
G1 Z.2 F720
;AFTER_LAYER_CHANGE
;0.2
G1 Z.4
G1 X68.91 Y81.569 F9000
G1 Z.2 F720
G1 E3.2 F2400
M204 P800
;TYPE:Skirt/Brim
;WIDTH:0.42
G1 F1200
G1 X70.205 Y81.246 E.04102
G1 X109.795 Y81.246 E1.2165
G1 X111.213 Y81.639 E.04519
M73 P2 R14
G1 X112.226 Y82.705 E.04519
G1 X112.549 Y84 E.04102
G1 X112.549 Y96 E.36873
G1 X112.157 Y97.417 E.04519
G1 X111.09 Y98.431 E.04519
G1 X109.795 Y98.754 E.04102
G1 X70.205 Y98.754 E1.2165
G1 X68.787 Y98.361 E.04519
G1 X67.774 Y97.295 E.04519
G1 X67.451 Y96 E.04102
G1 X67.451 Y84 E.36873
G1 X67.843 Y82.583 E.04519
G1 X68.866 Y81.611 E.04335
M204 P1000
G1 X69.132 Y81.928 F9000
M204 P800
G1 F1200
G1 X69.265 Y81.817 E.00533
G1 X70.205 Y81.623 E.02948
G1 X109.795 Y81.623 E1.2165
G1 X111.102 Y82.015 E.04193
G1 X111.979 Y83.06 E.04193
G1 X112.172 Y84 E.02948
G1 X112.172 Y96 E.36873
G1 X111.781 Y97.307 E.04193
G1 X110.735 Y98.183 E.04193
G1 X109.795 Y98.377 E.02948
G1 X70.205 Y98.377 E1.2165
G1 X68.898 Y97.985 E.04193
M73 P3 R14
G1 X68.021 Y96.94 E.04193
G1 X67.828 Y96 E.02948
G1 X67.828 Y84 E.36873
G1 X68.219 Y82.693 E.04193
G1 X69.086 Y81.967 E.03475
M204 P1000
; printing object  id:0 copy 0
G1 E-2.24 F4200
;WIPE_START
G1 F7200
G1 X69.265 Y81.817 E-.12943
G1 X70.205 Y81.623 E-.53172
G1 X70.658 Y81.623 E-.25085
;WIPE_END
G1 E-.048 F4200
G1 Z.4 F720
G1 X71.369 Y85.164 F9000
G1 Z.2 F720
G1 E3.2 F2400
M204 P800
;TYPE:Perimeter
;WIDTH:0.419999
G1 F1200
G1 X108.631 Y85.164 E1.14495
G1 X108.631 Y88.6 E.10557
M73 P3 R13
G1 X107.389 Y86.449 E.0763
G1 X107.319 Y86.344 E.00388
G1 X107.01 Y86.085 E.0124
G1 X106.573 Y85.978 E.01382
G1 X103.017 Y85.978 E.10926
G1 X102.854 Y85.992 E.00502
G1 X102.515 Y86.123 E.01118
G1 X102.201 Y86.449 E.01392
G1 X100.423 Y89.529 E.10926
G1 X100.308 Y89.858 E.01072
G1 X100.308 Y90.142 E.00873
G1 X100.423 Y90.471 E.01072
G1 X102.201 Y93.551 E.10926
G1 X102.515 Y93.877 E.01392
G1 X103.017 Y94.022 E.01607
G1 X106.573 Y94.022 E.10926
G1 X106.736 Y94.008 E.00502
G1 X107.01 Y93.915 E.00888
G1 X107.319 Y93.656 E.0124
G1 X107.389 Y93.551 E.00388
G1 X108.631 Y91.4 E.0763
G1 X108.631 Y94.836 E.10557
G1 X71.369 Y94.836 E1.14495
G1 X71.369 Y91.4 E.10557
G1 X72.611 Y93.551 E.0763
G1 X72.681 Y93.656 E.00388
G1 X72.99 Y93.915 E.0124
G1 X73.427 Y94.022 E.01382
G1 X76.983 Y94.022 E.10926
G1 X77.146 Y94.008 E.00502
G1 X77.485 Y93.877 E.01118
G1 X77.799 Y93.551 E.01392
G1 X79.577 Y90.471 E.10926
G1 X79.692 Y90.142 E.01072
M73 P4 R13
G1 X79.692 Y89.858 E.00873
G1 X79.577 Y89.529 E.01072
G1 X77.799 Y86.449 E.10926
G1 X77.485 Y86.123 E.01392
G1 X76.983 Y85.978 E.01607
G1 X73.427 Y85.978 E.10926
G1 X73.264 Y85.992 E.00502
G1 X72.99 Y86.085 E.00888
G1 X72.681 Y86.344 E.0124
G1 X72.611 Y86.449 E.00388
G1 X71.369 Y88.6 E.0763
G1 X71.369 Y85.224 E.10372
M204 P1000
G1 X70.992 Y84.787 F9000
M204 P800
G1 F1200
G1 X109.008 Y84.787 E1.16813
G1 X109.008 Y86.117 E.04085
;WIDTH:0.435892
G1 X109 Y89.672 E.11386
;WIDTH:0.473736
G1 X108.981 Y89.836 E.00579
;WIDTH:0.51158
G1 X108.962 Y90 E.0063
G1 X108.905 Y89.857 E.0059
;WIDTH:0.473736
G1 X108.848 Y89.713 E.00542
;WIDTH:0.435892
G1 X107.063 Y86.638 E.11386
;WIDTH:0.419999
G1 X106.835 Y86.419 E.0097
G1 X106.573 Y86.355 E.00829
G1 X103.017 Y86.355 E.10926
G1 X102.716 Y86.442 E.00964
G1 X102.527 Y86.638 E.00835
G1 X100.75 Y89.717 E.10926
G1 X100.674 Y90 E.009
G1 X100.75 Y90.283 E.009
G1 X102.527 Y93.362 E.10926
G1 X102.716 Y93.558 E.00835
G1 X103.017 Y93.645 E.00964
G1 X106.573 Y93.645 E.10926
G1 X106.835 Y93.581 E.00829
G1 X107.063 Y93.362 E.0097
;WIDTH:0.464201
G1 X108.86 Y90.294 E.12207
;WIDTH:0.492523
G1 X108.909 Y90.2 E.00387
;WIDTH:0.520844
G1 X108.958 Y90.106 E.00412
G1 X108.972 Y90.217 E.00434
;WIDTH:0.492523
G1 X108.986 Y90.328 E.00409
;WIDTH:0.464201
G1 X109.008 Y93.883 E.12207
;WIDTH:0.419999
G1 X109.008 Y95.213 E.04085
G1 X70.992 Y95.213 E1.16813
G1 X70.992 Y93.883 E.04085
;WIDTH:0.464203
G1 X71.014 Y90.328 E.12207
;WIDTH:0.492526
G1 X71.028 Y90.217 E.00409
;WIDTH:0.520848
G1 X71.042 Y90.106 E.00434
G1 X71.091 Y90.2 E.00412
;WIDTH:0.492526
G1 X71.14 Y90.294 E.00387
;WIDTH:0.464203
G1 X72.937 Y93.362 E.12207
;WIDTH:0.419999
G1 X73.165 Y93.581 E.0097
G1 X73.427 Y93.645 E.00829
G1 X76.983 Y93.645 E.10926
G1 X77.284 Y93.558 E.00964
G1 X77.473 Y93.362 E.00835
G1 X79.25 Y90.283 E.10926
G1 X79.326 Y90 E.009
G1 X79.25 Y89.717 E.009
G1 X77.473 Y86.638 E.10926
G1 X77.284 Y86.442 E.00835
G1 X76.983 Y86.355 E.00964
G1 X73.427 Y86.355 E.10926
G1 X73.165 Y86.419 E.00829
G1 X72.937 Y86.638 E.0097
;WIDTH:0.435893
G1 X71.152 Y89.713 E.11386
;WIDTH:0.473738
G1 X71.095 Y89.857 E.00542
;WIDTH:0.511582
G1 X71.038 Y90 E.0059
G1 X71.019 Y89.836 E.0063
;WIDTH:0.473738
G1 X71 Y89.672 E.00579
;WIDTH:0.435893
G1 X70.992 Y86.117 E.11386
;WIDTH:0.419999
G1 X70.992 Y85.897 E.00676
G1 X70.992 Y84.847 E.03225
M204 P1000
G1 X70.615 Y84.41 F9000
M204 P800
;TYPE:External perimeter
G1 F1200
G1 X109.385 Y84.41 E1.1913
G1 X109.385 Y95.59 E.34353
M73 P5 R13
G1 X70.615 Y95.59 E1.1913
G1 X70.615 Y84.47 E.34169
M204 P1000
G1 X71.013 Y84.447 F9000
G1 E-2.24 F4200
;WIPE_START
G1 F7200
G1 X72.261 Y84.467 E-.912
;WIPE_END
G1 E-.048 F4200
G1 Z.4 F720
G1 X77.146 Y93.174 F9000
G1 Z.2 F720
G1 E3.2 F2400
M204 P800
G1 F1200
G1 X77.015 Y93.265 E.0049
G1 X76.983 Y93.268 E.001
G1 X73.427 Y93.268 E.10926
G1 X73.264 Y93.174 E.00579
G1 X71.486 Y90.094 E.10926
G1 X71.461 Y90 E.003
G1 X71.486 Y89.906 E.003
G1 X73.264 Y86.826 E.10926
G1 X73.394 Y86.735 E.0049
G1 X76.983 Y86.732 E.11026
G1 X77.083 Y86.761 E.00321
G1 X77.146 Y86.826 E.00278
G1 X78.924 Y89.906 E.10926
G1 X78.939 Y90.06 E.00477
G1 X77.176 Y93.122 E.10855
M204 P1000
G1 X77.184 Y93.329 F9000
G1 E-2.24 F4200
;WIPE_START
G1 F7200
G1 X77.015 Y93.265 E-.11936
G1 X76.983 Y93.268 E-.01812
G1 X75.585 Y93.268 E-.77452
;WIPE_END
G1 E-.048 F4200
G1 Z.4 F720
G1 X106.573 Y86.732 F9000
G1 Z.2 F720
G1 E3.2 F2400
M204 P800
G1 F1200
G1 X106.736 Y86.826 E.00579
G1 X108.514 Y89.906 E.10926
G1 X108.537 Y90.033 E.00396
G1 X108.514 Y90.094 E.00202
G1 X106.736 Y93.174 E.10926
G1 X106.606 Y93.265 E.0049
G1 X103.017 Y93.268 E.11026
G1 X102.917 Y93.239 E.00321
G1 X102.854 Y93.174 E.00278
G1 X101.076 Y90.094 E.10926
G1 X101.061 Y89.94 E.00477
G1 X101.076 Y89.906 E.00115
G1 X102.854 Y86.826 E.10926
G1 X102.985 Y86.735 E.0049
G1 X106.513 Y86.732 E.10841
M204 P1000
G1 X106.716 Y86.61 F9000
G1 E-2.24 F4200
;WIPE_START
G1 F7200
G1 X106.736 Y86.826 E-.13431
G1 X107.438 Y88.042 E-.77769
;WIPE_END
G1 E-.048 F4200
G1 Z.4 F720
G1 X108.518 Y86.042 F9000
G1 Z.2 F720
G1 E3.2 F2400
M204 P800
;TYPE:Solid infill
;WIDTH:0.421315
G1 F1200
G1 X107.922 Y85.447 E.02596
G1 X107.387 Y85.447 E.0165
G1 X108.348 Y86.408 E.0419
G1 X108.348 Y86.943 E.0165
G1 X106.852 Y85.447 E.06523
G1 X106.317 Y85.447 E.0165
G1 X106.565 Y85.695 E.01082
G1 X107.141 Y85.832 E.01823
G1 X107.541 Y86.167 E.01611
M73 P6 R13
G1 X108.25 Y87.38 E.04329
G1 X108.498 Y87.628 E.01083
M204 P1000
G1 E-2.24 F4200
;WIPE_START
G1 F7200
G1 X108.25 Y87.38 E-.19468
G1 X107.597 Y86.262 E-.71732
;WIPE_END
G1 E-.048 F4200
G1 Z.4 F720
G1 X106.2 Y85.865 F9000
G1 Z.2 F720
G1 E3.2 F2400
M204 P800
G1 F1200
G1 X105.782 Y85.447 E.01822
G1 X105.247 Y85.447 E.0165
G1 X105.495 Y85.695 E.01082
G1 X104.96 Y85.695 E.0165
G1 X104.712 Y85.447 E.01082
G1 X104.177 Y85.447 E.0165
G1 X104.425 Y85.695 E.01082
G1 X103.89 Y85.695 E.0165
G1 X103.641 Y85.447 E.01082
G1 X103.106 Y85.447 E.0165
G1 X103.354 Y85.695 E.01082
G1 X102.835 Y85.711 E.01603
G1 X102.571 Y85.447 E.0115
G1 X102.036 Y85.447 E.0165
G1 X102.441 Y85.852 E.01767
G1 X102.361 Y85.883 E.00265
G1 X102.153 Y86.099 E.00925
G1 X101.501 Y85.447 E.02844
G1 X100.966 Y85.447 E.0165
G1 X101.909 Y86.39 E.04112
G1 X101.713 Y86.729 E.01208
G1 X100.431 Y85.447 E.05591
G1 X99.895 Y85.447 E.0165
G1 X101.517 Y87.068 E.0707
G1 X101.321 Y87.408 E.01208
G1 X99.36 Y85.447 E.0855
G1 X98.825 Y85.447 E.0165
G1 X101.125 Y87.747 E.10029
G1 X100.929 Y88.086 E.01208
G1 X98.29 Y85.447 E.11509
G1 X97.755 Y85.447 E.0165
G1 X100.733 Y88.425 E.12988
G1 X100.538 Y88.765 E.01208
G1 X97.22 Y85.447 E.14468
G1 X96.685 Y85.447 E.0165
G1 X100.342 Y89.104 E.15947
G1 X100.15 Y89.448 E.01213
G1 X96.15 Y85.447 E.17446
G1 X95.614 Y85.447 E.0165
G1 X100.025 Y89.857 E.19231
G1 X100.028 Y90.185 E.01012
G1 X100.078 Y90.392 E.00656
G1 X100.122 Y90.49 E.0033
G1 X95.079 Y85.447 E.2199
G1 X94.544 Y85.447 E.0165
G1 X101.281 Y92.184 E.29378
M204 P1000
G1 E-2.24 F4200
;WIPE_START
G1 F7200
G1 X100.118 Y91.02 E-.912
;WIPE_END
G1 E-.048 F4200
G1 Z.4 F720
G1 X108.085 Y92.566 F9000
G1 Z.2 F720
G1 E3.2 F2400
M204 P800
G1 F1200
G1 X108.348 Y92.829 E.01148
G1 X108.348 Y93.364 E.0165
G1 X108.012 Y93.028 E.01468
G1 X107.814 Y93.366 E.01206
G1 X108.348 Y93.9 E.02328
G1 X108.348 Y94.435 E.0165
G1 X107.617 Y93.703 E.03189
G1 X107.541 Y93.833 E.00462
G1 X107.362 Y93.983 E.00723
G1 X107.931 Y94.553 E.02485
G1 X107.396 Y94.553 E.0165
G1 X107.043 Y94.2 E.0154
G1 X106.788 Y94.286 E.0083
G1 X106.61 Y94.302 E.00551
G1 X106.861 Y94.553 E.01095
G1 X106.326 Y94.553 E.0165
G1 X106.078 Y94.305 E.01082
G1 X105.543 Y94.305 E.0165
G1 X105.791 Y94.553 E.01082
G1 X105.256 Y94.553 E.0165
G1 X105.007 Y94.305 E.01082
G1 X104.472 Y94.305 E.0165
G1 X104.721 Y94.553 E.01082
G1 X104.185 Y94.553 E.0165
G1 X103.937 Y94.305 E.01082
G1 X103.402 Y94.305 E.0165
G1 X103.65 Y94.553 E.01082
G1 X103.115 Y94.553 E.0165
G1 X102.811 Y94.249 E.01325
G1 X102.364 Y94.12 E.01436
G1 X101.962 Y93.702 E.01789
G1 X101.549 Y92.986 E.02548
G1 X94.009 Y85.447 E.32877
G1 X93.474 Y85.447 E.0165
G1 X102.58 Y94.553 E.39708
G1 X102.045 Y94.553 E.0165
G1 X92.939 Y85.447 E.39708
G1 X92.404 Y85.447 E.0165
G1 X101.51 Y94.553 E.39708
G1 X100.975 Y94.553 E.0165
G1 X91.869 Y85.447 E.39708
G1 X91.333 Y85.447 E.0165
M73 P7 R13
G1 X100.439 Y94.553 E.39708
G1 X99.904 Y94.553 E.0165
G1 X90.798 Y85.447 E.39708
G1 X90.263 Y85.447 E.0165
G1 X99.369 Y94.553 E.39708
G1 X98.834 Y94.553 E.0165
G1 X89.728 Y85.447 E.39708
G1 X89.193 Y85.447 E.0165
G1 X98.299 Y94.553 E.39708
G1 X97.764 Y94.553 E.0165
G1 X88.658 Y85.447 E.39708
G1 X88.123 Y85.447 E.0165
G1 X97.229 Y94.553 E.39708
G1 X96.694 Y94.553 E.0165
G1 X87.587 Y85.447 E.39708
G1 X87.052 Y85.447 E.0165
G1 X96.158 Y94.553 E.39708
G1 X95.623 Y94.553 E.0165
G1 X86.517 Y85.447 E.39708
G1 X85.982 Y85.447 E.0165
G1 X95.088 Y94.553 E.39708
G1 X94.553 Y94.553 E.0165
G1 X85.447 Y85.447 E.39708
G1 X84.912 Y85.447 E.0165
G1 X94.018 Y94.553 E.39708
G1 X93.483 Y94.553 E.0165
M73 P8 R13
G1 X84.377 Y85.447 E.39708
G1 X83.842 Y85.447 E.0165
G1 X92.948 Y94.553 E.39708
G1 X92.413 Y94.553 E.0165
G1 X83.306 Y85.447 E.39708
G1 X82.771 Y85.447 E.0165
G1 X91.877 Y94.553 E.39708
G1 X91.342 Y94.553 E.0165
G1 X82.236 Y85.447 E.39708
G1 X81.701 Y85.447 E.0165
G1 X90.807 Y94.553 E.39708
G1 X90.272 Y94.553 E.0165
G1 X81.166 Y85.447 E.39708
G1 X80.631 Y85.447 E.0165
G1 X89.737 Y94.553 E.39708
G1 X89.202 Y94.553 E.0165
G1 X80.096 Y85.447 E.39708
G1 X79.56 Y85.447 E.0165
G1 X88.667 Y94.553 E.39708
G1 X88.131 Y94.553 E.0165
G1 X79.025 Y85.447 E.39708
G1 X78.49 Y85.447 E.0165
G1 X87.596 Y94.553 E.39708
G1 X87.061 Y94.553 E.0165
M73 P9 R13
G1 X77.955 Y85.447 E.39708
G1 X77.42 Y85.447 E.0165
G1 X86.526 Y94.553 E.39708
G1 X85.991 Y94.553 E.0165
G1 X78.451 Y87.014 E.32877
G1 X78.038 Y86.298 E.02548
G1 X77.636 Y85.88 E.01789
G1 X77.189 Y85.751 E.01436
G1 X76.715 Y85.277 E.02065
M204 P1000
G1 X76.768 Y85.865 F9000
M204 P800
G1 F1200
G1 X76.35 Y85.447 E.01822
G1 X75.815 Y85.447 E.0165
G1 X76.063 Y85.695 E.01082
G1 X75.528 Y85.695 E.0165
G1 X75.279 Y85.447 E.01082
G1 X74.744 Y85.447 E.0165
G1 X74.993 Y85.695 E.01082
G1 X74.457 Y85.695 E.0165
G1 X74.209 Y85.447 E.01082
G1 X73.674 Y85.447 E.0165
G1 X73.922 Y85.695 E.01082
G1 X73.39 Y85.698 E.01641
G1 X73.139 Y85.447 E.01095
G1 X72.604 Y85.447 E.0165
G1 X72.957 Y85.8 E.0154
G1 X72.856 Y85.835 E.00329
G1 X72.638 Y86.017 E.00875
G1 X72.069 Y85.447 E.02485
G1 X71.652 Y85.447 E.01285
G1 X71.652 Y85.565 E.00365
G1 X72.383 Y86.297 E.03189
G1 X72.186 Y86.634 E.01206
G1 X71.652 Y86.1 E.02328
G1 X71.652 Y86.636 E.0165
G1 X71.988 Y86.972 E.01468
G1 X71.791 Y87.31 E.01206
G1 X71.482 Y87.001 E.01347
M204 P1000
G1 E-2.24 F4200
;WIPE_START
G1 F7200
G1 X71.791 Y87.31 E-.24207
G1 X71.988 Y86.972 E-.21679
G1 X71.652 Y86.636 E-.26377
G1 X71.652 Y86.294 E-.18937
;WIPE_END
G1 E-.048 F4200
G1 Z.4 F720
G1 X78.719 Y87.816 F9000
G1 Z.2 F720
G1 E3.2 F2400
M204 P800
G1 F1200
G1 X85.456 Y94.553 E.29377
G1 X84.921 Y94.553 E.0165
G1 X79.878 Y89.51 E.2199
G1 X79.922 Y89.608 E.0033
G1 X79.972 Y89.815 E.00656
G1 X79.975 Y90.143 E.01012
G1 X84.386 Y94.553 E.19231
G1 X83.85 Y94.553 E.0165
G1 X79.85 Y90.552 E.17446
G1 X79.658 Y90.896 E.01213
G1 X83.315 Y94.553 E.15947
G1 X82.78 Y94.553 E.0165
G1 X79.462 Y91.235 E.14467
G1 X79.267 Y91.575 E.01208
G1 X82.245 Y94.553 E.12988
G1 X81.71 Y94.553 E.0165
G1 X79.071 Y91.914 E.11509
G1 X78.875 Y92.253 E.01208
G1 X81.175 Y94.553 E.10029
G1 X80.64 Y94.553 E.0165
G1 X78.679 Y92.592 E.0855
G1 X78.483 Y92.932 E.01208
G1 X80.104 Y94.553 E.0707
G1 X79.569 Y94.553 E.0165
G1 X78.287 Y93.271 E.05591
G1 X78.091 Y93.61 E.01208
G1 X79.034 Y94.553 E.04111
G1 X78.499 Y94.553 E.0165
G1 X77.847 Y93.901 E.02844
G1 X77.639 Y94.117 E.00924
G1 X77.559 Y94.148 E.00265
G1 X77.964 Y94.553 E.01767
G1 X77.429 Y94.553 E.0165
G1 X77.165 Y94.289 E.0115
G1 X76.645 Y94.305 E.01603
G1 X76.894 Y94.553 E.01082
G1 X76.359 Y94.553 E.0165
G1 X76.11 Y94.305 E.01082
G1 X75.575 Y94.305 E.0165
G1 X75.823 Y94.553 E.01082
G1 X75.288 Y94.553 E.0165
G1 X75.04 Y94.305 E.01082
G1 X74.505 Y94.305 E.0165
G1 X74.753 Y94.553 E.01082
G1 X74.218 Y94.553 E.0165
G1 X73.8 Y94.135 E.01822
M204 P1000
G1 E-2.24 F4200
;WIPE_START
G1 F7200
G1 X74.218 Y94.553 E-.32751
G1 X74.753 Y94.553 E-.29655
G1 X74.505 Y94.305 E-.19452
G1 X74.674 Y94.305 E-.09342
;WIPE_END
G1 E-.048 F4200
G1 Z.4 F720
G1 X71.502 Y92.372 F9000
G1 Z.2 F720
G1 E3.2 F2400
M204 P800
G1 F1200
G1 X71.75 Y92.62 E.01083
G1 X72.459 Y93.833 E.04329
G1 X72.859 Y94.168 E.01611
G1 X73.435 Y94.305 E.01823
G1 X73.683 Y94.553 E.01082
G1 X73.148 Y94.553 E.0165
G1 X71.652 Y93.057 E.06523
G1 X71.652 Y93.592 E.0165
G1 X72.613 Y94.553 E.0419
G1 X72.078 Y94.553 E.0165
G1 X71.482 Y93.958 E.02596
M204 P1000
; stop printing object  id:0 copy 0
M106 S84.15
;LAYER_CHANGE
;Z:0.4
;HEIGHT:0.2
;BEFORE_LAYER_CHANGE
G92 E0.0
;0.4


G1 E-2.24 F4200
;WIPE_START
G1 F7200
G1 X72.078 Y94.553 E-.46658
G1 X72.613 Y94.553 E-.29655
G1 X72.423 Y94.363 E-.14887
;WIPE_END
G1 E-.048 F4200
G1 Z.4 F720
;AFTER_LAYER_CHANGE
;0.4
M104 S213 ; set temperature
G1 Z.6
G1 X72.423 Y98.754 F9000
G1 Z.4 F720
G1 E3.2 F2400
;TYPE:Skirt/Brim
;WIDTH:0.42
