; generated by PrusaSlicer 2.6.0-alpha0 on 2023-02-28 at 19:38:31 UTC

; 
;

; 
;

; 
;

; 

; external perimeters extrusion width = 0.45mm
; perimeters extrusion width = 0.45mm
; infill extrusion width = 0.45mm
; solid infill extrusion width = 0.45mm
; top infill extrusion width = 0.40mm
; first layer extrusion width = 0.42mm

M73 P0 R140
M201 X2500 Y2500 Z400 E5000 ; sets maximum accelerations, mm/sec^2
M203 X180 Y180 Z12 E80 ; sets maximum feedrates, mm / sec
M204 P1250 R1250 T2500 ; sets acceleration (P, T) and retract acceleration (R), mm/sec^2
M205 X8.00 Y8.00 Z2.00 E10.00 ; sets the jerk limits, mm/sec
M205 S0 T0 ; sets the minimum extruding and travel feed rate, mm/sec
M107
;TYPE:Custom
M862.3 P "MINI" ; printer model check
G90 ; use absolute coordinates
M83 ; extruder relative mode
M104 S170 ; set extruder temp for bed leveling
M140 S60 ; set bed temp
M109 R170 ; wait for bed leveling temp
M190 S60 ; wait for bed temp
M204 T1250 ; set travel acceleration
G28 ; home all without mesh bed level
G29 ; mesh bed leveling 
M204 T2500 ; restore travel acceleration
M104 S215 ; set extruder temp
G92 E0
G1 Y-2 X179 F2400
G1 Z3 F720
M109 S215 ; wait for extruder temp

; intro line
G1 X170 F1000
G1 Z0.2 F720
G1 X110 E8 F900
G1 X40 E10 F700
G92 E0

M221 S95 ; set flow
G21 ; set units to millimeters
G90 ; use absolute coordinates
M83 ; use relative distances for extrusion
M900 K0.05 ; Filament gcode LA 1.5
M900 K30 ; Filament gcode LA 1.0
M107
;LAYER_CHANGE
;Z:0.25
;HEIGHT:0.25
;BEFORE_LAYER_CHANGE
G92 E0.0
;0.25


G1 E-3.2 F4200
G1 Z.2 F720
G1 Z.25
;AFTER_LAYER_CHANGE
;0.25
G1 Z.45
G1 X31.668 Y53.431 F9000
G1 Z.25 F720
G1 E3.2 F2400
M204 P800
;TYPE:Skirt/Brim
;WIDTH:0.42
G1 F1200
G1 X32.96 Y52.913 E.06095
G1 X44.607 Y50.981 E.51698
G1 X84.772 Y50.959 E1.7588
G1 X141.427 Y55.682 E2.48949
G1 X143.072 Y56.066 E.07397
G1 X144.321 Y56.679 E.06092
G1 X145.049 Y57.207 E.03938
G1 X146.018 Y58.206 E.06094
G1 X146.309 Y58.607 E.0217
G1 X146.959 Y59.837 E.06092
G1 X147.336 Y61.141 E.05944
G1 X151.775 Y98.141 E1.63182
G1 X151.873 Y99.564 E.06246
G1 X151.676 Y100.942 E.06096
G1 X151.197 Y102.249 E.06096
G1 X150.457 Y103.428 E.06095
G1 X149.488 Y104.427 E.06094
G1 X148.376 Y105.183 E.05888
G1 X107.072 Y124.568 E1.99796
G1 X91.568 Y128.916 E.7051
G1 X89.811 Y128.72 E.07741
M73 P0 R139
G1 X52.769 Y108.77 E1.84233
G1 X51.717 Y108.089 E.05488
G1 X50.999 Y107.37 E.04449
G1 X29.539 Y83.424 E1.40804
G1 X28.803 Y82.249 E.06071
G1 X28.602 Y81.797 E.02166
G1 X28.221 Y80.458 E.06096
G1 X28.114 Y79.317 E.05018
G1 X28.114 Y59.317 E.87578
G1 X28.324 Y57.692 E.07175
G1 X28.602 Y56.837 E.03937
G1 X29.252 Y55.607 E.06092
G1 X29.543 Y55.206 E.0217
G1 X30.512 Y54.207 E.06094
G1 X31.618 Y53.465 E.05832
M204 P1000
; printing object 0 id:0 copy 0
G1 E-2.24 F4200
;WIPE_START
G1 F7200
G1 X32.96 Y52.913 E-.80415
G1 X33.237 Y52.867 E-.15585
;WIPE_END
G1 Z.45 F720
G1 X79.193 Y85.46 F9000
G1 Z.25 F720
G1 E3.2 F2400
M204 P800
;TYPE:Perimeter
G1 F1200
G1 X80.34 Y89.1 E.16712
G1 X79.73 Y88.657 E.03301
G1 X79.033 Y88.347 E.0334
G1 X78.287 Y88.188 E.0334
G1 X66.524 Y88.188 E.51509
G1 X65.778 Y88.347 E.0334
G1 X65.081 Y88.657 E.0334
G1 X64.464 Y89.105 E.03339
G1 X63.98 Y89.643 E.03169
G1 X53.635 Y105.02 E.81155
G1 X53.546 Y104.866 E.00779
G1 X53.459 Y104.598 E.01234
G1 X53.429 Y104.317 E.01237
G1 X53.459 Y104.036 E.01237
G1 X53.546 Y103.768 E.01234
G1 X53.733 Y103.445 E.01634
G1 X65.401 Y85.46 E.93877
G1 X79.133 Y85.46 E.60131
M204 P1000
G1 E-2.24 F4200
;WIPE_START
G1 F7200
G1 X79.678 Y87.104 E-.96
;WIPE_END
G1 Z.45 F720
G1 X91.229 Y123.642 F9000
G1 Z.25 F720
G1 E3.2 F2400
M204 P800
G1 F1200
G1 X91.355 Y124.063 E.01924
G1 X91.246 Y123.7 E.0166
M204 P1000
G1 E-2.24 F4200
;WIPE_START
G1 F7200
G1 X91.355 Y124.063 E-.21004
G1 X91.246 Y123.7 E-.21004
;WIPE_END
G1 E-.53992 F4200
G1 Z.45 F720
G1 X79.461 Y85.093 F9000
G1 Z.25 F720
G1 E3.2 F2400
M204 P800
G1 F1200
G1 X91.712 Y123.956 E1.78434
G1 X91.75 Y124.317 E.0159
G1 X91.712 Y124.675 E.01576
G1 X91.601 Y125.016 E.0157
G1 X91.421 Y125.328 E.01577
G1 X91.369 Y125.386 E.00341
G1 X81.092 Y91.066 E1.56878
G1 X80.902 Y90.483 E.02685
G1 X80.559 Y89.889 E.03004
G1 X80.101 Y89.379 E.03002
G1 X79.546 Y88.976 E.03003
G1 X78.919 Y88.697 E.03005
G1 X78.248 Y88.554 E.03004
G1 X66.563 Y88.554 E.51168
G1 X65.892 Y88.697 E.03004
G1 X65.265 Y88.976 E.03005
G1 X64.71 Y89.379 E.03003
G1 X64.269 Y89.869 E.02887
G1 X53.67 Y105.624 E.83149
G1 X53.389 Y105.328 E.01787
G1 X53.21 Y105.016 E.01575
G1 X53.099 Y104.675 E.0157
G1 X53.061 Y104.317 E.01576
G1 X53.099 Y103.96 E.01572
G1 X53.21 Y103.618 E.01574
G1 X53.42 Y103.253 E.01844
G1 X65.202 Y85.093 E.94791
G1 X79.401 Y85.093 E.62176
M204 P1000
G1 X79.73 Y84.727 F9000
M204 P800
;TYPE:External perimeter
G1 F1200
G1 X92.072 Y123.881 E1.79769
G1 X92.118 Y124.317 E.0192
G1 X92.073 Y124.751 E.01911
G1 X91.938 Y125.166 E.01911
G1 X91.719 Y125.544 E.01913
G1 X91.427 Y125.869 E.01913
G1 X91.184 Y126.046 E.01316
G1 X80.742 Y91.175 E1.59397
G1 X80.566 Y90.633 E.02495
G1 X80.261 Y90.105 E.0267
G1 X79.854 Y89.653 E.02663
G1 X79.362 Y89.295 E.02664
G1 X78.805 Y89.047 E.0267
G1 X78.21 Y88.921 E.02663
G1 X66.601 Y88.921 E.50835
G1 X66.006 Y89.047 E.02663
G1 X65.449 Y89.295 E.0267
G1 X64.957 Y89.653 E.02664
G1 X64.559 Y90.095 E.02605
G1 X53.763 Y106.143 E.84695
G1 X53.384 Y105.869 E.02048
G1 X53.091 Y105.544 E.01916
G1 X52.873 Y105.166 E.01911
G1 X52.738 Y104.751 E.01911
G1 X52.693 Y104.317 E.01911
G1 X52.738 Y103.883 E.01911
G1 X52.873 Y103.468 E.01911
G1 X53.108 Y103.062 E.02054
G1 X65.003 Y84.727 E.95704
G1 X79.67 Y84.727 E.64226
M204 P1000
G1 X79.682 Y85.124 F9000
G1 E-2.24 F4200
;WIPE_START
G1 F7200
G1 X80.193 Y86.378 E-.96
;WIPE_END
G1 Z.45 F720
G1 X79.457 Y86.664 F9000
G1 Z.25 F720
G1 E3.2 F2400
M204 P800
;TYPE:Solid infill
;WIDTH:0.421908
G1 F1200
G1 X78.527 Y85.734 E.05789
G1 X78.007 Y85.734 E.02289
G1 X79.444 Y87.172 E.08948
G1 X79.684 Y87.933 E.03512
G1 X77.486 Y85.734 E.13686
G1 X76.965 Y85.734 E.02293
G1 X79.472 Y88.241 E.15606
G1 X79.118 Y88.084 E.01705
G1 X78.706 Y87.996 E.01854
G1 X76.444 Y85.734 E.14081
G1 X75.923 Y85.734 E.02293
G1 X78.102 Y87.913 E.13564
G1 X77.581 Y87.913 E.02293
G1 X75.403 Y85.734 E.13561
G1 X74.882 Y85.734 E.02293
G1 X77.061 Y87.913 E.13564
G1 X76.54 Y87.913 E.02293
G1 X74.361 Y85.734 E.13564
G1 X73.84 Y85.734 E.02293
G1 X76.019 Y87.913 E.13564
G1 X75.498 Y87.913 E.02293
G1 X73.319 Y85.734 E.13564
G1 X72.799 Y85.734 E.02289
G1 X74.977 Y87.913 E.13561
G1 X74.457 Y87.913 E.02289
G1 X72.278 Y85.734 E.13564
G1 X71.757 Y85.734 E.02293
G1 X73.936 Y87.913 E.13564
G1 X73.415 Y87.913 E.02293
G1 X71.236 Y85.734 E.13564
G1 X70.715 Y85.734 E.02293
G1 X72.894 Y87.913 E.13564
G1 X72.373 Y87.913 E.02293
G1 X70.195 Y85.734 E.13561
G1 X69.674 Y85.734 E.02293
G1 X71.853 Y87.913 E.13564
G1 X71.332 Y87.913 E.02293
G1 X69.153 Y85.734 E.13564
G1 X68.632 Y85.734 E.02293
G1 X70.811 Y87.913 E.13564
G1 X70.29 Y87.913 E.02293
G1 X68.111 Y85.734 E.13564
G1 X67.591 Y85.734 E.02289
G1 X69.769 Y87.913 E.13561
G1 X69.249 Y87.913 E.02289
G1 X67.07 Y85.734 E.13564
G1 X66.549 Y85.734 E.02293
G1 X68.728 Y87.913 E.13564
G1 X68.207 Y87.913 E.02293
G1 X66.028 Y85.734 E.13564
G1 X65.55 Y85.734 E.02104
G1 X65.534 Y85.761 E.00138
G1 X67.686 Y87.913 E.13396
G1 X67.165 Y87.913 E.02293
G1 X65.329 Y86.076 E.11432
G1 X65.124 Y86.392 E.01658
G1 X66.645 Y87.913 E.09468
G1 X66.495 Y87.913 E.0066
G1 X66.189 Y87.978 E.01377
G1 X64.919 Y86.708 E.07906
G1 X64.714 Y87.024 E.01658
G1 X65.759 Y88.07 E.06508
G1 X65.388 Y88.219 E.0176
G1 X64.509 Y87.34 E.05472
G1 X64.304 Y87.656 E.01658
G1 X65.028 Y88.38 E.04507
G1 X64.943 Y88.418 E.0041
G1 X64.712 Y88.585 E.01255
G1 X64.099 Y87.972 E.03816
G1 X63.894 Y88.288 E.01658
G1 X64.411 Y88.804 E.03215
G1 X64.279 Y88.9 E.00718
G1 X64.14 Y89.054 E.00913
G1 X63.689 Y88.603 E.02807
G1 X63.484 Y88.919 E.01658
G1 X63.893 Y89.328 E.02546
G1 X63.763 Y89.473 E.00857
G1 X63.664 Y89.62 E.0078
G1 X63.279 Y89.235 E.02397
G1 X63.074 Y89.551 E.01658
G1 X63.455 Y89.931 E.02369
G1 X63.245 Y90.243 E.01655
G1 X62.869 Y89.867 E.02341
G1 X62.664 Y90.183 E.01658
G1 X63.036 Y90.554 E.02313
G1 X62.826 Y90.865 E.01652
G1 X62.46 Y90.499 E.02278
G1 X62.255 Y90.814 E.01654
G1 X62.617 Y91.177 E.02257
G1 X62.407 Y91.488 E.01652
G1 X62.05 Y91.13 E.02225
G1 X61.845 Y91.446 E.01658
G1 X62.198 Y91.799 E.02197
G1 X61.989 Y92.111 E.01653
G1 X61.64 Y91.762 E.02173
G1 X61.435 Y92.078 E.01658
G1 X61.779 Y92.422 E.02141
G1 X61.57 Y92.733 E.01649
G1 X61.23 Y92.394 E.02113
G1 X61.025 Y92.71 E.01658
G1 X61.36 Y93.045 E.02085
G1 X61.151 Y93.356 E.01649
G1 X60.82 Y93.025 E.0206
G1 X60.615 Y93.341 E.01658
G1 X60.941 Y93.667 E.02029
G1 X60.732 Y93.979 E.01653
G1 X60.41 Y93.657 E.02004
G1 X60.205 Y93.973 E.01658
G1 X60.522 Y94.29 E.01973
G1 X60.313 Y94.601 E.01649
G1 X60 Y94.289 E.01945
G1 X59.795 Y94.605 E.01658
G1 X60.103 Y94.913 E.01917
G1 X59.894 Y95.224 E.01649
G1 X59.591 Y94.921 E.01886
G1 X59.386 Y95.237 E.01658
G1 X59.685 Y95.536 E.01861
G1 X59.475 Y95.847 E.01652
G1 X59.181 Y95.552 E.01833
G1 X58.976 Y95.868 E.01658
G1 X59.266 Y96.158 E.01805
G1 X59.056 Y96.47 E.01655
G1 X58.771 Y96.184 E.01777
G1 X58.566 Y96.5 E.01658
G1 X58.847 Y96.781 E.01749
G1 X58.637 Y97.092 E.01652
G1 X58.361 Y96.816 E.01718
G1 X58.156 Y97.132 E.01658
G1 X58.428 Y97.404 E.01693
G1 X58.218 Y97.715 E.01652
G1 X57.951 Y97.448 E.01662
G1 X57.746 Y97.763 E.01654
G1 X58.009 Y98.026 E.01637
G1 X57.8 Y98.338 E.01653
G1 X57.541 Y98.079 E.01612
G1 X57.336 Y98.395 E.01658
G1 X57.59 Y98.649 E.01581
G1 X57.381 Y98.96 E.01649
G1 X57.131 Y98.711 E.01553
G1 X56.926 Y99.027 E.01658
G1 X57.171 Y99.272 E.01525
G1 X56.962 Y99.583 E.01649
G1 X56.721 Y99.343 E.01497
G1 X56.517 Y99.659 E.01656
G1 X56.752 Y99.894 E.01463
G1 X56.543 Y100.206 E.01653
G1 X56.312 Y99.974 E.01441
G1 X56.107 Y100.29 E.01658
G1 X56.333 Y100.517 E.0141
G1 X56.124 Y100.828 E.01649
G1 X55.902 Y100.606 E.01382
G1 X55.697 Y100.922 E.01658
G1 X55.915 Y101.14 E.01357
G1 X55.705 Y101.451 E.01652
G1 X55.492 Y101.238 E.01326
G1 X55.287 Y101.554 E.01658
G1 X55.496 Y101.762 E.01298
G1 X55.286 Y102.074 E.01655
G1 X55.082 Y101.87 E.0127
G1 X54.877 Y102.186 E.01658
G1 X55.077 Y102.385 E.01242
G1 X54.867 Y102.697 E.01655
G1 X54.672 Y102.501 E.01217
G1 X54.467 Y102.817 E.01658
G1 X54.658 Y103.008 E.01189
G1 X54.448 Y103.319 E.01652
G1 X54.262 Y103.133 E.01158
G1 X54.057 Y103.449 E.01658
G1 X54.239 Y103.631 E.01133
G1 X54.029 Y103.942 E.01652
G1 X53.86 Y103.773 E.01052
G1 X53.799 Y103.88 E.00542
G1 X53.729 Y104.094 E.00991
G1 X53.723 Y104.156 E.00274
G1 X53.939 Y104.372 E.01345
M204 P1000
G1 E-2.24 F4200
;WIPE_START
G1 F7200
G1 X53.723 Y104.156 E-.16928
G1 X53.729 Y104.094 E-.03452
G1 X53.799 Y103.88 E-.12477
G1 X53.86 Y103.773 E-.06825
G1 X54.029 Y103.942 E-.13245
G1 X54.239 Y103.631 E-.20796
G1 X54.057 Y103.449 E-.14264
G1 X54.136 Y103.328 E-.08013
;WIPE_END
G1 Z.45 F720
G1 X84.791 Y102.695 F9000
G1 Z.25 F720
G1 E3.2 F2400
M204 P800
;TYPE:Gap fill
;WIDTH:0.148436
G1 F1200
G1 X85.703 Y105.662 E.03517
M204 P1000
M204 P800
;WIDTH:0.192821
G1 X86.615 Y108.63 E.05165
M204 P1000
M204 P800
;WIDTH:0.237207
G1 X87.527 Y111.597 E.0681
M204 P1000
M204 P800
;WIDTH:0.281592
G1 X88.439 Y114.565 E.0846
M204 P1000
M204 P800
;WIDTH:0.325978
G1 X89.351 Y117.532 E.10104
M204 P1000
M204 P800
;WIDTH:0.370363
G1 X90.263 Y120.5 E.11754
M204 P1000
M204 P800
;WIDTH:0.414749
G1 X91.175 Y123.467 E.13397
M204 P1000
G1 E-2.24 F4200
;WIPE_START
G1 F7200
G1 X90.666 Y121.811 E-.96
;WIPE_END
G1 Z.45 F720
G1 X102.302 Y98.142 F9000
G1 Z.25 F720
G1 E3.2 F2400
M204 P800
;TYPE:Perimeter
;WIDTH:0.42
G1 F1200
G1 X102.557 Y97.701 E.02231
G1 X102.941 Y97.274 E.02515
G1 X103.406 Y96.936 E.02517
G1 X103.931 Y96.703 E.02515
G1 X104.493 Y96.583 E.02516
G1 X105.068 Y96.583 E.02518
G1 X105.63 Y96.703 E.02516
G1 X106.155 Y96.936 E.02515
G1 X106.62 Y97.274 E.02517
G1 X107.004 Y97.701 E.02515
G1 X107.292 Y98.199 E.02519
G1 X107.469 Y98.746 E.02518
G1 X107.529 Y99.317 E.02514
G1 X107.469 Y99.889 E.02518
G1 X107.292 Y100.435 E.02513
G1 X107.004 Y100.933 E.02519
G1 X106.62 Y101.36 E.02515
G1 X106.155 Y101.698 E.02517
G1 X105.63 Y101.932 E.02517
G1 X105.068 Y102.051 E.02516
G1 X104.493 Y102.051 E.02518
G1 X103.931 Y101.932 E.02516
G1 X103.406 Y101.698 E.02517
G1 X102.941 Y101.36 E.02517
G1 X102.557 Y100.933 E.02515
G1 X102.269 Y100.435 E.02519
G1 X102.092 Y99.889 E.02513
G1 X102.031 Y99.317 E.02519
G1 X102.092 Y98.746 E.02515
G1 X102.272 Y98.194 E.02542
M204 P1000
G1 X102.622 Y98.32 F9000
M204 P800
G1 F1200
G1 X102.855 Y97.918 E.02035
G1 X103.188 Y97.548 E.0218
G1 X103.59 Y97.255 E.02178
G1 X104.045 Y97.053 E.0218
G1 X104.532 Y96.95 E.0218
G1 X105.029 Y96.95 E.02176
G1 X105.516 Y97.053 E.0218
G1 X105.971 Y97.255 E.0218
G1 X106.373 Y97.548 E.02178
G1 X106.706 Y97.918 E.0218
G1 X106.955 Y98.349 E.0218
G1 X107.109 Y98.822 E.02178
G1 X107.161 Y99.317 E.02179
G1 X107.109 Y99.812 E.02179
G1 X106.955 Y100.285 E.02178
G1 X106.706 Y100.716 E.0218
G1 X106.373 Y101.086 E.0218
G1 X105.971 Y101.379 E.02178
G1 X105.516 Y101.581 E.0218
G1 X105.029 Y101.685 E.02181
G1 X104.532 Y101.685 E.02176
G1 X104.045 Y101.581 E.02181
G1 X103.59 Y101.379 E.0218
G1 X103.188 Y101.086 E.02178
G1 X102.855 Y100.716 E.0218
G1 X102.606 Y100.285 E.0218
G1 X102.452 Y99.812 E.02178
G1 X102.4 Y99.317 E.02179
G1 X102.452 Y98.822 E.02179
G1 X102.597 Y98.375 E.02058
M204 P1000
G1 X102.942 Y98.499 F9000
M204 P800
;TYPE:External perimeter
G1 F1200
G1 X103.153 Y98.134 E.01846
G1 X103.434 Y97.822 E.01839
G1 X103.774 Y97.574 E.01843
G1 X104.159 Y97.403 E.01845
G1 X104.57 Y97.316 E.0184
G1 X104.991 Y97.316 E.01844
G1 X105.402 Y97.403 E.0184
G1 X105.787 Y97.574 E.01845
G1 X106.127 Y97.822 E.01843
G1 X106.408 Y98.134 E.01839
G1 X106.619 Y98.499 E.01846
G1 X106.749 Y98.899 E.01842
G1 X106.793 Y99.317 E.01841
G1 X106.749 Y99.735 E.01841
G1 X106.619 Y100.136 E.01846
G1 X106.408 Y100.5 E.01842
G1 X106.127 Y100.812 E.01839
G1 X105.787 Y101.06 E.01843
G1 X105.402 Y101.231 E.01845
G1 X104.991 Y101.318 E.0184
G1 X104.57 Y101.318 E.01844
G1 X104.159 Y101.231 E.0184
G1 X103.774 Y101.06 E.01845
G1 X103.434 Y100.812 E.01843
G1 X103.153 Y100.5 E.01839
G1 X102.942 Y100.136 E.01842
G1 X102.812 Y99.735 E.01846
G1 X102.768 Y99.317 E.01841
G1 X102.812 Y98.899 E.01841
G1 X102.924 Y98.556 E.0158
M204 P1000
G1 X102.707 Y98.175 F9000
G1 E-2.24 F4200
;WIPE_START
G1 F7200
G1 X103.153 Y98.134 E-.26607
G1 X103.434 Y97.822 E-.23269
G1 X103.774 Y97.574 E-.23321
G1 X104.15 Y97.407 E-.22803
;WIPE_END
G1 Z.45 F720
G1 X106.156 Y110.68 F9000
G1 Z.25 F720
G1 E3.2 F2400
M204 P800
;TYPE:Perimeter
G1 F1200
G1 X106.352 Y110.891 E.01261
G1 X106.559 Y111.247 E.01803
G1 X106.686 Y111.635 E.01788
G1 X106.729 Y112.042 E.01792
G1 X106.686 Y112.449 E.01792
G1 X106.559 Y112.837 E.01788
G1 X106.352 Y113.193 E.01803
G1 X106.156 Y113.405 E.01264
G1 X106.352 Y113.616 E.01261
G1 X106.559 Y113.972 E.01803
G1 X106.686 Y114.36 E.01788
G1 X106.729 Y114.767 E.01792
G1 X106.686 Y115.174 E.01792
G1 X106.559 Y115.562 E.01788
G1 X106.352 Y115.918 E.01803
G1 X106.156 Y116.13 E.01264
G1 X106.352 Y116.341 E.01261
G1 X106.559 Y116.697 E.01803
G1 X106.686 Y117.085 E.01788
G1 X106.729 Y117.491 E.01788
G1 X106.687 Y117.897 E.01787
G1 X106.561 Y118.285 E.01786
G1 X106.357 Y118.638 E.01785
G1 X106.085 Y118.94 E.0178
G1 X105.755 Y119.18 E.01787
G1 X105.383 Y119.346 E.01784
G1 X104.984 Y119.43 E.01785
G1 X104.577 Y119.43 E.01782
G1 X104.178 Y119.346 E.01785
G1 X103.806 Y119.18 E.01784
G1 X103.476 Y118.94 E.01787
G1 X103.204 Y118.638 E.0178
G1 X103 Y118.285 E.01785
G1 X102.874 Y117.897 E.01786
G1 X102.831 Y117.491 E.01788
G1 X102.875 Y117.085 E.01788
G1 X103.002 Y116.697 E.01788
G1 X103.209 Y116.341 E.01803
G1 X103.405 Y116.13 E.01261
G1 X103.209 Y115.918 E.01264
G1 X103.002 Y115.562 E.01803
G1 X102.875 Y115.174 E.01788
G1 X102.832 Y114.767 E.01792
G1 X102.875 Y114.36 E.01792
G1 X103.002 Y113.972 E.01788
G1 X103.209 Y113.616 E.01803
G1 X103.405 Y113.405 E.01261
G1 X103.209 Y113.193 E.01264
G1 X103.002 Y112.837 E.01803
G1 X102.875 Y112.449 E.01788
G1 X102.832 Y112.042 E.01792
G1 X102.875 Y111.635 E.01792
G1 X103.002 Y111.247 E.01788
G1 X103.209 Y110.891 E.01803
