; generated by PrusaSlicer 2.5.0+linux-x64-GTK3 on 2023-03-09 at 13:35:22 UTC

; 
;

; 
;

; 
;

; 

; external perimeters extrusion width = 0.45mm
; perimeters extrusion width = 0.45mm
; infill extrusion width = 0.45mm
; solid infill extrusion width = 0.45mm
; top infill extrusion width = 0.40mm
; first layer extrusion width = 0.42mm

M73 P0 R140
M201 X2500 Y2500 Z400 E5000 ; sets maximum accelerations, mm/sec^2
M203 X180 Y180 Z12 E80 ; sets maximum feedrates, mm / sec
M204 P1250 R1250 T2500 ; sets acceleration (P, T) and retract acceleration (R), mm/sec^2
M205 X8.00 Y8.00 Z2.00 E10.00 ; sets the jerk limits, mm/sec
M205 S0 T0 ; sets the minimum extruding and travel feed rate, mm/sec
M107
;TYPE:Custom
M862.3 P "MINI" ; printer model check
G90 ; use absolute coordinates
M83 ; extruder relative mode
M104 S170 ; set extruder temp for bed leveling
M140 S60 ; set bed temp
M109 R170 ; wait for bed leveling temp
M190 S60 ; wait for bed temp
M204 T1250 ; set travel acceleration
G28 ; home all without mesh bed level
G29 ; mesh bed leveling 
M204 T2500 ; restore travel acceleration
M104 S215 ; set extruder temp
G92 E0
G1 Y-2 X179 F2400
G1 Z3 F720
M109 S215 ; wait for extruder temp

; intro line
G1 X170 F1000
G1 Z0.2 F720
G1 X110 E8 F900
G1 X40 E10 F700
G92 E0

M221 S95 ; set flow
G21 ; set units to millimeters
G90 ; use absolute coordinates
M83 ; use relative distances for extrusion
M900 K0.05 ; Filament gcode LA 1.5
M900 K30 ; Filament gcode LA 1.0
M107
;LAYER_CHANGE
;Z:0.2
;HEIGHT:0.2
;BEFORE_LAYER_CHANGE
G92 E0.0
;0.2


G1 E-3.2 F4200
G1 Z.2 F720
;AFTER_LAYER_CHANGE
;0.2
G1 Z.4
G1 X69.904 Y34.801 F9000
G1 Z.2 F720
G1 E3.2 F2400
M204 P800
;TYPE:Skirt/Brim
;WIDTH:0.42
G1 F1200
G1 X71.032 Y34.033 E.04193
G1 X71.75 Y33.922 E.02232
G1 X108.25 Y33.922 E1.12154
G1 X109.557 Y34.314 E.04193
G1 X110.433 Y35.359 E.04193
G1 X110.615 Y36.062 E.02232
G1 X121.115 Y141.072 E3.24275
G1 X121.059 Y142.077 E.03092
G1 X120.795 Y143.061 E.03129
G1 X120.592 Y143.516 E.01532
G1 X120.04 Y144.367 E.03116
G1 X119.319 Y145.09 E.03138
G1 X118.468 Y145.645 E.03121
G1 X117.991 Y145.858 E.01607
G1 X117.499 Y146.016 E.01587
G1 X116.954 Y146.078 E.01686
G1 X63.046 Y146.078 E1.65645
G1 X62.501 Y146.016 E.01684
G1 X62.009 Y145.858 E.01589
G1 X61.532 Y145.645 E.01606
G1 X60.681 Y145.091 E.03121
G1 X60.309 Y144.756 E.01535
G1 X59.67 Y143.968 E.03119
G1 X59.205 Y143.061 E.03132
G1 X59.044 Y142.564 E.01606
G1 X58.941 Y142.077 E.01528
G1 X58.885 Y141.072 E.03092
G1 X69.385 Y36.062 E3.24275
G1 X69.882 Y34.856 E.04008
M204 P1000
; printing object  id:0 copy 0
G1 E-2.24 F4200
;WIPE_START
G1 F7200
G1 X71.032 Y34.033 E-.78411
G1 X71.26 Y33.998 E-.12789
;WIPE_END
G1 E-.048 F4200
G1 Z.4 F720
G1 X74.379 Y72.435 F9000
G1 Z.2 F720
G1 E3.2 F2400
M204 P800
;TYPE:Perimeter
;WIDTH:0.419999
G1 F1200
G1 X74.529 Y72.463 E.00466
G1 X105.471 Y72.463 E.95079
G1 X105.814 Y72.399 E.0107
M73 P0 R139
G1 X106.208 Y72.109 E.01502
;WIDTH:0.459317
G1 X106.279 Y71.968 E.00536
;WIDTH:0.498634
G1 X106.35 Y71.827 E.00587
;WIDTH:0.537952
G1 X106.421 Y71.686 E.00637
;WIDTH:0.577269
G1 X106.492 Y71.545 E.00688
G1 X106.488 Y71.326 E.00958
;WIDTH:0.567302
G1 X106.488 Y37.537 E1.44381
G1 X107.012 Y37.537 E.02241
G1 X107.012 Y71.326 E1.44381
;WIDTH:0.577269
G1 X107.024 Y71.512 E.00814
G1 X107.077 Y71.731 E.00978
;WIDTH:0.537952
G1 X107.129 Y71.949 E.00906
;WIDTH:0.498634
G1 X107.182 Y72.167 E.00834
;WIDTH:0.459317
G1 X107.235 Y72.386 E.00762
;WIDTH:0.419999
G1 X113.487 Y113.973 E1.29222
;WIDTH:0.465622
G1 X113.479 Y114.075 E.00353
;WIDTH:0.511245
G1 X113.471 Y114.178 E.00391
;WIDTH:0.556868
G1 X113.464 Y114.28 E.0043
;WIDTH:0.602491
G1 X113.456 Y114.382 E.00468
G1 X113.872 Y117.027 E.12209
;WIDTH:0.565686
G1 X114.289 Y119.672 E.11406
;WIDTH:0.529263
G1 X114.302 Y119.761 E.00354
;WIDTH:0.56022
G1 X114.493 Y121.138 E.0586
;WIDTH:0.580968
G1 X114.523 Y121.409 E.01198
G1 X114.596 Y121.76 E.01573
;WIDTH:0.540726
G1 X114.67 Y122.112 E.01455
;WIDTH:0.500484
G1 X114.743 Y122.463 E.01338
;WIDTH:0.460242
G1 X114.816 Y122.814 E.0122
;WIDTH:0.419999
G1 X117.538 Y140.918 E.56254
G1 X117.572 Y141.236 E.00983
G1 X117.53 Y141.647 E.01268
G1 X117.343 Y142.06 E.01392
G1 X117.085 Y142.337 E.01164
G1 X95.053 Y125.551 E.85107
G1 X93.915 Y124.724 E.04321
G1 X93.745 Y124.626 E.00606
G1 X92.461 Y124.054 E.04318
G1 X92.273 Y123.993 E.00606
G1 X90.899 Y123.701 E.04319
G1 X90.703 Y123.68 E.00606
G1 X90 Y123.68 E.02159
G1 X89.101 Y123.701 E.02762
G1 X87.727 Y123.993 E.04319
G1 X87.539 Y124.054 E.00606
G1 X86.255 Y124.626 E.04318
G1 X86.084 Y124.724 E.00606
G1 X84.947 Y125.551 E.0432
G1 X62.915 Y142.337 E.85107
G1 X62.698 Y142.116 E.00953
G1 X62.535 Y141.849 E.00959
G1 X62.428 Y141.382 E.01475
G1 X62.46 Y140.936 E.01371
G1 X65.189 Y122.782 E.5641
;WIDTH:0.45683
G1 X65.277 Y122.321 E.01581
;WIDTH:0.493661
G1 X65.365 Y121.861 E.01722
;WIDTH:0.530491
G1 X65.453 Y121.4 E.01863
;WIDTH:0.560216
G1 X65.507 Y121.138 E.01131
G1 X65.698 Y119.761 E.0586
;WIDTH:0.529282
G1 X65.712 Y119.672 E.00354
;WIDTH:0.565697
G1 X66.128 Y117.028 E.11403
;WIDTH:0.602491
G1 X66.544 Y114.384 E.12206
G1 X66.536 Y114.282 E.00468
;WIDTH:0.556868
G1 X66.528 Y114.179 E.0043
;WIDTH:0.511245
G1 X66.521 Y114.077 E.00391
;WIDTH:0.465622
G1 X66.513 Y113.975 E.00353
;WIDTH:0.419999
G1 X72.765 Y72.386 E1.29227
;WIDTH:0.459318
G1 X72.818 Y72.167 E.00762
;WIDTH:0.498636
G1 X72.871 Y71.949 E.00834
;WIDTH:0.537954
G1 X72.923 Y71.731 E.00906
;WIDTH:0.577272
G1 X72.976 Y71.512 E.00978
G1 X72.988 Y71.326 E.00814
;WIDTH:0.567302
G1 X72.988 Y37.537 E1.44381
G1 X73.512 Y37.537 E.02241
G1 X73.512 Y71.326 E1.44381
;WIDTH:0.577272
G1 X73.508 Y71.545 E.00958
G1 X73.579 Y71.686 E.00688
;WIDTH:0.537954
G1 X73.65 Y71.827 E.00637
;WIDTH:0.498636
G1 X73.721 Y71.968 E.00587
;WIDTH:0.459318
G1 X73.792 Y72.109 E.00536
;WIDTH:0.419999
G1 X74.186 Y72.399 E.01502
G1 X74.32 Y72.424 E.00419
M204 P1000
G1 X74.454 Y72.072 F9000
M204 P800
G1 F1200
G1 X74.529 Y72.086 E.00233
G1 X105.471 Y72.086 E.95079
G1 X105.677 Y72.048 E.00642
G1 X105.913 Y71.874 E.00901
G1 X106.037 Y71.52 E.01151
G1 X106.037 Y37.086 E1.05807
G1 X107.463 Y37.086 E.04381
G1 X107.469 Y71.41 E1.05467
G1 X117.91 Y140.862 E2.15806
G1 X117.947 Y141.197 E.01035
G1 X117.932 Y141.561 E.01118
G1 X117.84 Y141.916 E.01127
G1 X117.669 Y142.249 E.01149
G1 X117.425 Y142.543 E.01175
G1 X117.073 Y142.802 E.01343
G1 X94.824 Y125.851 E.85947
G1 X93.694 Y125.029 E.04294
G1 X92.307 Y124.399 E.0468
G1 X90.703 Y124.058 E.05041
G1 X89.18 Y124.07 E.0468
G1 X87.805 Y124.362 E.04319
G1 X86.306 Y125.029 E.05041
G1 X85.176 Y125.851 E.04294
G1 X62.927 Y142.802 E.85947
G1 X62.646 Y142.607 E.0105
G1 X62.417 Y142.368 E.01017
G1 X62.235 Y142.084 E.01036
G1 X62.111 Y141.764 E.01056
G1 X62.053 Y141.421 E.01068
G1 X62.086 Y140.889 E.01639
G1 X72.537 Y71.326 E2.16147
G1 X72.537 Y37.086 E1.05208
G1 X73.963 Y37.086 E.04381
G1 X73.963 Y71.517 E1.05796
G1 X74.087 Y71.874 E.01162
G1 X74.323 Y72.048 E.00901
G1 X74.395 Y72.061 E.00224
M204 P1000
G1 X74.529 Y71.709 F9000
M204 P800
;TYPE:External perimeter
G1 F1200
G1 X105.471 Y71.709 E.95079
G1 X105.619 Y71.638 E.00502
G1 X105.66 Y71.52 E.00384
G1 X105.66 Y36.709 E1.06966
G1 X107.84 Y36.709 E.06699
G1 X107.842 Y71.354 E1.06453
G1 X118.283 Y140.806 E2.15806
G1 X118.322 Y141.158 E.01087
G1 X118.307 Y141.6 E.0136
G1 X118.198 Y142.032 E.01369
G1 X117.996 Y142.437 E.01392
G1 X117.706 Y142.795 E.01416
G1 X117.33 Y143.091 E.0147
G1 X117.023 Y143.238 E.01046
G1 X94.596 Y126.151 E.86634
G1 X93.472 Y125.334 E.04268
G1 X92.154 Y124.743 E.04439
G1 X90.703 Y124.435 E.04559
G1 X89.258 Y124.439 E.04439
G1 X87.883 Y124.731 E.04319
G1 X86.528 Y125.334 E.04559
G1 X85.404 Y126.151 E.04268
G1 X62.977 Y143.238 E.86634
G1 X62.747 Y143.135 E.00775
G1 X62.424 Y142.912 E.01204
G1 X62.137 Y142.62 E.0126
G1 X61.909 Y142.273 E.01276
G1 X61.752 Y141.88 E.01299
G1 X61.678 Y141.46 E.01311
G1 X61.711 Y140.841 E.01906
G1 X72.16 Y71.326 E2.16
G1 X72.16 Y36.709 E1.06367
M73 P1 R139
G1 X74.34 Y36.709 E.06699
G1 X74.34 Y71.517 E1.06954
G1 X74.381 Y71.638 E.00394
G1 X74.474 Y71.683 E.00318
M204 P1000
G1 X74.631 Y72.096 F9000
G1 E-2.24 F4200
;WIPE_START
G1 F7200
G1 X76.12 Y71.684 E-.912
;WIPE_END
G1 E-.048 F4200
G1 Z.4 F720
G1 X72.993 Y83.215 F9000
G1 Z.2 F720
G1 E3.2 F2400
M204 P800
;TYPE:Perimeter
G1 F1200
G1 X73.745 Y81.886 E.04691
G1 X73.861 Y81.727 E.00606
G1 X74.801 Y80.682 E.04318
G1 X74.948 Y80.55 E.00605
G1 X76.085 Y79.724 E.04319
G1 X76.255 Y79.626 E.00606
G1 X77.539 Y79.054 E.04319
G1 X77.727 Y78.993 E.00606
G1 X79.101 Y78.701 E.04318
G1 X79.297 Y78.68 E.00606
G1 X82.703 Y78.68 E.10464
G1 X82.899 Y78.701 E.00605
G1 X84.273 Y78.993 E.04319
G1 X84.461 Y79.054 E.00606
G1 X85.745 Y79.626 E.04319
G1 X85.916 Y79.724 E.00606
G1 X87.052 Y80.55 E.04318
G1 X87.199 Y80.682 E.00605
G1 X88.139 Y81.727 E.04318
G1 X88.255 Y81.886 E.00606
G1 X88.958 Y83.103 E.04318
G1 X89.038 Y83.283 E.00605
G1 X89.472 Y84.62 E.04319
G1 X89.513 Y84.813 E.00606
;WIDTH:0.458585
G1 X89.569 Y85.157 E.01182
;WIDTH:0.49717
G1 X89.625 Y85.502 E.01292
;WIDTH:0.535755
G1 X89.68 Y85.846 E.01401
;WIDTH:0.57434
G1 X89.738 Y86.297 E.01969
;WIDTH:0.567302
G1 X89.73 Y111.427 E1.07378
;WIDTH:0.563628
G1 X89.658 Y111.886 E.01974
;WIDTH:0.515752
G1 X89.586 Y112.346 E.01792
;WIDTH:0.467876
G1 X89.513 Y112.805 E.01611
;WIDTH:0.419999
G1 X89.472 Y112.998 E.00606
G1 X89.038 Y114.335 E.04319
G1 X88.958 Y114.515 E.00605
G1 X88.168 Y115.856 E.04783
G1 X79.904 Y125.874 E.39906
G1 X78.949 Y126.936 E.04387
M73 P1 R138
G1 X78.802 Y127.068 E.00605
G1 X77.665 Y127.894 E.04319
G1 X77.495 Y127.992 E.00606
G1 X76.211 Y128.564 E.04319
G1 X76.023 Y128.625 E.00606
G1 X74.649 Y128.917 E.04318
G1 X74.453 Y128.938 E.00606
G1 X73.047 Y128.938 E.04318
G1 X72.851 Y128.917 E.00606
G1 X71.477 Y128.625 E.04318
G1 X71.289 Y128.564 E.00606
G1 X70.005 Y127.992 E.04319
G1 X69.835 Y127.894 E.00606
G1 X68.698 Y127.068 E.04319
G1 X68.551 Y126.936 E.00605
G1 X67.611 Y125.891 E.04318
G1 X67.495 Y125.732 E.00606
G1 X66.792 Y124.515 E.04318
G1 X66.712 Y124.335 E.00606
G1 X66.278 Y122.998 E.04319
G1 X66.237 Y122.805 E.00606
;WIDTH:0.45683
G1 X66.169 Y122.341 E.01581
;WIDTH:0.493661
G1 X66.102 Y121.877 E.01722
;WIDTH:0.530491
G1 X66.035 Y121.413 E.01863
;WIDTH:0.560216
G1 X66.02 Y121.203 E.00888
G1 X66.181 Y119.822 E.0586
;WIDTH:0.529282
G1 X66.191 Y119.751 E.00284
;WIDTH:0.565697
G1 X66.643 Y117.113 E.11403
;WIDTH:0.602491
G1 X67.096 Y114.475 E.12206
G1 X67.136 Y114.38 E.00468
;WIDTH:0.556868
G1 X67.176 Y114.286 E.0043
;WIDTH:0.511245
G1 X67.216 Y114.191 E.00391
;WIDTH:0.465622
G1 X67.256 Y114.097 E.00353
;WIDTH:0.419999
G1 X72.499 Y84.738 E.91639
G1 X72.968 Y83.269 E.04738
M204 P1000
G1 X73.336 Y83.366 F9000
M204 P800
G1 F1200
G1 X74.071 Y82.075 E.04566
G1 X75.081 Y80.935 E.0468
G1 X76.409 Y79.97 E.05041
G1 X77.693 Y79.399 E.04319
G1 X79.18 Y79.07 E.0468
G1 X82.82 Y79.07 E.11186
G1 X84.195 Y79.362 E.04318
G1 X85.591 Y79.97 E.0468
G1 X86.831 Y80.856 E.0468
G1 X87.859 Y81.979 E.0468
G1 X88.679 Y83.4 E.05041
G1 X89.138 Y84.852 E.0468
G1 X89.287 Y86.297 E.04464
G1 X89.287 Y111.321 E.76889
G1 X89.138 Y112.766 E.04464
G1 X88.679 Y114.218 E.0468
G1 X87.877 Y115.616 E.04952
G1 X79.613 Y125.634 E.39906
G1 X78.669 Y126.683 E.04337
G1 X77.341 Y127.648 E.05041
G1 X75.945 Y128.256 E.0468
G1 X74.453 Y128.56 E.0468
G1 X72.93 Y128.548 E.0468
G1 X71.443 Y128.219 E.0468
G1 X70.159 Y127.648 E.04319
G1 X68.919 Y126.762 E.0468
G1 X67.891 Y125.639 E.0468
G1 X67.119 Y124.326 E.0468
G1 X66.636 Y122.881 E.0468
G1 X66.465 Y121.368 E.0468
G1 X66.616 Y119.827 E.04758
G1 X72.87 Y84.804 E1.09318
G1 X73.314 Y83.421 E.04462
M204 P1000
G1 X73.674 Y83.533 F9000
M204 P800
;TYPE:External perimeter
G1 F1200
G1 X74.421 Y82.231 E.04613
G1 X75.391 Y81.161 E.04439
G1 X76.562 Y80.315 E.04439
G1 X77.846 Y79.743 E.04319
G1 X79.258 Y79.439 E.04439
G1 X82.742 Y79.439 E.10705
G1 X84.117 Y79.731 E.04318
G1 X85.438 Y80.315 E.04439
G1 X86.609 Y81.161 E.04439
G1 X87.579 Y82.231 E.04439
G1 X88.321 Y83.516 E.04559
G1 X88.763 Y84.892 E.04439
G1 X88.91 Y86.297 E.04343
G1 X88.91 Y111.321 E.76889
G1 X88.763 Y112.726 E.04343
G1 X88.321 Y114.102 E.04439
G1 X87.587 Y115.376 E.0452
G1 X79.322 Y125.394 E.39906
G1 X78.387 Y126.433 E.04294
G1 X77.222 Y127.284 E.04432
G1 X75.904 Y127.875 E.04439
G1 X74.453 Y128.183 E.04559
G1 X73.008 Y128.179 E.04439
G1 X71.596 Y127.875 E.04439
G1 X70.312 Y127.303 E.04319
G1 X69.141 Y126.457 E.04439
G1 X68.171 Y125.387 E.04439
G1 X67.445 Y124.138 E.04439
G1 X66.995 Y122.765 E.04439
G1 X66.84 Y121.329 E.04439
G1 X66.987 Y119.893 E.04433
G1 X73.241 Y84.871 E1.09318
G1 X73.655 Y83.591 E.04134
M204 P1000
G1 X73.435 Y83.212 F9000
G1 E-2.24 F4200
;WIPE_START
G1 F7200
G1 X74.421 Y82.231 E-.86461
G1 X74.479 Y82.168 E-.04739
;WIPE_END
G1 E-.048 F4200
G1 Z.4 F720
G1 X90.993 Y83.215 F9000
G1 Z.2 F720
G1 E3.2 F2400
M204 P800
;TYPE:Perimeter
G1 F1200
G1 X91.745 Y81.886 E.04691
G1 X91.861 Y81.727 E.00606
G1 X92.801 Y80.682 E.04318
G1 X92.948 Y80.551 E.00605
G1 X94.084 Y79.724 E.04318
G1 X94.255 Y79.626 E.00606
G1 X95.539 Y79.054 E.04319
G1 X95.727 Y78.993 E.00606
G1 X97.101 Y78.701 E.04319
G1 X97.297 Y78.68 E.00605
G1 X100.703 Y78.68 E.10464
G1 X100.899 Y78.701 E.00605
G1 X102.273 Y78.993 E.04319
G1 X102.785 Y79.198 E.01692
G1 X103.745 Y79.626 E.0323
G1 X103.916 Y79.724 E.00606
G1 X105.052 Y80.55 E.04318
G1 X105.199 Y80.682 E.00605
G1 X106.139 Y81.727 E.04318
G1 X106.255 Y81.886 E.00606
G1 X106.958 Y83.103 E.04318
G1 X107.038 Y83.283 E.00605
G1 X107.501 Y84.738 E.04691
G1 X112.744 Y114.095 E.91634
;WIDTH:0.465622
G1 X112.784 Y114.19 E.00353
;WIDTH:0.511245
G1 X112.824 Y114.284 E.00391
;WIDTH:0.556868
G1 X112.864 Y114.379 E.0043
;WIDTH:0.602491
G1 X112.904 Y114.473 E.00468
G1 X113.356 Y117.112 E.12209
;WIDTH:0.565686
G1 X113.809 Y119.751 E.11406
;WIDTH:0.529263
G1 X113.819 Y119.822 E.00285
;WIDTH:0.56022
G1 X113.98 Y121.203 E.0586
;WIDTH:0.580968
G1 X113.99 Y121.42 E.00952
G1 X113.931 Y121.774 E.01573
;WIDTH:0.540726
G1 X113.872 Y122.128 E.01455
;WIDTH:0.500484
G1 X113.813 Y122.482 E.01338
;WIDTH:0.460242
G1 X113.754 Y122.836 E.0122
;WIDTH:0.419999
G1 X113.714 Y123.025 E.00594
G1 X113.288 Y124.335 E.04233
G1 X113.208 Y124.515 E.00605
G1 X112.505 Y125.732 E.04318
G1 X112.389 Y125.891 E.00606
G1 X111.449 Y126.936 E.04318
G1 X111.302 Y127.067 E.00605
G1 X110.166 Y127.894 E.04318
G1 X109.702 Y128.122 E.01587
G1 X108.711 Y128.564 E.03335
G1 X108.523 Y128.625 E.00606
G1 X107.149 Y128.917 E.04319
G1 X106.953 Y128.938 E.00606
G1 X105.547 Y128.938 E.04318
G1 X105.351 Y128.917 E.00606
G1 X103.977 Y128.625 E.04319
G1 X103.789 Y128.564 E.00606
G1 X102.505 Y127.992 E.04319
G1 X102.334 Y127.894 E.00606
G1 X101.198 Y127.068 E.04318
G1 X101.051 Y126.936 E.00605
G1 X100.096 Y125.874 E.04387
G1 X91.832 Y115.856 E.39906
G1 X91.042 Y114.515 E.04783
G1 X90.962 Y114.335 E.00605
G1 X90.528 Y112.998 E.04319
G1 X90.487 Y112.805 E.00606
;WIDTH:0.467876
G1 X90.414 Y112.346 E.01611
;WIDTH:0.515752
G1 X90.342 Y111.886 E.01792
;WIDTH:0.563628
G1 X90.27 Y111.427 E.01974
;WIDTH:0.567302
G1 X90.262 Y86.297 E1.07378
;WIDTH:0.57434
G1 X90.32 Y85.846 E.01969
;WIDTH:0.535755
G1 X90.375 Y85.502 E.01401
;WIDTH:0.49717
G1 X90.431 Y85.157 E.01292
;WIDTH:0.458585
G1 X90.487 Y84.813 E.01182
;WIDTH:0.419999
G1 X90.528 Y84.62 E.00606
G1 X90.968 Y83.269 E.04365
M204 P1000
G1 X91.336 Y83.366 F9000
M204 P800
G1 F1200
G1 X92.071 Y82.075 E.04566
G1 X93.081 Y80.935 E.0468
G1 X94.409 Y79.97 E.05041
G1 X95.693 Y79.399 E.04319
G1 X97.18 Y79.07 E.0468
G1 X100.703 Y79.058 E.10825
G1 X102.195 Y79.362 E.0468
G1 X103.694 Y80.029 E.05041
G1 X104.831 Y80.856 E.04318
G1 X105.859 Y81.979 E.0468
G1 X106.679 Y83.4 E.05041
G1 X107.13 Y84.804 E.04532
G1 X113.384 Y119.827 E1.09318
G1 X113.535 Y121.25 E.04397
G1 X113.535 Y121.37 E.0037
G1 X113.355 Y122.908 E.04757
G1 X112.881 Y124.326 E.04594
G1 X112.179 Y125.543 E.04318
G1 X111.081 Y126.762 E.05041
G1 X109.944 Y127.589 E.04318
G1 X108.557 Y128.219 E.0468
G1 X107.07 Y128.548 E.0468
G1 X105.43 Y128.548 E.05041
G1 X104.055 Y128.256 E.04319
G1 X102.659 Y127.648 E.0468
G1 X101.419 Y126.762 E.0468
G1 X100.387 Y125.634 E.04698
G1 X92.123 Y115.616 E.39906
G1 X91.321 Y114.218 E.04952
