; generated by PrusaSlicer 2.6.0-alpha0 on 2023-02-28 at 19:38:47 UTC

; 
;

; 
;

; 
;

; 

; external perimeters extrusion width = 0.45mm
; perimeters extrusion width = 0.45mm
; infill extrusion width = 0.45mm
; solid infill extrusion width = 0.45mm
; top infill extrusion width = 0.40mm
; first layer extrusion width = 0.42mm

M73 P0 R15
M201 X2500 Y2500 Z400 E5000 ; sets maximum accelerations, mm/sec^2
M203 X180 Y180 Z12 E80 ; sets maximum feedrates, mm / sec
M204 P1250 R1250 T2500 ; sets acceleration (P, T) and retract acceleration (R), mm/sec^2
M205 X8.00 Y8.00 Z2.00 E10.00 ; sets the jerk limits, mm/sec
M205 S0 T0 ; sets the minimum extruding and travel feed rate, mm/sec
M107
;TYPE:Custom
M862.3 P "MINI" ; printer model check
G90 ; use absolute coordinates
M83 ; extruder relative mode
M104 S170 ; set extruder temp for bed leveling
M140 S60 ; set bed temp
M109 R170 ; wait for bed leveling temp
M190 S60 ; wait for bed temp
M204 T1250 ; set travel acceleration
G28 ; home all without mesh bed level
G29 ; mesh bed leveling 
M204 T2500 ; restore travel acceleration
M104 S215 ; set extruder temp
G92 E0
G1 Y-2 X179 F2400
G1 Z3 F720
M109 S215 ; wait for extruder temp

; intro line
G1 X170 F1000
G1 Z0.2 F720
G1 X110 E8 F900
G1 X40 E10 F700
G92 E0

M221 S95 ; set flow
G21 ; set units to millimeters
G90 ; use absolute coordinates
M83 ; use relative distances for extrusion
M900 K0.05 ; Filament gcode LA 1.5
M900 K30 ; Filament gcode LA 1.0
M107
;LAYER_CHANGE
;Z:0.25
;HEIGHT:0.25
;BEFORE_LAYER_CHANGE
G92 E0.0
;0.25


M73 P1 R15
G1 E-3.2 F4200
G1 Z.2 F720
G1 Z.25
;AFTER_LAYER_CHANGE
;0.25
G1 Z.45
G1 X64.971 Y74.603 F9000
G1 Z.25 F720
G1 E3.2 F2400
M204 P800
;TYPE:Skirt/Brim
;WIDTH:0.42
G1 F1200
G1 X66.668 Y73.434 E.09024
G1 X68.571 Y72.644 E.09023
G1 X70.596 Y72.266 E.0902
G1 X72.352 Y72.273 E.07689
G1 X112.456 Y75.456 E1.76165
G1 X113.64 Y75.687 E.05282
M73 P2 R15
G1 X114.932 Y76.206 E.06097
G1 X116.088 Y76.981 E.06094
G1 X117.057 Y77.98 E.06094
G1 X117.348 Y78.381 E.0217
M73 P2 R14
G1 X117.998 Y79.611 E.06092
G1 X118.379 Y80.95 E.06096
G1 X118.473 Y82.339 E.06096
G1 X118.276 Y83.717 E.06096
G1 X117.797 Y85.023 E.06091
G1 X117.057 Y86.202 E.06095
G1 X116.088 Y87.201 E.06094
G1 X114.976 Y87.957 E.05888
G1 X73.672 Y107.343 E1.99798
G1 X72.322 Y107.682 E.06095
G1 X71.83 Y107.734 E.02166
G1 X70.931 Y107.734 E.03937
G1 X69.56 Y107.495 E.06094
G1 X68.268 Y106.977 E.06095
G1 X67.84 Y106.73 E.02164
G1 X66.745 Y105.87 E.06097
G1 X65.852 Y104.802 E.06096
G1 X65.202 Y103.571 E.06096
G1 X64.924 Y102.716 E.03937
G1 X61.712 Y84.049 E.82943
G1 X61.527 Y81.844 E.09689
G1 X61.794 Y79.801 E.09022
G1 X62.48 Y77.858 E.09023
G1 X63.554 Y76.099 E.09025
G1 X64.93 Y74.647 E.0876
M204 P1000
; printing object 0 id:0 copy 0
G1 E-2.24 F4200
;WIPE_START
G1 F7200
G1 X66.351 Y73.656 E-.96
;WIPE_END
G1 Z.45 F720
G1 X112.727 Y79.503 F9000
G1 Z.25 F720
G1 E3.2 F2400
M204 P800
;TYPE:Perimeter
G1 F1200
G1 X113.194 Y79.711 E.02239
G1 X113.659 Y80.048 E.02515
G1 X114.043 Y80.475 E.02515
G1 X114.331 Y80.973 E.02519
G1 X114.508 Y81.52 E.02518
G1 X114.569 Y82.091 E.02515
G1 X114.508 Y82.663 E.02519
G1 X114.331 Y83.209 E.02513
G1 X114.043 Y83.707 E.02519
G1 X113.659 Y84.134 E.02515
G1 X113.194 Y84.472 E.02517
G1 X112.669 Y84.706 E.02517
G1 X112.107 Y84.825 E.02516
G1 X103.343 Y84.825 E.38377
G1 X102.781 Y84.706 E.02516
G1 X102.256 Y84.472 E.02517
G1 X101.791 Y84.134 E.02517
G1 X101.407 Y83.707 E.02515
G1 X101.119 Y83.209 E.02519
G1 X100.942 Y82.663 E.02513
G1 X100.881 Y82.091 E.02519
G1 X100.942 Y81.52 E.02515
G1 X101.119 Y80.973 E.02518
G1 X101.407 Y80.475 E.02519
G1 X101.791 Y80.048 E.02515
G1 X102.256 Y79.711 E.02515
G1 X102.781 Y79.477 E.02517
G1 X103.343 Y79.357 E.02516
G1 X112.107 Y79.357 E.38377
G1 X112.672 Y79.478 E.0253
M204 P1000
G1 X112.583 Y79.84 F9000
M204 P800
G1 F1200
G1 X113.01 Y80.03 E.02047
G1 X113.413 Y80.322 E.02179
G1 X113.745 Y80.692 E.02177
G1 X113.994 Y81.123 E.0218
G1 X114.148 Y81.596 E.02178
G1 X114.2 Y82.091 E.02179
G1 X114.148 Y82.586 E.02179
G1 X113.994 Y83.06 E.02182
G1 X113.745 Y83.491 E.0218
G1 X113.413 Y83.86 E.02174
G1 X113.01 Y84.153 E.02182
G1 X112.555 Y84.355 E.0218
G1 X112.068 Y84.459 E.02181
G1 X103.382 Y84.459 E.38035
G1 X102.895 Y84.355 E.02181
G1 X102.44 Y84.153 E.0218
G1 X102.037 Y83.86 E.02182
G1 X101.705 Y83.491 E.02174
G1 X101.456 Y83.06 E.0218
G1 X101.302 Y82.586 E.02182
G1 X101.25 Y82.091 E.02179
G1 X101.302 Y81.596 E.02179
G1 X101.456 Y81.123 E.02178
G1 X101.705 Y80.692 E.0218
G1 X102.037 Y80.322 E.02177
G1 X102.44 Y80.03 E.02179
G1 X102.895 Y79.827 E.02182
G1 X103.382 Y79.724 E.0218
G1 X112.068 Y79.724 E.38035
G1 X112.526 Y79.821 E.0205
M204 P1000
M73 P3 R14
G1 X112.428 Y80.175 F9000
M204 P800
;TYPE:External perimeter
G1 F1200
G1 X112.826 Y80.349 E.01902
G1 X113.166 Y80.596 E.0184
G1 X113.447 Y80.908 E.01839
G1 X113.658 Y81.273 E.01846
G1 X113.788 Y81.673 E.01842
G1 X113.832 Y82.091 E.01841
G1 X113.788 Y82.51 E.01845
G1 X113.658 Y82.91 E.01842
G1 X113.447 Y83.274 E.01842
G1 X113.166 Y83.587 E.01842
G1 X112.826 Y83.834 E.0184
G1 X112.441 Y84.005 E.01845
G1 X112.03 Y84.092 E.0184
G1 X103.42 Y84.092 E.37703
G1 X103.009 Y84.005 E.0184
G1 X102.624 Y83.834 E.01845
G1 X102.284 Y83.587 E.0184
G1 X102.003 Y83.274 E.01842
G1 X101.792 Y82.91 E.01842
G1 X101.662 Y82.51 E.01842
G1 X101.618 Y82.091 E.01845
G1 X101.662 Y81.673 E.01841
G1 X101.792 Y81.273 E.01842
G1 X102.003 Y80.908 E.01846
G1 X102.284 Y80.596 E.01839
G1 X102.624 Y80.349 E.0184
G1 X103.009 Y80.177 E.01846
G1 X103.42 Y80.09 E.0184
G1 X112.03 Y80.09 E.37703
G1 X112.37 Y80.162 E.01522
M204 P1000
G1 X112.716 Y79.896 F9000
G1 E-2.24 F4200
;WIPE_START
G1 F7200
G1 X112.826 Y80.349 E-.27312
G1 X113.166 Y80.596 E-.23289
G1 X113.447 Y80.908 E-.23269
G1 X113.647 Y81.254 E-.2213
;WIPE_END
G1 Z.45 F720
G1 X73.912 Y81.035 F9000
G1 Z.25 F720
G1 E3.2 F2400
M204 P800
;TYPE:Perimeter
G1 F1200
G1 X74.069 Y81.52 E.02232
G1 X74.129 Y82.091 E.02514
G1 X74.069 Y82.663 E.02518
G1 X73.892 Y83.209 E.02513
G1 X73.604 Y83.707 E.02519
G1 X73.22 Y84.134 E.02515
G1 X72.755 Y84.472 E.02517
G1 X72.23 Y84.706 E.02517
G1 X71.668 Y84.825 E.02516
G1 X71.093 Y84.825 E.02518
G1 X70.531 Y84.706 E.02516
G1 X70.006 Y84.472 E.02517
G1 X69.541 Y84.134 E.02517
G1 X69.156 Y83.707 E.02518
G1 X68.869 Y83.209 E.02517
G1 X68.692 Y82.663 E.02513
G1 X68.631 Y82.091 E.02519
G1 X68.692 Y81.52 E.02515
G1 X68.869 Y80.973 E.02518
G1 X69.156 Y80.475 E.02517
G1 X69.541 Y80.048 E.02518
G1 X70.006 Y79.711 E.02515
G1 X70.531 Y79.477 E.02517
G1 X71.093 Y79.357 E.02516
G1 X71.668 Y79.357 E.02518
G1 X72.23 Y79.477 E.02516
G1 X72.755 Y79.711 E.02517
G1 X73.185 Y80.023 E.02326
G1 X73.6 Y80.468 E.02664
G1 X73.893 Y80.978 E.02576
M204 P1000
G1 X73.539 Y81.095 F9000
M204 P800
G1 F1200
G1 X73.709 Y81.596 E.02317
G1 X73.761 Y82.091 E.02179
G1 X73.709 Y82.586 E.02179
G1 X73.555 Y83.06 E.02182
G1 X73.306 Y83.491 E.0218
G1 X72.973 Y83.86 E.02177
G1 X72.571 Y84.153 E.02178
G1 X72.116 Y84.355 E.0218
G1 X71.629 Y84.459 E.02181
G1 X71.132 Y84.459 E.02176
G1 X70.645 Y84.355 E.02181
G1 X70.19 Y84.153 E.0218
G1 X69.788 Y83.86 E.02178
G1 X69.454 Y83.491 E.02179
G1 X69.206 Y83.06 E.02177
G1 X69.052 Y82.586 E.02182
G1 X69 Y82.091 E.02179
G1 X69.052 Y81.596 E.02179
G1 X69.206 Y81.123 E.02178
G1 X69.454 Y80.692 E.02177
G1 X69.788 Y80.322 E.02183
G1 X70.19 Y80.03 E.02176
G1 X70.645 Y79.827 E.02182
G1 X71.132 Y79.724 E.0218
G1 X71.629 Y79.724 E.02176
G1 X72.116 Y79.827 E.0218
G1 X72.571 Y80.03 E.02182
G1 X72.941 Y80.299 E.02003
G1 X73.304 Y80.687 E.02327
G1 X73.509 Y81.043 E.01799
M204 P1000
G1 X73.219 Y81.273 F9000
M204 P800
;TYPE:External perimeter
G1 F1200
G1 X73.349 Y81.673 E.01842
G1 X73.393 Y82.091 E.01841
G1 X73.349 Y82.51 E.01845
G1 X73.219 Y82.91 E.01842
G1 X73.008 Y83.274 E.01842
G1 X72.727 Y83.587 E.01842
G1 X72.387 Y83.834 E.0184
G1 X72.002 Y84.005 E.01845
G1 X71.591 Y84.092 E.0184
G1 X71.17 Y84.092 E.01844
G1 X70.759 Y84.005 E.0184
G1 X70.374 Y83.834 E.01845
G1 X70.034 Y83.587 E.0184
G1 X69.752 Y83.274 E.01845
G1 X69.542 Y82.91 E.0184
G1 X69.412 Y82.51 E.01842
G1 X69.368 Y82.091 E.01845
G1 X69.412 Y81.673 E.01841
G1 X69.542 Y81.273 E.01842
G1 X69.752 Y80.908 E.01844
G1 X70.034 Y80.596 E.01842
G1 X70.374 Y80.349 E.0184
G1 X70.759 Y80.177 E.01846
G1 X71.17 Y80.09 E.0184
G1 X71.591 Y80.09 E.01844
G1 X72.002 Y80.177 E.0184
G1 X72.387 Y80.349 E.01846
G1 X72.697 Y80.574 E.01677
G1 X73.007 Y80.907 E.01992
G1 X73.189 Y81.221 E.01589
M204 P1000
G1 X73.617 Y81.313 F9000
G1 E-2.24 F4200
;WIPE_START
G1 F7200
G1 X73.349 Y81.673 E-.26571
G1 X73.393 Y82.091 E-.23292
G1 X73.349 Y82.51 E-.23347
G1 X73.222 Y82.901 E-.2279
;WIPE_END
G1 Z.45 F720
G1 X72.756 Y93.454 F9000
G1 Z.25 F720
G1 E3.2 F2400
M204 P800
;TYPE:Perimeter
G1 F1200
G1 X72.952 Y93.665 E.01261
G1 X73.159 Y94.022 E.01807
G1 X73.286 Y94.409 E.01784
G1 X73.329 Y94.816 E.01792
G1 X73.286 Y95.223 E.01792
G1 X73.159 Y95.611 E.01788
G1 X72.952 Y95.968 E.01807
G1 X72.756 Y96.179 E.01261
G1 X72.952 Y96.39 E.01261
G1 X73.159 Y96.747 E.01807
G1 X73.286 Y97.134 E.01784
G1 X73.329 Y97.541 E.01792
G1 X73.286 Y97.948 E.01792
G1 X73.159 Y98.336 E.01788
G1 X72.952 Y98.693 E.01807
G1 X72.756 Y98.904 E.01261
G1 X72.952 Y99.115 E.01261
G1 X73.159 Y99.471 E.01803
G1 X73.286 Y99.859 E.01788
G1 X73.325 Y100.226 E.01616
G1 X73.29 Y100.66 E.01907
G1 X73.161 Y101.059 E.01836
G1 X72.957 Y101.412 E.01785
G1 X72.685 Y101.715 E.01783
G1 X72.355 Y101.954 E.01784
G1 X71.983 Y102.12 E.01784
G1 X71.584 Y102.205 E.01786
G1 X71.177 Y102.205 E.01782
G1 X70.778 Y102.12 E.01786
G1 X70.406 Y101.954 E.01784
G1 X70.076 Y101.715 E.01784
G1 X69.804 Y101.412 E.01783
G1 X69.6 Y101.059 E.01785
G1 X69.474 Y100.671 E.01786
G1 X69.431 Y100.266 E.01783
G1 X69.475 Y99.859 E.01793
G1 X69.602 Y99.471 E.01788
G1 X69.809 Y99.115 E.01803
G1 X70.005 Y98.904 E.01261
G1 X69.809 Y98.693 E.01261
G1 X69.602 Y98.336 E.01807
G1 X69.475 Y97.948 E.01788
G1 X69.432 Y97.541 E.01792
G1 X69.475 Y97.134 E.01792
G1 X69.602 Y96.747 E.01784
G1 X69.809 Y96.39 E.01807
G1 X70.005 Y96.179 E.01261
G1 X69.809 Y95.968 E.01261
G1 X69.602 Y95.611 E.01807
G1 X69.475 Y95.223 E.01788
G1 X69.432 Y94.816 E.01792
G1 X69.475 Y94.409 E.01792
G1 X69.602 Y94.022 E.01784
G1 X69.809 Y93.665 E.01807
G1 X70.005 Y93.454 E.01261
G1 X69.809 Y93.243 E.01261
G1 X69.602 Y92.886 E.01807
G1 X69.475 Y92.498 E.01788
G1 X69.431 Y92.092 E.01788
G1 X69.474 Y91.686 E.01788
G1 X69.6 Y91.299 E.01782
G1 X69.804 Y90.946 E.01785
G1 X70.076 Y90.643 E.01783
G1 X70.406 Y90.403 E.01787
G1 X70.778 Y90.238 E.01782
G1 X71.177 Y90.153 E.01786
G1 X71.584 Y90.153 E.01782
G1 X71.983 Y90.238 E.01786
G1 X72.355 Y90.403 E.01782
G1 X72.685 Y90.643 E.01787
G1 X72.957 Y90.946 E.01783
G1 X73.161 Y91.299 E.01785
G1 X73.287 Y91.686 E.01782
G1 X73.329 Y92.092 E.01787
G1 X73.286 Y92.498 E.01788
G1 X73.159 Y92.886 E.01788
G1 X72.952 Y93.243 E.01807
G1 X72.797 Y93.41 E.00998
M204 P1000
G1 X72.186 Y93.437 F9000
M204 P800
G1 F1200
G1 X72.163 Y93.454 E.00125
G1 X72.428 Y93.638 E.01413
G1 X72.655 Y93.884 E.01466
G1 X72.823 Y94.172 E.0146
G1 X72.926 Y94.487 E.01451
G1 X72.961 Y94.816 E.01449
G1 X72.926 Y95.146 E.01453
G1 X72.823 Y95.46 E.01447
G1 X72.655 Y95.749 E.01464
G1 X72.428 Y95.994 E.01463
G1 X72.163 Y96.179 E.01415
G1 X72.428 Y96.363 E.01413
G1 X72.655 Y96.609 E.01466
G1 X72.823 Y96.897 E.0146
G1 X72.926 Y97.212 E.01451
G1 X72.961 Y97.541 E.01449
G1 X72.926 Y97.871 E.01453
G1 X72.823 Y98.185 E.01447
G1 X72.655 Y98.474 E.01464
G1 X72.428 Y98.719 E.01463
G1 X72.163 Y98.904 E.01415
G1 X72.428 Y99.088 E.01413
G1 X72.655 Y99.334 E.01466
G1 X72.823 Y99.622 E.0146
G1 X72.926 Y99.937 E.01451
G1 X72.957 Y100.231 E.01295
G1 X72.929 Y100.588 E.01568
G1 X72.824 Y100.909 E.01479
G1 X72.659 Y101.195 E.01446
G1 X72.438 Y101.441 E.01448
G1 X72.171 Y101.635 E.01445
G1 X71.869 Y101.769 E.01447
G1 X71.546 Y101.838 E.01446
G1 X71.215 Y101.838 E.01449
G1 X70.892 Y101.769 E.01446
G1 X70.59 Y101.635 E.01447
G1 X70.323 Y101.441 E.01445
G1 X70.102 Y101.195 E.01448
G1 X69.936 Y100.909 E.01448
G1 X69.834 Y100.595 E.01446
G1 X69.8 Y100.266 E.01448
G1 X69.835 Y99.937 E.01449
G1 X69.938 Y99.622 E.01451
G1 X70.106 Y99.334 E.0146
G1 X70.333 Y99.088 E.01466
G1 X70.598 Y98.904 E.01413
G1 X70.333 Y98.719 E.01415
G1 X70.106 Y98.473 E.01466
G1 X69.938 Y98.185 E.0146
G1 X69.835 Y97.871 E.01447
G1 X69.8 Y97.541 E.01453
G1 X69.835 Y97.212 E.01449
G1 X69.938 Y96.897 E.01451
G1 X70.106 Y96.609 E.0146
G1 X70.333 Y96.363 E.01466
G1 X70.598 Y96.179 E.01413
G1 X70.333 Y95.994 E.01415
G1 X70.106 Y95.748 E.01466
G1 X69.938 Y95.46 E.0146
G1 X69.835 Y95.146 E.01447
G1 X69.8 Y94.816 E.01453
G1 X69.835 Y94.487 E.01449
G1 X69.938 Y94.172 E.01451
G1 X70.106 Y93.884 E.0146
G1 X70.333 Y93.638 E.01466
G1 X70.598 Y93.454 E.01413
G1 X70.333 Y93.269 E.01415
G1 X70.106 Y93.023 E.01466
G1 X69.938 Y92.735 E.0146
G1 X69.835 Y92.421 E.01447
G1 X69.8 Y92.092 E.01449
G1 X69.834 Y91.763 E.01448
G1 X69.936 Y91.448 E.0145
G1 X70.102 Y91.162 E.01448
G1 X70.323 Y90.917 E.01445
G1 X70.59 Y90.722 E.01448
G1 X70.892 Y90.588 E.01447
G1 X71.215 Y90.519 E.01446
G1 X71.546 Y90.519 E.01449
G1 X71.869 Y90.588 E.01446
G1 X72.171 Y90.722 E.01447
G1 X72.438 Y90.917 E.01448
G1 X72.659 Y91.162 E.01445
G1 X72.824 Y91.448 E.01446
G1 X72.927 Y91.763 E.01451
G1 X72.961 Y92.092 E.01448
G1 X72.926 Y92.421 E.01449
G1 X72.823 Y92.735 E.01447
G1 X72.655 Y93.023 E.0146
G1 X72.428 Y93.269 E.01466
G1 X72.235 Y93.403 E.01029
M204 P1000
G1 X71.981 Y93.134 F9000
M204 P800
;TYPE:External perimeter
G1 F1200
G1 X71.739 Y93.243 E.01162
G1 X71.272 Y93.271 E.02049
G1 X71.016 Y93.241 E.01129
G1 X70.78 Y93.134 E.01135
G1 X70.575 Y92.991 E.01095
G1 X70.402 Y92.804 E.01116
G1 X70.274 Y92.584 E.01115
G1 X70.195 Y92.344 E.01106
G1 X70.168 Y92.091 E.01114
G1 X70.195 Y91.839 E.0111
G1 X70.273 Y91.598 E.01109
G1 X70.4 Y91.379 E.01109
G1 X70.569 Y91.19 E.0111
G1 X70.774 Y91.041 E.0111
G1 X71.006 Y90.938 E.01112
G1 X71.254 Y90.886 E.0111
G1 X71.507 Y90.886 E.01108
G1 X71.755 Y90.938 E.0111
G1 X71.987 Y91.041 E.01112
G1 X72.192 Y91.19 E.0111
G1 X72.361 Y91.379 E.0111
G1 X72.488 Y91.598 E.01109
G1 X72.566 Y91.839 E.01109
G1 X72.593 Y92.091 E.0111
G1 X72.566 Y92.344 E.01114
G1 X72.487 Y92.584 E.01106
G1 X72.359 Y92.804 E.01115
G1 X72.186 Y92.991 E.01116
G1 X72.03 Y93.1 E.00833
M204 P1000
G1 X71.98 Y93.4 F9000
G1 X71.981 Y93.774
M204 P800
G1 F1200
G1 X72.186 Y93.916 E.01092
G1 X72.359 Y94.103 E.01116
G1 X72.487 Y94.323 E.01115
G1 X72.566 Y94.564 E.01111
G1 X72.593 Y94.816 E.0111
G1 X72.566 Y95.069 E.01114
G1 X72.487 Y95.309 E.01106
G1 X72.359 Y95.529 E.01115
G1 X72.186 Y95.716 E.01116
G1 X71.981 Y95.859 E.01095
G1 X71.739 Y95.968 E.01162
G1 X71.272 Y95.996 E.02049
G1 X71.016 Y95.966 E.01129
G1 X70.78 Y95.859 E.01135
G1 X70.575 Y95.716 E.01095
G1 X70.402 Y95.529 E.01116
G1 X70.274 Y95.309 E.01115
G1 X70.195 Y95.069 E.01106
G1 X70.168 Y94.816 E.01114
G1 X70.195 Y94.564 E.0111
G1 X70.274 Y94.323 E.01111
G1 X70.402 Y94.103 E.01115
G1 X70.575 Y93.916 E.01116
G1 X70.78 Y93.773 E.01095
G1 X71.016 Y93.667 E.01133
G1 X71.272 Y93.636 E.01129
G1 X71.739 Y93.664 E.02049
G1 X71.926 Y93.749 E.00899
M204 P1000
G1 X72.19 Y93.637 F9000
G1 E-2.24 F4200
;WIPE_START
G1 F7200
M73 P4 R14
G1 X72.186 Y93.916 E-.17124
G1 X72.359 Y94.103 E-.14117
G1 X72.487 Y94.323 E-.14105
G1 X72.566 Y94.564 E-.14055
G1 X72.593 Y94.816 E-.14045
G1 X72.566 Y95.069 E-.141
G1 X72.518 Y95.214 E-.08454
;WIPE_END
G1 Z.45 F720
G1 X71.981 Y96.499 F9000
G1 Z.25 F720
G1 E3.2 F2400
M204 P800
G1 F1200
G1 X72.186 Y96.641 E.01092
G1 X72.359 Y96.828 E.01116
G1 X72.487 Y97.048 E.01115
G1 X72.566 Y97.289 E.01111
G1 X72.593 Y97.541 E.0111
G1 X72.566 Y97.794 E.01114
G1 X72.487 Y98.034 E.01106
G1 X72.359 Y98.254 E.01115
G1 X72.186 Y98.441 E.01116
G1 X71.981 Y98.584 E.01095
G1 X71.739 Y98.693 E.01162
G1 X71.272 Y98.721 E.02049
G1 X71.016 Y98.691 E.01129
G1 X70.78 Y98.584 E.01135
G1 X70.575 Y98.441 E.01095
G1 X70.402 Y98.254 E.01116
G1 X70.274 Y98.034 E.01115
G1 X70.195 Y97.794 E.01106
G1 X70.168 Y97.541 E.01114
G1 X70.195 Y97.289 E.0111
G1 X70.274 Y97.048 E.01111
G1 X70.402 Y96.828 E.01115
G1 X70.575 Y96.641 E.01116
G1 X70.78 Y96.499 E.01092
G1 X71.016 Y96.392 E.01135
